; generated by PrusaSlicer 2.9.2 on 2025-08-19 at 22:22:01 UTC


;
;
; 

; external perimeters extrusion width = 0.45mm
; perimeters extrusion width = 0.45mm
; infill extrusion width = 0.45mm
; solid infill extrusion width = 0.45mm
; top infill extrusion width = 0.40mm
; support material extrusion width = 0.35mm
; first layer extrusion width = 0.42mm

M73 P0 R35
M201 X1000 Y1000 Z200 E8000 ; sets maximum accelerations, mm/sec^2
M203 X12000 Y12000 Z720 E7200 ; sets maximum feedrates, mm / min
M204 P1250 T1500 ; sets acceleration (P, T), mm/sec^2
M566 X480.00 Y480.00 Z24.00 E270.00 ; sets the jerk limits, mm/min

; printing object mmu_bump id:0 copy 0
; stop printing object mmu_bump id:0 copy 0

M190 S90 ; set bed temperature and wait for it to be reached
;TYPE:Custom
; Dusa start code
M118 S"Running Start Code - Dual Extruder Mode"
T1			; select T1 so it can become standby, (cura puts a T0 in its preface)
G29 S1 ; load default mesh bed compensation
M280 P0 S90 ; retract the BLtouch
; Sets both active and standby to the same value
M109 T0 S260
M109 T1 S250
T0			; activate tool0
G92 E0			; zero current extruder position
G1 X20.0 Y2.0 Z1.2 		; move onto buildplate
G1 Z0.2 F1000 		; lower to 0.2 mm height, 0.1125 mmE per mmX
G1 X80 Y2.0 E10.0 F500 	; 60 mmX at extra rate
G1 X140 Y2.0 E16.75 F500 	; 60 mmX at std rate
G1 Z5.0 F6000 		; raise Z to 5
G92 E0			; rezero extruder
T1		; activate tool1
G92 E0		; zero current extruder position
G1 X160 Y5.0 Z1.2 	; move onto buildplate
G1 Z0.2 F1000 	; lower to 0.2 mm height
G1 X100 Y5.0 E10.0 F500 	; 60 mmX at extra rate
G1 X40 Y5.0 E16.75 F500 	; 60 mmX at std rate
M73 P1 R35
G1 Z5.0 F6000 		; raise Z to 5
G92 E0			; rezero extruder
T0			; select the first extruder that will be used
M118 S"Finished Start Code"
G21 ; set units to millimeters
G90 ; use absolute coordinates
M83 ; use relative distances for extrusion
T1

M900 K0.08 ; Filament gcode LA 1.5
M900 K45 ; Filament gcode LA 1.0




M107
;LAYER_CHANGE
;Z:0.24
;HEIGHT:0.24
; printing object mmu_bump id:0 copy 0
G1 E-1 F2100
G1 Z.44 F720
G1 X130.209 Y57.6 F10800
G1 Z.24 F720
G1 E1 F2100
M204 P800
;TYPE:Support material
;WIDTH:0.42
G1 F1200
G1 X130.966 Y57.995 E.0314
G1 X131.416 Y57.989 E.01655
G1 X132.029 Y57.827 E.02331
G1 X132.669 Y58.205 E.02733
G1 X133.149 Y58.217 E.01765
G1 X133.73 Y57.847 E.02533
G1 X133.904 Y57.811 E.00653
G1 X134.271 Y57.916 E.01404
G1 X134.612 Y58.204 E.01641
G1 X134.856 Y58.226 E.00901
G1 X135.738 Y57.86 E.03511
G1 X136.253 Y57.942 E.01917
G1 X136.657 Y58.185 E.01733
G1 X137.109 Y58.129 E.01675
G1 X137.552 Y57.923 E.01796
G1 X137.798 Y57.926 E.00905
G1 X138.43 Y58.222 E.02566
G1 X138.884 Y58.207 E.0167
G1 X139.374 Y57.976 E.01992
G1 X139.868 Y58.064 E.01845
G1 X140.068 Y58.179 E.00848
G1 X140.537 Y58.08 E.01762
G1 X140.967 Y57.838 E.01814
G1 X141.264 Y57.807 E.01098
G1 X141.816 Y58.009 E.02161
G1 X142.078 Y58.283 E.01394
G1 X142.562 Y58.316 E.01784
G1 X143.003 Y58.11 E.0179
G1 X143.242 Y58.11 E.00879
G1 X143.916 Y58.437 E.02754
G1 X144.37 Y58.384 E.01681
G1 X144.967 Y58.167 E.02336
G1 X145.331 Y58.259 E.0138
G1 X145.694 Y58.476 E.01555
G1 X146.149 Y58.459 E.01674
G1 X146.728 Y58.229 E.02291
G1 X147.129 Y58.318 E.0151
G1 X147.512 Y58.551 E.01648
G1 X147.967 Y58.521 E.01677
G1 X148.452 Y58.293 E.01971
G1 X148.944 Y58.382 E.01838
G1 X149.326 Y58.613 E.01641
G1 X149.779 Y58.586 E.01669
G1 X150.358 Y58.354 E.02293
G1 X150.757 Y58.445 E.01505
G1 X151.145 Y58.679 E.01666
G1 X151.599 Y58.647 E.01673
G1 X152.084 Y58.419 E.01971
G1 X152.575 Y58.508 E.01835
G1 X152.959 Y58.741 E.01652
G1 X153.414 Y58.711 E.01677
G1 X153.99 Y58.48 E.02282
G1 X154.39 Y58.571 E.01508
G1 X154.761 Y58.805 E.01613
G1 X154.994 Y59.175 E.01608
G1 X155.071 Y59.691 E.01918
G1 X154.787 Y60.288 E.02431
G1 X154.239 Y60.588 E.02297
G1 X154.083 Y60.799 E.00965
G1 X153.92 Y60.872 E.00657
G1 X153.784 Y60.869 E.005
G1 X153.605 Y60.725 E.00845
G1 X153.52 Y60.425 E.01146
G1 X153.237 Y60.375 E.01057
G1 X152.826 Y60.355 E.01513
G1 X152.421 Y60.528 E.01619
G1 X152.267 Y60.737 E.00955
G1 X151.98 Y60.811 E.0109
G1 X151.774 Y60.637 E.00991
G1 X151.713 Y60.367 E.01018
G1 X151.011 Y60.29 E.02597
G1 X150.617 Y60.46 E.01578
G1 X150.445 Y60.678 E.01021
G1 X150.164 Y60.749 E.01066
G1 X149.959 Y60.574 E.00991
G1 X149.894 Y60.29 E.01071
G1 X149.201 Y60.226 E.02559
G1 X148.77 Y60.41 E.01723
G1 X148.687 Y60.58 E.00696
G1 X148.47 Y60.687 E.0089
G1 X148.224 Y60.622 E.00936
G1 X148.082 Y60.246 E.01478
G1 X147.378 Y60.166 E.02605
G1 X146.954 Y60.346 E.01694
G1 X146.871 Y60.518 E.00702
G1 X146.654 Y60.624 E.00888
G1 X146.408 Y60.559 E.00936
G1 X146.267 Y60.186 E.01466
G1 X145.983 Y60.119 E.01073
G1 X145.567 Y60.111 E.0153
G1 X145.178 Y60.272 E.01548
G1 X144.998 Y60.491 E.01042
G1 X144.709 Y60.558 E.01091
G1 X144.512 Y60.388 E.00957
G1 X144.423 Y59.998 E.01471
G1 X143.87 Y60.256 E.02244
G1 X143.537 Y60.133 E.01305
G1 X143.165 Y60.434 E.01759
G1 X142.902 Y60.5 E.00997
G1 X142.696 Y60.325 E.00994
G1 X142.628 Y60.026 E.01127
G1 X142.476 Y60.026 E.00559
G1 X142.256 Y59.803 E.01152
G1 X141.736 Y59.873 E.01929
G1 X141.21 Y60.437 E.02836
G1 X140.961 Y60.373 E.00945
G1 X140.838 Y60.075 E.01185
G1 X140.643 Y59.899 E.00966
G1 X140.147 Y59.873 E.01826
G1 X139.712 Y60.082 E.01774
G1 X139.606 Y60.265 E.00778
G1 X139.39 Y60.374 E.0089
G1 X139.146 Y60.31 E.00928
G1 X139 Y59.916 E.01545
G1 X138.315 Y59.852 E.0253
G1 X137.915 Y60.018 E.01592
G1 X137.732 Y60.244 E.01069
G1 X137.447 Y60.309 E.01075
G1 X137.249 Y60.139 E.0096
G1 X137.178 Y59.827 E.01177
G1 X137.031 Y59.837 E.00542
G1 X136.979 Y59.709 E.00508
G1 X136.1 Y59.955 E.03356
G1 X135.764 Y60.25 E.01644
G1 X135.515 Y60.186 E.00945
G1 X135.353 Y59.72 E.01814
G1 X135.018 Y59.822 E.01288
G1 X134.614 Y59.728 E.01525
G1 X134.219 Y59.941 E.0165
G1 X134.066 Y60.133 E.00903
G1 X133.824 Y60.189 E.00913
G1 X133.075 Y59.626 E.03445
G1 X132.58 Y59.691 E.01836
G1 X132.391 Y59.834 E.00871
G1 X132.251 Y60.189 E.01403
G1 X132.032 Y60.245 E.00831
G1 X131.06 Y59.545 E.04404
G1 X130.578 Y59.947 E.02308
G1 X130.438 Y60.294 E.01376
G1 X130.186 Y60.346 E.00946
G1 X129.478 Y59.57 E.03862
G1 X128.518 Y60.541 E.05021
G1 X128.241 Y60.465 E.01056
G1 X128.004 Y60.25 E.01177
G1 X127.507 Y60.218 E.01831
G1 X126.834 Y60.749 E.03152
G1 X126.579 Y60.801 E.00957
G1 X126.325 Y60.595 E.01202
G1 X126.21 Y60.32 E.01096
G1 X125.65 Y60.444 E.02109
G1 X124.93 Y61.148 E.03703
G1 X124.678 Y61.082 E.00958
G1 X124.549 Y60.92 E.00761
G1 X124.138 Y60.806 E.01568
G1 X123.886 Y60.846 E.00938
G1 X123.421 Y61.231 E.0222
G1 X123.445 Y61.35 E.00446
G1 X123.163 Y61.569 E.01313
G1 X122.945 Y61.525 E.00818
G1 X122.756 Y61.298 E.01086
G1 X122.532 Y61.249 E.00843
G1 X122.101 Y61.365 E.01641
G1 X121.714 Y61.684 E.01844
G1 X121.701 Y61.85 E.00612
G1 X121.425 Y62.074 E.01307
G1 X121.035 Y61.974 E.0148
G1 X120.577 Y61.987 E.01685
G1 X119.696 Y62.652 E.04059
G1 X119.444 Y62.586 E.00958
G1 X119.273 Y62.372 E.01007
G1 X118.774 Y62.559 E.01959
G1 X118.474 Y62.786 E.01383
G1 X118.116 Y63.253 E.02164
G1 X117.245 Y63.286 E.03205
G1 X116.878 Y63.507 E.01575
G1 X116.333 Y64.027 E.0277
G1 X116.039 Y63.947 E.0112
G1 X115.529 Y63.986 E.01881
G1 X115.233 Y64.232 E.01415
G1 X114.822 Y64.772 E.02495
G1 X114.568 Y64.824 E.00953
G1 X114.254 Y64.673 E.01281
G1 X114.11 Y64.974 E.01227
G1 X113.778 Y65.047 E.0125
G1 X113.363 Y65.334 E.01855
G1 X113.234 Y65.646 E.01241
G1 X112.979 Y65.699 E.00958
G1 X112.753 Y65.583 E.00934
G1 X112.298 Y65.689 E.01718
G1 X111.991 Y65.901 E.01372
G1 X111.676 Y66.588 E.02779
G1 X110.821 Y66.753 E.03202
G1 X110.007 Y67.212 E.03436
G1 X110.346 Y67.352 E.01349
G1 X110.166 Y67.598 E.01121
G1 X109.332 Y67.804 E.03159
G1 X109.059 Y67.995 E.01225
G1 X108.702 Y68.673 E.02817
G1 X108.023 Y68.799 E.02539
G1 X107.577 Y69.12 E.0202
G1 X107.289 Y69.815 E.02766
G1 X106.399 Y69.989 E.03334
G1 X106.056 Y70.163 E.01414
G1 X106.012 Y70.917 E.02777
G1 X105.807 Y71.075 E.00952
G1 X105.254 Y71.243 E.02125
G1 X104.88 Y71.628 E.01974
G1 X104.621 Y72.28 E.0258
G1 X104.402 Y72.336 E.00831
G1 X104.109 Y72.111 E.01358
G1 X103.638 Y72.238 E.01794
G1 X103.348 Y72.644 E.01835
G1 X103.483 Y73.366 E.02701
G1 X103.37 Y73.597 E.00946
G1 X103.126 Y73.653 E.0092
G1 X102.721 Y73.515 E.01573
G1 X102.309 Y73.693 E.0165
G1 X101.933 Y74.039 E.01879
G1 X102.255 Y74.603 E.02388
G1 X102.255 Y74.861 E.00949
G1 X102.053 Y75.018 E.00941
G1 X101.385 Y74.881 E.02507
G1 X101.099 Y75.341 E.01992
G1 X101.131 Y76.288 E.03484
G1 X100.933 Y76.446 E.00931
G1 X100.553 Y76.501 E.01412
G1 X100.24 Y76.853 E.01732
G1 X100.031 Y77.372 E.02057
G1 X100.092 Y77.629 E.00971
G1 X99.979 Y77.859 E.00942
G1 X99.591 Y77.912 E.0144
G1 X99.194 Y78.231 E.01873
G1 X99.065 Y79.275 E.03868
G1 X98.869 Y79.433 E.00926
G1 X98.426 Y79.521 E.01661
G1 X98.156 Y79.904 E.01723
G1 X98.135 Y80.835 E.03424
G1 X98.051 Y80.938 E.00489
G1 X97.548 Y81.109 E.01953
G1 X97.296 Y81.481 E.01652
G1 X97.269 Y82.432 E.03498
G1 X97.07 Y82.591 E.00937
G1 X96.736 Y82.504 E.01269
G1 X96.324 Y82.806 E.01878
G1 X96.198 Y83.336 E.02003
G1 X96.482 Y83.812 E.02038
G1 X96.482 Y84.07 E.00949
G1 X96.28 Y84.227 E.00941
G1 X95.955 Y84.133 E.01244
G1 X95.481 Y84.612 E.02478
G1 X95.465 Y85.022 E.01509
G1 X95.762 Y85.48 E.02007
G1 X95.763 Y85.737 E.00945
G1 X95.557 Y85.896 E.00957
G1 X95.257 Y85.896 E.01103
G1 X95.035 Y86.734 E.03187
G1 X95.12 Y87.437 E.02604
G1 X94.915 Y87.596 E.00954
G1 X94.689 Y87.596 E.00831
G1 X94.488 Y87.814 E.0109
G1 X94.38 Y88.37 E.02083
G1 X94.585 Y89.035 E.02559
G1 X93.993 Y90.042 E.04295
G1 X93.968 Y90.528 E.01789
G1 X94.07 Y90.656 E.00602
G1 X94.07 Y90.914 E.00949
G1 X93.833 Y91.092 E.0109
G1 X93.496 Y91.821 E.02953
G1 X93.54 Y92.279 E.01692
G1 X93.686 Y92.555 E.01148
G1 X93.572 Y92.787 E.0095
G1 X93.329 Y92.904 E.00992
G1 X93.331 Y93.205 E.01107
G1 X93.116 Y93.626 E.01738
G1 X93.359 Y94.342 E.0278
G1 X93.244 Y94.574 E.00952
G1 X92.99 Y94.696 E.01036
G1 X93.019 Y95.017 E.01185
G1 X92.8 Y95.448 E.01778
G1 X93.102 Y96.14 E.02776
G1 X92.989 Y96.371 E.00946
G1 X92.762 Y96.477 E.00921
G1 X92.554 Y96.962 E.0194
G1 X92.539 Y97.318 E.0131
G1 X92.932 Y97.949 E.02733
G1 X92.823 Y98.178 E.00933
G1 X92.482 Y98.236 E.01272
G1 X92.367 Y98.599 E.014
G1 X92.558 Y99.447 E.03196
G1 X92.723 Y99.529 E.00677
G1 X92.838 Y99.763 E.00959
G1 X92.724 Y99.995 E.0095
G1 X92.557 Y100.075 E.00681
G1 X92.353 Y100.526 E.0182
G1 X92.487 Y100.971 E.01709
G1 X92.825 Y101.58 E.02561
G1 X92.795 Y101.708 E.00483
G1 X92.503 Y101.999 E.01516
G1 X92.381 Y102.429 E.01643
G1 X92.897 Y103.395 E.04027
G1 X92.784 Y103.625 E.00942
G1 X92.294 Y103.682 E.01814
G1 X92.49 Y104.337 E.02514
G1 X93.043 Y105.205 E.03784
G1 X92.93 Y105.436 E.00946
G1 X92.714 Y105.536 E.00875
G1 X92.414 Y105.903 E.01743
G1 X92.436 Y106.14 E.00875
G1 X92.602 Y106.543 E.01603
G1 X92.823 Y106.721 E.01043
G1 X93.039 Y106.721 E.00794
G1 X93.244 Y106.879 E.00952
G1 X93.237 Y107.17 E.0107
G1 X93.08 Y107.453 E.0119
G1 X92.945 Y108.124 E.02517
G1 X93.552 Y108.67 E.03002
G1 X93.551 Y108.927 E.00945
G1 X93.395 Y109.119 E.0091
G1 X93.402 Y109.591 E.01736
G1 X93.974 Y110.572 E.04175
G1 X93.802 Y110.875 E.01281
G1 X93.731 Y111.464 E.02181
G1 X93.905 Y111.744 E.01212
G1 X94.321 Y112.096 E.02004
G1 X94.435 Y112.328 E.0095
G1 X94.321 Y112.561 E.00954
G1 X94.147 Y112.645 E.0071
G1 X94.145 Y113.012 E.01349
G1 X94.453 Y113.574 E.02356
G1 X94.954 Y113.932 E.02264
G1 X94.954 Y114.19 E.00949
G1 X94.827 Y114.348 E.00745
G1 X94.88 Y114.843 E.0183
G1 X95.311 Y115.45 E.02737
G1 X95.574 Y115.64 E.01193
G1 X95.574 Y115.898 E.00949
G1 X95.467 Y116.031 E.00628
G1 X95.424 Y116.284 E.00944
G1 X95.571 Y116.71 E.01657
G1 X96.261 Y117.321 E.03389
G1 X96.261 Y117.579 E.00949
G1 X96.099 Y117.906 E.01342
G1 X96.275 Y118.367 E.01814
G1 X97.029 Y118.968 E.03545
G1 X97.028 Y119.226 E.00949
G1 X96.738 Y119.706 E.02062
G1 X96.749 Y120.032 E.01199
G1 X96.888 Y120.428 E.01543
G1 X97.415 Y120.48 E.01947
G1 X97.674 Y120.417 E.0098
G1 X97.877 Y120.574 E.00944
G1 X97.877 Y120.832 E.00949
G1 X97.607 Y121.278 E.01917
G1 X97.662 Y121.765 E.01802
G1 X97.819 Y121.923 E.00819
G1 X98.279 Y122.074 E.0178
G1 X98.585 Y121.989 E.01168
G1 X98.788 Y122.146 E.00944
G1 X98.668 Y122.98 E.03098
G1 X98.817 Y123.123 E.00759
G1 X99.015 Y123.626 E.01988
G1 X99.386 Y123.436 E.01533
G1 X99.683 Y123.574 E.01204
G1 X99.797 Y123.805 E.00947
G1 X99.783 Y124.631 E.03038
G1 X100.118 Y125.094 E.02101
G1 X100.426 Y124.938 E.01269
G1 X100.813 Y125.162 E.01644
G1 X100.851 Y126.097 E.03441
G1 X101.22 Y126.492 E.01988
G1 X101.536 Y126.394 E.01216
G1 X101.84 Y126.497 E.0118
G1 X101.923 Y126.599 E.00484
G1 X101.907 Y127.547 E.03486
G1 X102.297 Y127.844 E.01802
G1 X102.9 Y127.829 E.02218
G1 X103.096 Y127.987 E.00926
G1 X103.104 Y129.016 E.03784
G1 X103.187 Y129.179 E.00673
G1 X103.783 Y129.277 E.02221
G1 X103.995 Y129.167 E.00878
G1 X104.246 Y129.219 E.00942
G1 X104.329 Y129.321 E.00484
G1 X104.384 Y129.977 E.0242
G1 X104.533 Y130.367 E.01535
G1 X105.082 Y130.541 E.02118
G1 X105.282 Y130.445 E.00816
G1 X105.537 Y130.497 E.00957
G1 X105.699 Y130.81 E.01296
G1 X105.696 Y131.101 E.0107
G1 X106 Y131.532 E.01939
G1 X106.883 Y131.717 E.03317
G1 X106.996 Y131.948 E.00946
G1 X106.943 Y132.179 E.00871
G1 X107.51 Y132.879 E.03312
G1 X107.698 Y132.922 E.00709
G1 X107.98 Y132.811 E.01114
G1 X108.286 Y132.87 E.01146
G1 X108.4 Y133.101 E.00947
G1 X108.345 Y133.341 E.00905
G1 X108.459 Y133.464 E.00617
G1 X108.462 Y133.66 E.00721
G1 X108.622 Y133.825 E.00845
G1 X108.915 Y133.987 E.01231
G1 X109.479 Y133.916 E.0209
G1 X109.734 Y133.968 E.00957
G1 X109.847 Y134.198 E.00942
G1 X109.788 Y134.453 E.00962
G1 X109.981 Y134.943 E.01936
G1 X110.247 Y135.166 E.01276
G1 X110.988 Y134.94 E.02848
G1 X111.231 Y134.996 E.00917
G1 X111.345 Y135.227 E.00947
G1 X111.266 Y135.569 E.01291
G1 X111.576 Y135.631 E.01162
G1 X111.616 Y136.36 E.02684
G1 X112.518 Y135.905 E.03715
G1 X112.66 Y135.901 E.00522
G1 X112.776 Y135.957 E.00474
G1 X112.895 Y136.222 E.01068
G1 X113.208 Y136.557 E.01686
G1 X113.635 Y136.755 E.01731
G1 X114.355 Y136.85 E.0267
G1 X114.491 Y137.179 E.01309
G1 X115.434 Y137.743 E.0404
G1 X115.614 Y137.593 E.00862
G1 X115.974 Y137.673 E.01356
G1 X116.292 Y138.169 E.02166
G1 X116.781 Y138.509 E.0219
G1 X117.376 Y138.367 E.02249
G1 X117.634 Y138.419 E.00968
G1 X117.766 Y138.746 E.01297
G1 X118.097 Y139.105 E.01795
G1 X118.912 Y139.115 E.02997
G1 X119.198 Y139.039 E.01088
G1 X119.401 Y139.196 E.00944
G1 X119.455 Y139.429 E.00879
G1 X119.852 Y139.707 E.01782
G1 X120.246 Y139.742 E.01454
G1 X120.913 Y139.638 E.02482
G1 X121.115 Y139.795 E.00941
G1 X121.172 Y140.037 E.00914
G1 X121.605 Y140.256 E.01784
G1 X121.992 Y140.291 E.01429
G1 X122.651 Y140.165 E.02467
G1 X122.854 Y140.323 E.00946
G1 X122.902 Y140.528 E.00774
G1 X123.338 Y140.747 E.01794
G1 X123.763 Y140.774 E.01566
G1 X124.412 Y140.614 E.02458
G1 X124.615 Y140.771 E.00944
G1 X124.666 Y140.99 E.00827
G1 X125.131 Y141.147 E.01805
G1 X125.565 Y141.171 E.01598
G1 X126.191 Y140.979 E.02408
G1 X126.626 Y141.191 E.01779
G1 X126.943 Y141.456 E.01519
G1 X127.537 Y141.563 E.02219
G1 X127.729 Y141.337 E.0109
G1 X127.984 Y141.27 E.00969
G1 X128.479 Y141.589 E.02165
G1 X128.909 Y141.694 E.01628
G1 X129.1 Y141.707 E.00704
G1 X129.789 Y141.477 E.02671
G1 X130.239 Y141.828 E.02098
G1 X130.835 Y141.956 E.02241
G1 X131.599 Y141.605 E.03091
G1 X132.076 Y141.948 E.0216
G1 X133.028 Y141.912 E.03503
G1 X133.165 Y141.741 E.00806
G1 X133.416 Y141.675 E.00954
M73 P2 R35
G1 X133.896 Y142.012 E.02156
G1 X134.394 Y142.042 E.01834
G1 X134.844 Y141.976 E.01672
G1 X134.98 Y141.805 E.00803
G1 X135.232 Y141.739 E.00958
G1 X135.47 Y141.939 E.01143
G1 X136.169 Y142.137 E.02671
G1 X136.661 Y142.036 E.01847
G1 X136.796 Y141.868 E.00792
G1 X137.048 Y141.802 E.00958
G1 X137.535 Y142.125 E.02149
G1 X138.13 Y142.254 E.02239
G1 X138.764 Y141.865 E.02735
G1 X139.004 Y141.931 E.00915
G1 X139.343 Y142.202 E.01596
G1 X140.29 Y142.166 E.03485
G1 X140.427 Y141.995 E.00806
G1 X140.679 Y141.929 E.00958
G1 X141.159 Y142.265 E.02154
G1 X141.656 Y142.296 E.01831
G1 X142.106 Y142.23 E.01672
G1 X142.242 Y142.058 E.00806
G1 X142.494 Y141.993 E.00957
G1 X142.733 Y142.193 E.01146
G1 X143.431 Y142.391 E.02668
