; generated by PrusaSlicer 2.9.2 on 2025-08-18 at 19:56:10 UTC


;
;
; 

; external perimeters extrusion width = 0.45mm
; perimeters extrusion width = 0.45mm
; infill extrusion width = 0.45mm
; solid infill extrusion width = 0.45mm
; top infill extrusion width = 0.40mm
; first layer extrusion width = 0.42mm

M73 P0 R76
M201 X1000 Y1000 Z200 E8000 ; sets maximum accelerations, mm/sec^2
M203 X12000 Y12000 Z720 E7200 ; sets maximum feedrates, mm / min
M204 P1250 T1500 ; sets acceleration (P, T), mm/sec^2
M566 X480.00 Y480.00 Z24.00 E270.00 ; sets the jerk limits, mm/min

; printing object mmu_frame_holder3 id:0 copy 0
; stop printing object mmu_frame_holder3 id:0 copy 0
; printing object mmu_frame_holder3 id:0 copy 1
; stop printing object mmu_frame_holder3 id:0 copy 1

M190 S85 ; set bed temperature and wait for it to be reached
;TYPE:Custom
; Dusa start code
M118 S"Running Start Code - Dual Extruder Mode"
T1			; select T1 so it can become standby, (cura puts a T0 in its preface)
G29 S1 ; load default mesh bed compensation
M280 P0 S90 ; retract the BLtouch
; Sets both active and standby to the same value
M109 T0 S250
M109 T1 S230
T0			; activate tool0
G92 E0			; zero current extruder position
G1 X20.0 Y2.0 Z1.2 		; move onto buildplate
G1 Z0.2 F1000 		; lower to 0.2 mm height, 0.1125 mmE per mmX
G1 X80 Y2.0 E10.0 F500 	; 60 mmX at extra rate
G1 X140 Y2.0 E16.75 F500 	; 60 mmX at std rate
G1 Z5.0 F6000 		; raise Z to 5
G92 E0			; rezero extruder
T1		; activate tool1
G92 E0		; zero current extruder position
G1 X160 Y5.0 Z1.2 	; move onto buildplate
G1 Z0.2 F1000 	; lower to 0.2 mm height
G1 X100 Y5.0 E10.0 F500 	; 60 mmX at extra rate
G1 X40 Y5.0 E16.75 F500 	; 60 mmX at std rate
G1 Z5.0 F6000 		; raise Z to 5
M73 P0 R75
G92 E0			; rezero extruder
T0			; select the first extruder that will be used
M118 S"Finished Start Code"
G21 ; set units to millimeters
G90 ; use absolute coordinates
M83 ; use relative distances for extrusion
T1

M900 K0.08 ; Filament gcode LA 1.5
M900 K45 ; Filament gcode LA 1.0




M107
;LAYER_CHANGE
;Z:0.3
;HEIGHT:0.3
; printing object mmu_frame_holder3 id:0 copy 0
G1 E-1 F2100
G1 Z.5 F720
G1 X165.89 Y101.627 F10800
G1 Z.3 F720
G1 E1 F2100
M204 P400
;TYPE:Perimeter
;WIDTH:0.42
G1 F1200
G1 X165.883 Y101.623 E.00036
G1 X165.547 Y101.557 E.01519
G1 X59.271 Y101.557 E4.71385
G1 X59.271 Y96.799 E.21104
G1 X167.874 Y96.788 E4.81706
G1 X185.409 Y114.322 E1.09989
G1 X183.726 Y116.004 E.10554
G1 X182.044 Y117.686 E.10551
G1 X166.175 Y101.817 E.99542
G1 X165.94 Y101.661 E.01251
M204 P1000
G1 X165.754 Y101.955 F10800
M204 P400
G1 F1200
G1 X165.749 Y101.952 E.00026
G1 X165.547 Y101.912 E.00913
G1 X58.916 Y101.912 E4.72959
G1 X58.916 Y96.443 E.24258
M73 P1 R75
G1 X168.022 Y96.432 E4.83937
G1 X185.911 Y114.322 E1.12216
G1 X183.978 Y116.256 E.12128
G1 X182.044 Y118.189 E.12128
G1 X165.924 Y102.068 E1.01119
G1 X165.803 Y101.988 E.00643
M204 P1000
G1 X165.609 Y102.294 F10800
M204 P400
;TYPE:External perimeter
G1 F1200
G1 X165.547 Y102.268 E.00298
G1 X58.56 Y102.268 E4.74538
G1 X58.56 Y96.088 E.27411
G1 X168.169 Y96.077 E4.86168
G1 X186.414 Y114.322 E1.14446
G1 X184.229 Y116.507 E.13706
G1 X182.044 Y118.692 E.13706
G1 X165.672 Y102.32 E1.02697
G1 X165.665 Y102.317 E.00034
M204 P1000
G1 E-1 F2100
G1 Z.5 F720
G1 X185.069 Y114.436 F10800
G1 Z.3 F720
G1 E1 F2100
M204 P400
;TYPE:Solid infill
;WIDTH:0.420731
G1 F1200
G1 X167.741 Y97.108 E1.08917
G1 X167.237 Y97.108 E.0224
G1 X184.704 Y114.574 E1.09788
G1 X184.452 Y114.826 E.01584
G1 X166.733 Y97.108 E1.11371
G1 X166.229 Y97.108 E.0224
G1 X184.2 Y115.078 E1.12955
G1 X183.948 Y115.33 E.01584
G1 X165.726 Y97.108 E1.14536
G1 X165.222 Y97.108 E.0224
G1 X183.696 Y115.582 E1.1612
G1 X183.444 Y115.834 E.01584
G1 X164.718 Y97.108 E1.17704
G1 X164.214 Y97.108 E.0224
G1 X183.192 Y116.086 E1.19288
G1 X182.94 Y116.338 E.01584
G1 X163.71 Y97.108 E1.20872
G1 X163.206 Y97.108 E.0224
G1 X182.688 Y116.59 E1.22456
G1 X182.436 Y116.842 E.01584
G1 X162.702 Y97.109 E1.24037
G1 X162.198 Y97.109 E.0224
M73 P1 R74
G1 X182.184 Y117.094 E1.25621
G1 X182.044 Y117.234 E.0088
G1 X166.396 Y101.586 E.98357
G1 X166.215 Y101.437 E.01042
G1 X166.005 Y101.326 E.01056
G1 X165.872 Y101.286 E.00617
G1 X161.694 Y97.109 E.26258
G1 X161.19 Y97.109 E.0224
G1 X165.318 Y101.237 E.25947
M73 P2 R74
G1 X164.814 Y101.237 E.0224
G1 X160.686 Y97.109 E.25947
G1 X160.183 Y97.109 E.02236
G1 X164.31 Y101.237 E.25944
G1 X163.806 Y101.237 E.0224
G1 X159.679 Y97.109 E.25944
G1 X159.175 Y97.109 E.0224
G1 X163.302 Y101.237 E.25944
G1 X162.799 Y101.237 E.02236
G1 X158.671 Y97.109 E.25947
G1 X158.167 Y97.109 E.0224
G1 X162.295 Y101.237 E.25947
G1 X161.791 Y101.237 E.0224
G1 X157.663 Y97.109 E.25947
G1 X157.159 Y97.109 E.0224
G1 X161.287 Y101.237 E.25947
G1 X160.783 Y101.237 E.0224
G1 X156.655 Y97.109 E.25947
G1 X156.151 Y97.109 E.0224
G1 X160.279 Y101.237 E.25947
G1 X159.775 Y101.237 E.0224
G1 X155.647 Y97.109 E.25947
G1 X155.144 Y97.109 E.02236
G1 X159.271 Y101.237 E.25944
G1 X158.767 Y101.237 E.0224
G1 X154.64 Y97.109 E.25944
G1 X154.136 Y97.109 E.0224
G1 X158.263 Y101.237 E.25944
G1 X157.759 Y101.237 E.0224
G1 X153.632 Y97.109 E.25944
G1 X153.128 Y97.11 E.0224
G1 X157.255 Y101.237 E.25941
G1 X156.751 Y101.237 E.0224
G1 X152.624 Y97.11 E.25941
G1 X152.12 Y97.11 E.0224
G1 X156.247 Y101.237 E.25941
G1 X155.743 Y101.237 E.0224
G1 X151.616 Y97.11 E.25941
G1 X151.112 Y97.11 E.0224
G1 X155.239 Y101.237 E.25941
G1 X154.735 Y101.237 E.0224
G1 X150.608 Y97.11 E.25941
G1 X150.105 Y97.11 E.02236
G1 X154.231 Y101.237 E.25938
G1 X153.727 Y101.237 E.0224
G1 X149.601 Y97.11 E.25938
G1 X149.097 Y97.11 E.0224
G1 X153.223 Y101.237 E.25938
G1 X152.719 Y101.237 E.0224
G1 X148.593 Y97.11 E.25938
G1 X148.089 Y97.11 E.0224
G1 X152.215 Y101.237 E.25938
G1 X151.712 Y101.237 E.02236
G1 X147.585 Y97.11 E.25941
G1 X147.081 Y97.11 E.0224
G1 X151.208 Y101.237 E.25941
G1 X150.704 Y101.237 E.0224
G1 X146.577 Y97.11 E.25941
G1 X146.073 Y97.11 E.0224
G1 X150.2 Y101.237 E.25941
G1 X149.696 Y101.237 E.0224
G1 X145.569 Y97.11 E.25941
G1 X145.065 Y97.11 E.0224
G1 X149.192 Y101.237 E.25941
G1 X148.688 Y101.237 E.0224
G1 X144.562 Y97.11 E.25938
G1 X144.058 Y97.11 E.0224
G1 X148.184 Y101.237 E.25938
G1 X147.68 Y101.237 E.0224
G1 X143.554 Y97.11 E.25938
G1 X143.05 Y97.111 E.0224
G1 X147.176 Y101.237 E.25934
G1 X146.672 Y101.237 E.0224
G1 X142.546 Y97.111 E.25934
G1 X142.042 Y97.111 E.0224
G1 X146.168 Y101.237 E.25934
G1 X145.664 Y101.237 E.0224
G1 X141.538 Y97.111 E.25934
G1 X141.034 Y97.111 E.0224
G1 X145.16 Y101.237 E.25934
G1 X144.656 Y101.237 E.0224
G1 X140.53 Y97.111 E.25934
G1 X140.026 Y97.111 E.0224
G1 X144.152 Y101.237 E.25934
G1 X143.648 Y101.237 E.0224
G1 X139.523 Y97.111 E.25931
G1 X139.019 Y97.111 E.0224
G1 X143.144 Y101.237 E.25931
G1 X142.64 Y101.237 E.0224
G1 X138.515 Y97.111 E.25931
G1 X138.011 Y97.111 E.0224
G1 X142.136 Y101.237 E.25931
G1 X141.632 Y101.237 E.0224
G1 X137.507 Y97.111 E.25931
G1 X137.003 Y97.111 E.0224
G1 X141.128 Y101.237 E.25931
G1 X140.624 Y101.237 E.0224
G1 X136.499 Y97.111 E.25931
G1 X135.995 Y97.111 E.0224
G1 X140.121 Y101.237 E.25934
G1 X139.617 Y101.237 E.0224
G1 X135.491 Y97.111 E.25934
G1 X134.987 Y97.111 E.0224
G1 X139.113 Y101.237 E.25934
G1 X138.609 Y101.237 E.0224
G1 X134.484 Y97.111 E.25931
G1 X133.98 Y97.111 E.0224
G1 X138.105 Y101.237 E.25931
G1 X137.601 Y101.237 E.0224
G1 X133.476 Y97.112 E.25928
G1 X132.972 Y97.112 E.0224
G1 X137.097 Y101.237 E.25928
G1 X136.593 Y101.237 E.0224
G1 X132.468 Y97.112 E.25928
G1 X131.964 Y97.112 E.0224
G1 X136.089 Y101.237 E.25928
G1 X135.585 Y101.237 E.0224
G1 X131.46 Y97.112 E.25928
G1 X130.956 Y97.112 E.0224
G1 X135.081 Y101.237 E.25928
G1 X134.577 Y101.237 E.0224
G1 X130.452 Y97.112 E.25928
G1 X129.948 Y97.112 E.0224
G1 X134.073 Y101.237 E.25928
G1 X133.569 Y101.237 E.0224
G1 X129.444 Y97.112 E.25928
G1 X128.941 Y97.112 E.02236
G1 X133.065 Y101.237 E.25925
G1 X132.561 Y101.237 E.0224
G1 X128.437 Y97.112 E.25925
G1 X127.933 Y97.112 E.0224
G1 X132.057 Y101.237 E.25925
G1 X131.553 Y101.237 E.0224
G1 X127.429 Y97.112 E.25925
G1 X126.925 Y97.112 E.0224
G1 X131.049 Y101.237 E.25925
G1 X130.545 Y101.237 E.0224
G1 X126.421 Y97.112 E.25925
G1 X125.917 Y97.112 E.0224
G1 X130.041 Y101.237 E.25925
G1 X129.537 Y101.237 E.0224
G1 X125.413 Y97.112 E.25925
G1 X124.909 Y97.112 E.0224
G1 X129.034 Y101.237 E.25928
G1 X128.53 Y101.237 E.0224
G1 X124.405 Y97.112 E.25928
G1 X123.902 Y97.112 E.02236
G1 X128.026 Y101.237 E.25925
G1 X127.522 Y101.237 E.0224
G1 X123.398 Y97.113 E.25922
G1 X122.894 Y97.113 E.0224
G1 X127.018 Y101.237 E.25922
G1 X126.514 Y101.237 E.0224
G1 X122.39 Y97.113 E.25922
G1 X121.886 Y97.113 E.0224
G1 X126.01 Y101.237 E.25922
G1 X125.506 Y101.237 E.0224
G1 X121.382 Y97.113 E.25922
G1 X120.878 Y97.113 E.0224
G1 X125.002 Y101.237 E.25922
G1 X124.498 Y101.237 E.0224
G1 X120.374 Y97.113 E.25922
G1 X119.87 Y97.113 E.0224
G1 X123.994 Y101.237 E.25922
G1 X123.49 Y101.237 E.0224
G1 X119.366 Y97.113 E.25922
G1 X118.862 Y97.113 E.0224
G1 X122.986 Y101.237 E.25922
G1 X122.482 Y101.237 E.0224
G1 X118.359 Y97.113 E.25919
G1 X117.855 Y97.113 E.0224
G1 X121.978 Y101.237 E.25919
G1 X121.474 Y101.237 E.0224
G1 X117.351 Y97.113 E.25919
G1 X116.847 Y97.113 E.0224
G1 X120.97 Y101.237 E.25919
G1 X120.466 Y101.237 E.0224
G1 X116.343 Y97.113 E.25919
G1 X115.839 Y97.113 E.0224
G1 X119.962 Y101.237 E.25919
G1 X119.458 Y101.237 E.0224
G1 X115.335 Y97.113 E.25919
G1 X114.831 Y97.113 E.0224
G1 X118.954 Y101.237 E.25919
G1 X118.45 Y101.237 E.0224
G1 X114.327 Y97.113 E.25919
G1 X113.823 Y97.114 E.0224
G1 X117.947 Y101.237 E.25919
G1 X117.443 Y101.237 E.0224
G1 X113.32 Y97.114 E.25916
G1 X112.816 Y97.114 E.0224
G1 X116.939 Y101.237 E.25916
G1 X116.435 Y101.237 E.0224
G1 X112.312 Y97.114 E.25916
G1 X111.808 Y97.114 E.0224
G1 X115.931 Y101.237 E.25916
G1 X115.427 Y101.237 E.0224
G1 X111.304 Y97.114 E.25916
G1 X110.8 Y97.114 E.0224
G1 X114.923 Y101.237 E.25916
G1 X114.419 Y101.237 E.0224
G1 X110.296 Y97.114 E.25916
G1 X109.792 Y97.114 E.0224
G1 X113.915 Y101.237 E.25916
G1 X113.411 Y101.237 E.0224
G1 X109.288 Y97.114 E.25916
G1 X108.784 Y97.114 E.0224
G1 X112.907 Y101.237 E.25916
G1 X112.403 Y101.237 E.0224
G1 X108.281 Y97.114 E.25912
G1 X107.777 Y97.114 E.0224
G1 X111.899 Y101.237 E.25912
G1 X111.395 Y101.237 E.0224
G1 X107.273 Y97.114 E.25912
G1 X106.769 Y97.114 E.0224
G1 X110.891 Y101.237 E.25912
G1 X110.387 Y101.237 E.0224
G1 X106.265 Y97.114 E.25912
G1 X105.761 Y97.114 E.0224
G1 X109.883 Y101.237 E.25912
G1 X109.379 Y101.237 E.0224
G1 X105.257 Y97.114 E.25912
G1 X104.753 Y97.114 E.0224
G1 X108.875 Y101.237 E.25912
G1 X108.371 Y101.237 E.0224
G1 X104.249 Y97.114 E.25912
G1 X103.745 Y97.115 E.0224
G1 X107.867 Y101.237 E.25909
G1 X107.363 Y101.237 E.0224
G1 X103.241 Y97.115 E.25909
G1 X102.738 Y97.115 E.02236
G1 X106.86 Y101.237 E.25909
G1 X106.356 Y101.237 E.0224
G1 X102.234 Y97.115 E.25909
G1 X101.73 Y97.115 E.0224
G1 X105.852 Y101.237 E.25909
G1 X105.348 Y101.237 E.0224
G1 X101.226 Y97.115 E.25909
G1 X100.722 Y97.115 E.0224
G1 X104.844 Y101.237 E.25909
G1 X104.34 Y101.237 E.0224
G1 X100.218 Y97.115 E.25909
G1 X99.714 Y97.115 E.0224
G1 X103.836 Y101.237 E.25909
G1 X103.332 Y101.237 E.0224
G1 X99.21 Y97.115 E.25909
G1 X98.706 Y97.115 E.0224
G1 X102.828 Y101.237 E.25909
G1 X102.324 Y101.237 E.0224
G1 X98.202 Y97.115 E.25909
G1 X97.699 Y97.115 E.02236
G1 X101.82 Y101.237 E.25906
G1 X101.316 Y101.237 E.0224
G1 X97.195 Y97.115 E.25906
G1 X96.691 Y97.115 E.0224
G1 X100.812 Y101.237 E.25906
G1 X100.308 Y101.237 E.0224
G1 X96.187 Y97.115 E.25906
G1 X95.683 Y97.115 E.0224
G1 X99.804 Y101.237 E.25906
G1 X99.3 Y101.237 E.0224
G1 X95.179 Y97.115 E.25906
G1 X94.675 Y97.115 E.0224
G1 X98.796 Y101.237 E.25906
G1 X98.292 Y101.237 E.0224
G1 X94.171 Y97.116 E.25903
G1 X93.667 Y97.116 E.0224
M73 P3 R74
G1 X97.788 Y101.237 E.25903
G1 X97.284 Y101.237 E.0224
G1 X93.163 Y97.116 E.25903
G1 X92.659 Y97.116 E.0224
G1 X96.78 Y101.237 E.25903
G1 X96.276 Y101.237 E.0224
G1 X92.156 Y97.116 E.259
G1 X91.652 Y97.116 E.0224
G1 X95.772 Y101.237 E.259
G1 X95.269 Y101.237 E.02236
G1 X91.148 Y97.116 E.25903
G1 X90.644 Y97.116 E.0224
G1 X94.765 Y101.237 E.25903
G1 X94.261 Y101.237 E.0224
G1 X90.14 Y97.116 E.25903
G1 X89.636 Y97.116 E.0224
G1 X93.757 Y101.237 E.25903
G1 X93.253 Y101.237 E.0224
G1 X89.132 Y97.116 E.25903
G1 X88.628 Y97.116 E.0224
G1 X92.749 Y101.237 E.25903
G1 X92.245 Y101.237 E.0224
G1 X88.124 Y97.116 E.25903
G1 X87.62 Y97.116 E.0224
G1 X91.741 Y101.237 E.25903
G1 X91.237 Y101.237 E.0224
G1 X87.117 Y97.116 E.259
G1 X86.613 Y97.116 E.0224
G1 X90.733 Y101.237 E.259
G1 X90.229 Y101.237 E.0224
G1 X86.109 Y97.116 E.259
G1 X85.605 Y97.116 E.0224
G1 X89.725 Y101.237 E.259
G1 X89.221 Y101.237 E.0224
G1 X85.101 Y97.116 E.259
G1 X84.597 Y97.116 E.0224
G1 X88.717 Y101.237 E.259
G1 X88.213 Y101.237 E.0224
G1 X84.093 Y97.117 E.25897
G1 X83.589 Y97.117 E.0224
G1 X87.709 Y101.237 E.25897
G1 X87.205 Y101.237 E.0224
G1 X83.085 Y97.117 E.25897
G1 X82.581 Y97.117 E.0224
G1 X86.701 Y101.237 E.25897
G1 X86.197 Y101.237 E.0224
G1 X82.078 Y97.117 E.25894
G1 X81.574 Y97.117 E.0224
G1 X85.693 Y101.237 E.25894
G1 X85.189 Y101.237 E.0224
G1 X81.07 Y97.117 E.25894
G1 X80.566 Y97.117 E.0224
G1 X84.685 Y101.237 E.25894
G1 X84.182 Y101.237 E.02236
G1 X80.062 Y97.117 E.25897
G1 X79.558 Y97.117 E.0224
G1 X83.678 Y101.237 E.25897
G1 X83.174 Y101.237 E.0224
G1 X79.054 Y97.117 E.25897
G1 X78.55 Y97.117 E.0224
M73 P3 R73
G1 X82.67 Y101.237 E.25897
G1 X82.166 Y101.237 E.0224
G1 X78.046 Y97.117 E.25897
G1 X77.542 Y97.117 E.0224
G1 X81.662 Y101.237 E.25897
G1 X81.158 Y101.237 E.0224
G1 X77.038 Y97.117 E.25897
G1 X76.535 Y97.117 E.02236
G1 X80.654 Y101.237 E.25894
G1 X80.15 Y101.237 E.0224
G1 X76.031 Y97.117 E.25894
G1 X75.527 Y97.117 E.0224
G1 X79.646 Y101.237 E.25894
G1 X79.142 Y101.237 E.0224
G1 X75.023 Y97.117 E.25894
G1 X74.519 Y97.118 E.0224
G1 X78.638 Y101.237 E.2589
G1 X78.134 Y101.237 E.0224
G1 X74.015 Y97.118 E.2589
G1 X73.511 Y97.118 E.0224
G1 X77.63 Y101.237 E.2589
G1 X77.126 Y101.237 E.0224
G1 X73.007 Y97.118 E.2589
G1 X72.503 Y97.118 E.0224
G1 X76.622 Y101.237 E.2589
G1 X76.118 Y101.237 E.0224
G1 X71.999 Y97.118 E.2589
G1 X71.496 Y97.118 E.02236
G1 X75.614 Y101.237 E.25887
G1 X75.11 Y101.237 E.0224
G1 X70.992 Y97.118 E.25887
G1 X70.488 Y97.118 E.0224
G1 X74.606 Y101.237 E.25887
G1 X74.102 Y101.237 E.0224
G1 X69.984 Y97.118 E.25887
G1 X69.48 Y97.118 E.0224
G1 X73.598 Y101.237 E.25887
G1 X73.095 Y101.237 E.02236
G1 X68.976 Y97.118 E.2589
G1 X68.472 Y97.118 E.0224
G1 X72.591 Y101.237 E.2589
G1 X72.087 Y101.237 E.0224
G1 X67.968 Y97.118 E.2589
G1 X67.464 Y97.118 E.0224
G1 X71.583 Y101.237 E.2589
G1 X71.079 Y101.237 E.0224
G1 X66.96 Y97.118 E.2589
G1 X66.457 Y97.118 E.02236
G1 X70.575 Y101.237 E.25887
G1 X70.071 Y101.237 E.0224
G1 X65.953 Y97.118 E.25887
G1 X65.449 Y97.118 E.0224
G1 X69.567 Y101.237 E.25887
G1 X69.063 Y101.237 E.0224
G1 X64.945 Y97.118 E.25887
G1 X64.441 Y97.119 E.0224
G1 X68.559 Y101.237 E.25884
G1 X68.055 Y101.237 E.0224
G1 X63.937 Y97.119 E.25884
G1 X63.433 Y97.119 E.0224
G1 X67.551 Y101.237 E.25884
G1 X67.047 Y101.237 E.0224
G1 X62.929 Y97.119 E.25884
G1 X62.425 Y97.119 E.0224
G1 X66.543 Y101.237 E.25884
G1 X66.039 Y101.237 E.0224
G1 X61.921 Y97.119 E.25884
G1 X61.417 Y97.119 E.0224
G1 X65.535 Y101.237 E.25884
G1 X65.031 Y101.237 E.0224
G1 X60.914 Y97.119 E.25881
G1 X60.41 Y97.119 E.0224
G1 X64.527 Y101.237 E.25881
G1 X64.023 Y101.237 E.0224
G1 X59.906 Y97.119 E.25881
G1 X59.591 Y97.119 E.014
G1 X59.591 Y97.309 E.00844
G1 X63.519 Y101.237 E.2469
G1 X63.015 Y101.237 E.0224
G1 X59.591 Y97.813 E.21522
G1 X59.591 Y98.317 E.0224
G1 X62.511 Y101.237 E.18354
G1 X62.008 Y101.237 E.02236
G1 X59.591 Y98.82 E.15192
G1 X59.591 Y99.324 E.0224
G1 X61.504 Y101.237 E.12024
G1 X61 Y101.237 E.0224
G1 X59.591 Y99.828 E.08856
G1 X59.591 Y100.332 E.0224
G1 X60.496 Y101.237 E.05688
G1 X59.992 Y101.237 E.0224
G1 X59.431 Y100.676 E.03526
M204 P1000
; stop printing object mmu_frame_holder3 id:0 copy 0
; printing object mmu_frame_holder3 id:0 copy 1
;WIPE_START
G1 F8640
G1 X59.992 Y101.237 E-.18319
G1 X60.496 Y101.237 E-.11637
