; generated by PrusaSlicer 2.9.2 on 2025-08-19 at 23:32:42 UTC


;
;
; 

; external perimeters extrusion width = 0.45mm
; perimeters extrusion width = 0.45mm
; infill extrusion width = 0.45mm
; solid infill extrusion width = 0.45mm
; top infill extrusion width = 0.40mm
; first layer extrusion width = 0.42mm

; external perimeters extrusion width = 0.45mm
; perimeters extrusion width = 0.45mm
; infill extrusion width = 0.45mm
; solid infill extrusion width = 0.45mm
; top infill extrusion width = 0.40mm
; first layer extrusion width = 0.42mm

M73 P0 R83
M201 X1000 Y1000 Z200 E8000 ; sets maximum accelerations, mm/sec^2
M203 X12000 Y12000 Z720 E7200 ; sets maximum feedrates, mm / min
M204 P1250 T1500 ; sets acceleration (P, T), mm/sec^2
M566 X480.00 Y480.00 Z24.00 E270.00 ; sets the jerk limits, mm/min

; printing object mmu_bump id:0 copy 0
; stop printing object mmu_bump id:0 copy 0

M190 S90 ; set bed temperature and wait for it to be reached
;TYPE:Custom
; Dusa start code
M118 S"Running Start Code - Dual Extruder Mode"
T1			; select T1 so it can become standby, (cura puts a T0 in its preface)
G29 S1 ; load default mesh bed compensation
M280 P0 S90 ; retract the BLtouch
; Sets both active and standby to the same value
M109 T0 S260
M109 T1 S250
T0			; activate tool0
G92 E0			; zero current extruder position
G1 X20.0 Y2.0 Z1.2 		; move onto buildplate
G1 Z0.2 F1000 		; lower to 0.2 mm height, 0.1125 mmE per mmX
G1 X80 Y2.0 E10.0 F500 	; 60 mmX at extra rate
G1 X140 Y2.0 E16.75 F500 	; 60 mmX at std rate
M73 P0 R82
G1 Z5.0 F6000 		; raise Z to 5
G92 E0			; rezero extruder
T1		; activate tool1
G92 E0		; zero current extruder position
G1 X160 Y5.0 Z1.2 	; move onto buildplate
G1 Z0.2 F1000 	; lower to 0.2 mm height
G1 X100 Y5.0 E10.0 F500 	; 60 mmX at extra rate
G1 X40 Y5.0 E16.75 F500 	; 60 mmX at std rate
G1 Z5.0 F6000 		; raise Z to 5
G92 E0			; rezero extruder
T0			; select the first extruder that will be used
M118 S"Finished Start Code"
G21 ; set units to millimeters
G90 ; use absolute coordinates
M83 ; use relative distances for extrusion
T1

M900 K0.08 ; Filament gcode LA 1.5
M900 K45 ; Filament gcode LA 1.0




M107
;LAYER_CHANGE
;Z:0.24
;HEIGHT:0.24
; printing object mmu_bump id:0 copy 0
G1 E-1 F2100
G1 Z.44 F720
G1 X144.423 Y97.362 F10800
G1 Z.24 F720
G1 E1 F2100
M204 P800
;TYPE:Perimeter
;WIDTH:0.419999
G1 F1200
G1 X144.198 Y97.354 E.00828
G1 X143.964 Y97.293 E.00889
G1 X143.802 Y97.167 E.00755
G1 X143.693 Y96.978 E.00802
G1 X143.679 Y96.362 E.02266
G1 X141.874 Y96.299 E.06641
G1 X141.933 Y96.674 E.01396
G1 X141.906 Y96.951 E.01023
G1 X141.791 Y97.137 E.00804
G1 X141.58 Y97.278 E.00933
G1 X141.368 Y97.312 E.00789
G1 X140.091 Y97.268 E.04698
G1 X139.852 Y97.204 E.0091
G1 X139.649 Y97.02 E.01007
G1 X139.571 Y96.836 E.00735
G1 X139.453 Y96.306 E.01996
G1 X139.402 Y95.548 E.02793
G1 X139.405 Y95.217 E.01217
G1 X139.453 Y94.863 E.01314
G1 X139.624 Y94.391 E.01846
G1 X139.935 Y93.959 E.01957
G1 X140.381 Y93.633 E.02031
G1 X140.915 Y93.453 E.02072
G1 X141.472 Y93.409 E.02054
G1 X143.78 Y93.487 E.08491
G1 X143.833 Y93.18 E.01145
G1 X143.931 Y93.032 E.00653
;WIDTH:0.445453
G1 X144.212 Y92.857 E.01301
G1 X145.028 Y92.88 E.03209
;WIDTH:0.419999
G1 X145.707 Y92.904 E.02498
G1 X145.916 Y92.953 E.00789
G1 X146.145 Y93.145 E.01099
G1 X146.216 Y93.291 E.00597
G1 X146.227 Y93.864 E.02107
G1 X147.05 Y94.182 E.03244
G1 X147.237 Y94.301 E.00815
G1 X147.36 Y94.482 E.00805
G1 X147.404 Y94.717 E.00879
G1 X147.361 Y95.938 E.04492
G1 X147.294 Y96.182 E.0093
G1 X147.145 Y96.357 E.00845
G1 X146.942 Y96.455 E.00829
G1 X146.137 Y96.448 E.0296
G1 X146.106 Y96.984 E.01974
G1 X145.973 Y97.227 E.01019
G1 X145.761 Y97.368 E.00936
G1 X145.484 Y97.399 E.01025
G1 X144.483 Y97.364 E.03683
M204 P1000
G1 X144.436 Y96.994 F10800
M204 P800
;TYPE:External perimeter
G1 F1200
G1 X144.211 Y96.986 E.00828
G1 X144.079 Y96.924 E.00536
G1 X144.033 Y96.795 E.00504
G1 X144.061 Y96.007 E.02899
G1 X141.825 Y95.929 E.08226
G1 X141.517 Y95.983 E.0115
G1 X141.489 Y96.222 E.00885
G1 X141.569 Y96.731 E.01894
G1 X141.522 Y96.886 E.00596
G1 X141.381 Y96.944 E.00561
G1 X140.104 Y96.899 E.04698
G1 X139.966 Y96.83 E.00567
G1 X139.812 Y96.225 E.02295
G1 X139.77 Y95.527 E.02571
G1 X139.817 Y94.919 E.02242
G1 X139.994 Y94.479 E.01744
G1 X140.267 Y94.148 E.01578
G1 X140.632 Y93.919 E.01584
G1 X141.058 Y93.8 E.01626
G1 X141.508 Y93.777 E.01657
G1 X144.135 Y93.869 E.09665
G1 X144.168 Y93.333 E.01975
G1 X144.295 Y93.229 E.00604
G1 X145.695 Y93.272 E.0515
G1 X145.84 Y93.353 E.00611
G1 X145.872 Y93.463 E.00421
G1 X145.85 Y94.113 E.02391
G1 X146.918 Y94.526 E.0421
G1 X147.021 Y94.626 E.00528
G1 X147.035 Y94.704 E.00291
G1 X146.993 Y95.925 E.04492
G1 X146.921 Y96.065 E.00579
G1 X146.802 Y96.103 E.00459
G1 X145.781 Y96.067 E.03756
G1 X145.754 Y96.855 E.02899
G1 X145.68 Y96.996 E.00585
G1 X145.497 Y97.031 E.00685
G1 X144.496 Y96.996 E.03683
M204 P1000
G1 E-1 F2100
G1 Z.44 F720
G1 X144.491 Y97.139 F10800
G1 X145.885 Y97.187
G1 X147.124 Y96.257
G1 X147.186 Y94.476
G1 X146.026 Y93.141
G1 X144.02 Y93.071
G1 X143.427 Y93.701
G1 X143.031 Y92.232
G1 X143.023 Y92.456
G1 Z.24 F720
G1 E1 F2100
M204 P800
;TYPE:Perimeter
G1 F1200
G1 X140.136 Y92.357 E.10621
G1 X139.847 Y92.263 E.01117
G1 X139.662 Y92.055 E.01024
G1 X139.602 Y91.806 E.00942
G1 X139.665 Y90.004 E.0663
G1 X139.73 Y89.763 E.00918
G1 X139.837 Y89.623 E.00648
;WIDTH:0.454091
G1 X140.237 Y89.455 E.01743
G1 X143.174 Y89.558 E.11805
G1 X143.77 Y89.516 E.024
;WIDTH:0.449987
G1 X143.898 Y89.447 E.00578
G1 X143.823 Y89.329 E.00556
G1 X143.478 Y89.186 E.01485
;WIDTH:0.454094
G1 X143.188 Y89.155 E.01172
G1 X140.251 Y89.053 E.11805
G1 X139.864 Y88.857 E.01743
;WIDTH:0.419999
G1 X139.73 Y88.597 E.01075
G1 X139.781 Y86.68 E.07051
G1 X139.84 Y86.45 E.00873
G1 X139.941 Y86.31 E.00635
G1 X140.354 Y86.151 E.01627
;WIDTH:0.41389
G1 X144.78 Y86.303 E.16013
;WIDTH:0.415176
G1 X144.878 Y86.303 E.00356
;WIDTH:0.456082
G1 X145.914 Y86.271 E.04184
;WIDTH:0.484516
G1 X146.012 Y86.273 E.00424
;WIDTH:0.512949
G1 X146.11 Y86.274 E.00451
G1 X146.264 Y86.368 E.00831
;WIDTH:0.487063
G1 X146.362 Y86.546 E.00883
;WIDTH:0.453531
G1 X146.46 Y86.724 E.00815
;WIDTH:0.419999
G1 X146.406 Y87.963 E.0456
G1 X146.309 Y88.571 E.02264
G1 X146.205 Y88.814 E.00972
G1 X146.137 Y88.89 E.00375
G1 X146.057 Y88.902 E.00297
G1 X146.217 Y89.131 E.01027
G1 X146.401 Y89.626 E.01942
G1 X146.446 Y90.163 E.01981
G1 X146.373 Y90.716 E.02051
G1 X146.151 Y91.274 E.02208
G1 X146.027 Y91.486 E.00903
G1 X145.688 Y91.862 E.01861
G1 X145.101 Y92.233 E.02553
;WIDTH:0.435913
G1 X144.417 Y92.44 E.02741
G1 X143.675 Y92.478 E.0285
;WIDTH:0.419999
G1 X143.083 Y92.458 E.02178
M204 P1000
G1 X143.036 Y92.089 F10800
M204 P800
;TYPE:External perimeter
G1 F1200
G1 X140.148 Y91.988 E.10625
G1 X140.009 Y91.917 E.00574
G1 X139.971 Y91.805 E.00435
G1 X140.033 Y90.018 E.06574
G1 X140.09 Y89.891 E.00512
G1 X140.223 Y89.841 E.00522
G1 X143.301 Y89.948 E.11324
G1 X143.934 Y89.885 E.02339
G1 X144.201 Y89.722 E.0115
G1 X144.309 Y89.452 E.01069
G1 X144.201 Y89.163 E.01134
G1 X143.897 Y88.927 E.01415
G1 X143.522 Y88.805 E.0145
G1 X143.201 Y88.77 E.01187
G1 X140.264 Y88.668 E.10805
G1 X140.103 Y88.559 E.00715
G1 X140.102 Y88.032 E.01938
G1 X140.149 Y86.693 E.04926
G1 X140.202 Y86.569 E.00496
G1 X140.341 Y86.515 E.00548
G1 X144.802 Y86.669 E.16412
G1 X145.918 Y86.658 E.04104
G1 X146.028 Y86.693 E.00424
G1 X146.104 Y86.853 E.00651
G1 X146.038 Y87.941 E.04008
G1 X145.946 Y88.512 E.02127
G1 X145.888 Y88.618 E.00444
G1 X145.686 Y88.649 E.00751
G1 X145.463 Y88.565 E.00876
G1 X145.259 Y88.571 E.0075
G1 X145.848 Y89.226 E.03239
G1 X146.035 Y89.669 E.01768
G1 X146.081 Y90.114 E.01645
G1 X146.008 Y90.667 E.02051
G1 X145.785 Y91.19 E.02091
G1 X145.414 Y91.616 E.02077
G1 X144.917 Y91.914 E.02131
G1 X144.323 Y92.075 E.02263
G1 X143.657 Y92.11 E.02452
G1 X143.095 Y92.091 E.02068
M204 P1000
G1 E-1 F2100
G1 Z.44 F720
G1 X143.09 Y92.234 F10800
G1 X143.651 Y92.254
G1 X144.326 Y92.222
G1 X144.95 Y92.06
G1 X145.486 Y91.75
G1 X145.894 Y91.296
G1 X146.143 Y90.735
G1 X146.235 Y90.108
G1 X146.258 Y86.505
G1 X143.483 Y86.482
G1 X143.111 Y86.469
G1 X143.132 Y85.885
G1 Z.24 F720
G1 E1 F2100
M204 P800
;TYPE:Perimeter
;WIDTH:0.41389
G1 F1200
G1 X140.366 Y85.792 E.10007
;WIDTH:0.419999
G1 X139.965 Y85.605 E.01627
G1 X139.837 Y85.326 E.01129
G1 X139.831 Y85.261 E.0024
G1 X139.894 Y83.44 E.067
G1 X139.955 Y83.207 E.00886
G1 X140.057 Y83.067 E.00637
G1 X140.466 Y82.912 E.01608
;WIDTH:0.414542
G1 X144.892 Y83.072 E.16043
;WIDTH:0.434023
G1 X145.403 Y83.118 E.01958
;WIDTH:0.483911
G1 X146.009 Y83.212 E.02646
;WIDTH:0.521265
G1 X146.178 Y83.253 E.00815
G1 X146.279 Y83.329 E.00592
G1 X146.385 Y83.26 E.00593
G1 X146.767 Y83.221 E.018
;WIDTH:0.479335
G1 X147.149 Y83.182 E.01639
;WIDTH:0.437404
G1 X147.92 Y83.177 E.02969
;WIDTH:0.416633
G1 X148 Y83.18 E.00292
;WIDTH:0.419999
G1 X148.339 Y83.354 E.01401
G1 X148.472 Y83.615 E.01077
G1 X148.483 Y83.746 E.00483
G1 X148.421 Y85.519 E.06523
G1 X148.327 Y85.808 E.01117
G1 X148.106 Y85.999 E.01074
G1 X147.82 Y86.05 E.01068
G1 X147.109 Y85.987 E.02624
;WIDTH:0.453531
G1 X146.788 Y85.944 E.01299
;WIDTH:0.487063
G1 X146.467 Y85.901 E.01408
;WIDTH:0.512949
G1 X146.293 Y85.852 E.00832
G1 X146.194 Y85.776 E.00575
G1 X146.089 Y85.845 E.00578
G1 X145.991 Y85.856 E.00454
;WIDTH:0.484493
G1 X145.892 Y85.868 E.00431
;WIDTH:0.456036
G1 X144.86 Y85.94 E.04176
;WIDTH:0.415176
G1 X144.792 Y85.941 E.00247
;WIDTH:0.41389
G1 X143.192 Y85.887 E.05789
M204 P1000
G1 X143.144 Y85.52 F10800
M204 P800
;TYPE:External perimeter
;WIDTH:0.419999
G1 F1200
G1 X140.377 Y85.428 E.10179
G1 X140.214 Y85.316 E.00727
G1 X140.2 Y85.25 E.00248
G1 X140.262 Y83.45 E.06622
G1 X140.317 Y83.329 E.00489
G1 X140.453 Y83.276 E.00537
G1 X144.879 Y83.437 E.16285
G1 X145.376 Y83.494 E.01839
G1 X145.931 Y83.605 E.02081
G1 X146.028 Y83.658 E.00406
G1 X146.079 Y83.792 E.00527
;WIDTH:0.421406
G1 X146.025 Y85.322 E.05651
G1 X145.918 Y85.467 E.00665
;WIDTH:0.419999
G1 X144.804 Y85.576 E.04116
G1 X143.204 Y85.522 E.05886
M204 P1000
G1 E-1 F2100
G1 Z.44 F720
G1 X143.199 Y85.67 F10800
G1 X145.011 Y85.733
G1 X145.458 Y85.659
G1 X146.064 Y85.541
G1 X146.133 Y83.559
G1 X145.537 Y83.4
G1 X145.067 Y83.294
G1 X144.514 Y83.274
G1 X144.248 Y83.265
G1 X144.268 Y82.686
G1 Z.24 F720
G1 E1 F2100
M204 P800
;TYPE:Perimeter
;WIDTH:0.414542
G1 F1200
G1 X140.478 Y82.552 E.13738
;WIDTH:0.419999
G1 X140.082 Y82.369 E.01604
G1 X139.951 Y82.088 E.0114
G1 X140.007 Y80.198 E.06952
G1 X140.078 Y79.948 E.00956
G1 X140.261 Y79.755 E.00978
G1 X140.536 Y79.668 E.01061
G1 X145.323 Y79.834 E.17612
;WIDTH:0.469569
G1 X145.61 Y79.819 E.01199
;WIDTH:0.519139
G1 X145.897 Y79.804 E.01341
;WIDTH:0.568709
G1 X146.184 Y79.789 E.01483
;WIDTH:0.568711
G1 X147.717 Y79.843 E.07916
;WIDTH:0.575423
G1 X147.871 Y79.845 E.00805
G1 X147.996 Y79.891 E.00696
;WIDTH:0.536567
G1 X148.121 Y79.938 E.00646
;WIDTH:0.497711
G1 X148.246 Y79.985 E.00595
;WIDTH:0.458855
G1 X148.371 Y80.031 E.00541
;WIDTH:0.419999
G1 X148.548 Y80.24 E.01007
G1 X148.603 Y80.501 E.00981
G1 X148.541 Y82.285 E.06563
G1 X148.474 Y82.531 E.00937
G1 X148.366 Y82.67 E.00647
G1 X147.962 Y82.815 E.01578
;WIDTH:0.433384
G1 X147.21 Y82.799 E.02866
;WIDTH:0.458387
G1 X146.876 Y82.8 E.01356
;WIDTH:0.483389
G1 X146.542 Y82.8 E.01439
G1 X145.495 Y82.741 E.04519
;WIDTH:0.437852
G1 X144.961 Y82.711 E.02062
;WIDTH:0.415657
G1 X144.905 Y82.709 E.00204
;WIDTH:0.414542
G1 X144.328 Y82.688 E.02092
M204 P1000
G1 X144.281 Y82.321 F10800
M204 P800
;TYPE:External perimeter
;WIDTH:0.419999
G1 F1200
G1 X140.491 Y82.189 E.13944
G1 X140.328 Y82.077 E.00727
G1 X140.375 Y80.213 E.06856
G1 X140.434 Y80.085 E.00518
G1 X140.566 Y80.036 E.00518
G1 X146.169 Y80.232 E.20614
G1 X148.057 Y80.298 E.06946
G1 X148.209 Y80.388 E.0065
G1 X148.235 Y80.488 E.0038
G1 X148.173 Y82.273 E.06567
G1 X148.114 Y82.401 E.00518
G1 X147.936 Y82.449 E.00678
G1 X144.341 Y82.323 E.13226
M204 P1000
G1 E-1 F2100
G1 Z.44 F720
G1 X144.336 Y82.466 F10800
G1 X146.133 Y83.559
G1 X146.34 Y85.551
G1 X146.852 Y85.797
G1 X147.129 Y85.807
G1 X147.229 Y85.81
G1 X147.235 Y85.629
G1 Z.24 F720
G1 E1 F2100
M204 P800
G1 F1200
G1 X147.141 Y85.62 E.00347
G1 X146.543 Y85.506 E.02238
;WIDTH:0.420211
G1 X146.444 Y85.451 E.00417
G1 X146.394 Y85.319 E.00519
;WIDTH:0.42
G1 X146.447 Y83.804 E.05574
G1 X146.556 Y83.643 E.00715
G1 X147.195 Y83.557 E.02371
G1 X147.927 Y83.543 E.02692
G1 X148.066 Y83.602 E.00555
G1 X148.107 Y83.676 E.00311
;WIDTH:0.419999
G1 X148.053 Y85.506 E.06732
G1 X147.991 Y85.638 E.00536
G1 X147.852 Y85.683 E.00537
G1 X147.295 Y85.634 E.02056
M204 P1000
G1 E-1 F2100
G1 Z.44 F720
G1 X147.289 Y85.812 F10800
G1 X146.852 Y85.797
G1 X146.34 Y85.551
G1 X146.09 Y82.527
G1 X148.304 Y82.604
G1 X148.389 Y80.166
G1 X144.768 Y80.04
G1 X144.72 Y80.038
G1 X144.742 Y79.418
G1 Z.24 F720
G1 E1 F2100
M204 P800
;TYPE:Perimeter
;WIDTH:0.472372
G1 F1200
G1 X144.982 Y79.289 E.01144
;WIDTH:0.440312
G1 X145.223 Y79.16 E.0106
;WIDTH:0.408252
G1 X145.374 Y78.979 E.00839
G1 X145.486 Y79.187 E.00841
G1 X146.072 Y79.497 E.0236
G1 X145.336 Y79.471 E.02622
;WIDTH:0.440312
G1 X145.039 Y79.445 E.01157
;WIDTH:0.472372
G1 X144.801 Y79.424 E.01003
M204 P1000
G1 X144.742 Y79.418 F10800
M204 P800
G1 F1200
G1 X144.578 Y79.42 E.00689
;WIDTH:0.458124
G1 X143.045 Y79.366 E.06224
M204 P1000
G1 E-1 F2100
G1 Z.44 F720
G1 X143.023 Y79.979 F10800
G1 X140.244 Y79.882
G1 X139.961 Y87.97
G1 X139.933 Y88.799
G1 X139.886 Y89.242
G1 Z.24 F720
G1 E1 F2100
M204 P800
;WIDTH:0.419999
G1 F1200
G1 X139.592 Y89.106 E.01191
G1 X139.386 Y88.74 E.01544
G1 X139.35 Y88.451 E.01071
G1 X139.412 Y86.667 E.06563
G1 X139.463 Y86.397 E.0101
G1 X139.679 Y86.05 E.01503
G1 X139.917 Y85.956 E.00941
G1 X139.686 Y85.846 E.00941
G1 X139.495 Y85.485 E.01502
G1 X139.463 Y85.21 E.01018
G1 X139.526 Y83.427 E.0656
G1 X139.577 Y83.153 E.01025
G1 X139.798 Y82.805 E.01516
G1 X140.025 Y82.717 E.00895
G1 X139.804 Y82.612 E.009
G1 X139.609 Y82.249 E.01515
G1 X139.581 Y81.851 E.01467
G1 X139.639 Y80.183 E.06137
G1 X139.715 Y79.852 E.01249
G1 X139.932 Y79.546 E.01379
G1 X140.259 Y79.349 E.01404
G1 X140.592 Y79.3 E.01238
G1 X142.104 Y79.352 E.05563
;WIDTH:0.458124
G1 X143.045 Y79.366 E.03818
G1 X142.322 Y78.953 E.03378
;WIDTH:0.419999
G1 X142.157 Y78.394 E.02143
G1 X142.244 Y75.895 E.09194
G1 X140.712 Y75.841 E.05636
G1 X140.384 Y75.768 E.01236
G1 X140.071 Y75.549 E.01405
G1 X139.876 Y75.229 E.01378
G1 X139.824 Y74.888 E.01268
G1 X139.888 Y73.038 E.06806
G1 X139.96 Y72.712 E.01228
G1 X140.099 Y72.483 E.00985
G1 X140.336 Y72.279 E.0115
G1 X140.681 Y72.157 E.01345
G1 X140.841 Y72.149 E.00589
G1 X147.977 Y72.398 E.26254
G1 X148.284 Y72.462 E.01153
G1 X148.556 Y72.63 E.01175
G1 X148.783 Y72.937 E.01404
G1 X148.865 Y73.351 E.01552
G1 X148.677 Y78.731 E.19794
G1 X148.623 Y79.013 E.01056
G1 X148.503 Y79.239 E.00941
G1 X148.083 Y79.561 E.01946
G1 X148.585 Y79.731 E.01949
G1 X148.844 Y80.013 E.01408
G1 X148.951 Y80.288 E.01085
G1 X148.971 Y80.514 E.00834
G1 X148.909 Y82.298 E.06563
G1 X148.851 Y82.59 E.01095
G1 X148.617 Y82.939 E.01545
G1 X148.437 Y83.015 E.00718
G1 X148.611 Y83.106 E.00722
G1 X148.816 Y83.473 E.01546
G1 X148.851 Y83.759 E.01059
G1 X148.789 Y85.532 E.06523
G1 X148.743 Y85.789 E.0096
G1 X148.633 Y86.014 E.00921
G1 X148.48 Y86.189 E.00855
G1 X148.143 Y86.379 E.01422
G1 X147.787 Y86.417 E.01316
G1 X147.076 Y86.354 E.02624
G1 X146.583 Y86.264 E.01843
G1 X146.795 Y86.555 E.01324
G1 X146.839 Y86.897 E.01268
G1 X146.774 Y87.985 E.04008
G1 X146.673 Y88.631 E.02404
G1 X146.557 Y88.989 E.01384
G1 X146.749 Y89.48 E.01938
G1 X146.813 Y89.983 E.01864
G1 X146.738 Y90.764 E.02885
G1 X146.668 Y91.015 E.00958
G1 X146.459 Y91.488 E.01901
G1 X146.301 Y91.732 E.01069
G1 X145.962 Y92.109 E.01864
G1 X145.669 Y92.33 E.01349
G1 X145.337 Y92.522 E.0141
G1 X145.944 Y92.572 E.02239
G1 X146.334 Y92.799 E.01659
G1 X146.54 Y93.105 E.01356
G1 X146.609 Y93.489 E.01435
G1 X146.604 Y93.615 E.00464
G1 X147.183 Y93.838 E.02281
G1 X147.494 Y94.037 E.01358
G1 X147.7 Y94.338 E.01341
G1 X147.772 Y94.73 E.01465
G1 X147.729 Y95.951 E.04492
G1 X147.697 Y96.164 E.00792
G1 X147.505 Y96.522 E.01494
