; generated by PrusaSlicer 2.9.2 on 2025-08-19 at 22:13:02 UTC


;
;
; 

; external perimeters extrusion width = 0.45mm
; perimeters extrusion width = 0.45mm
; infill extrusion width = 0.45mm
; solid infill extrusion width = 0.45mm
; top infill extrusion width = 0.40mm
; first layer extrusion width = 0.42mm

M73 P0 R40
M201 X1000 Y1000 Z200 E8000 ; sets maximum accelerations, mm/sec^2
M203 X12000 Y12000 Z720 E7200 ; sets maximum feedrates, mm / min
M204 P1250 T1500 ; sets acceleration (P, T), mm/sec^2
M566 X480.00 Y480.00 Z24.00 E270.00 ; sets the jerk limits, mm/min

; printing object mmu_bump id:0 copy 0
; stop printing object mmu_bump id:0 copy 0

M190 S90 ; set bed temperature and wait for it to be reached
;TYPE:Custom
; Dusa start code
M118 S"Running Start Code - Dual Extruder Mode"
T1			; select T1 so it can become standby, (cura puts a T0 in its preface)
G29 S1 ; load default mesh bed compensation
M280 P0 S90 ; retract the BLtouch
; Sets both active and standby to the same value
M109 T0 S260
M109 T1 S250
T0			; activate tool0
G92 E0			; zero current extruder position
G1 X20.0 Y2.0 Z1.2 		; move onto buildplate
G1 Z0.2 F1000 		; lower to 0.2 mm height, 0.1125 mmE per mmX
G1 X80 Y2.0 E10.0 F500 	; 60 mmX at extra rate
G1 X140 Y2.0 E16.75 F500 	; 60 mmX at std rate
G1 Z5.0 F6000 		; raise Z to 5
G92 E0			; rezero extruder
T1		; activate tool1
G92 E0		; zero current extruder position
G1 X160 Y5.0 Z1.2 	; move onto buildplate
G1 Z0.2 F1000 	; lower to 0.2 mm height
G1 X100 Y5.0 E10.0 F500 	; 60 mmX at extra rate
G1 X40 Y5.0 E16.75 F500 	; 60 mmX at std rate
G1 Z5.0 F6000 		; raise Z to 5
M73 P1 R40
G92 E0			; rezero extruder
T0			; select the first extruder that will be used
M118 S"Finished Start Code"
G21 ; set units to millimeters
G90 ; use absolute coordinates
M83 ; use relative distances for extrusion
T1

M900 K0.08 ; Filament gcode LA 1.5
M900 K45 ; Filament gcode LA 1.0




M107
;LAYER_CHANGE
;Z:0.2
;HEIGHT:0.2
; printing object mmu_bump id:0 copy 0
G1 E-1 F2100
G1 Z.4 F720
G1 X151.046 Y139.126 F10800
G1 Z.2 F720
G1 E1 F2100
M204 P800
;TYPE:Perimeter
;WIDTH:0.419999
G1 F1200
G1 X132.041 Y138.464 E.59625
G1 X130.444 Y138.366 E.05017
G1 X129.668 Y138.294 E.02444
G1 X128.097 Y138.098 E.04964
G1 X126.54 Y137.837 E.0495
G1 X124.996 Y137.51 E.04948
G1 X123.467 Y137.119 E.04948
G1 X121.956 Y136.665 E.04947
G1 X120.46 Y136.145 E.04966
G1 X119.732 Y135.866 E.02444
G1 X118.273 Y135.254 E.04961
G1 X116.844 Y134.582 E.04951
G1 X115.441 Y133.849 E.04963
G1 X114.762 Y133.467 E.02443
G1 X113.408 Y132.646 E.04965
G1 X112.089 Y131.77 E.04965
G1 X111.454 Y131.319 E.02442
G1 X110.193 Y130.361 E.04965
G1 X108.977 Y129.354 E.0495
G1 X107.805 Y128.298 E.04946
G1 X106.674 Y127.189 E.04966
G1 X106.136 Y126.626 E.02442
G1 X105.077 Y125.448 E.04967
G1 X104.084 Y124.246 E.04889
G1 X103.592 Y123.611 E.02519
G1 X102.661 Y122.325 E.04978
G1 X102.224 Y121.68 E.02443
G1 X101.374 Y120.338 E.04981
G1 X100.979 Y119.666 E.02444
G1 X100.219 Y118.278 E.04962
G1 X99.519 Y116.862 E.04953
G1 X98.878 Y115.415 E.04962
G1 X98.585 Y114.693 E.02443
G1 X98.035 Y113.203 E.0498
G1 X97.781 Y112.441 E.02518
G1 X97.334 Y110.947 E.04889
G1 X96.944 Y109.412 E.04966
G1 X96.776 Y108.651 E.02444
G1 X96.484 Y107.095 E.04964
G1 X96.257 Y105.528 E.04964
G1 X96.098 Y103.968 E.04917
G1 X96.005 Y102.411 E.04891
G1 X95.976 Y100.809 E.05024
G1 X96.014 Y99.25 E.0489
G1 X96.058 Y98.449 E.02515
G1 X96.197 Y96.867 E.04979
G1 X96.289 Y96.093 E.02444
G1 X96.527 Y94.522 E.04982
G1 X96.668 Y93.756 E.02442
G1 X97.004 Y92.209 E.04964
G1 X97.403 Y90.682 E.04949
G1 X97.867 Y89.168 E.04965
G1 X98.119 Y88.431 E.02442
G1 X98.679 Y86.944 E.04982
G1 X98.977 Y86.225 E.0244
G1 X99.628 Y84.781 E.04966
G1 X100.337 Y83.371 E.04948
G1 X101.107 Y81.987 E.04966
G1 X101.507 Y81.319 E.02441
G1 X102.365 Y79.982 E.04981
G1 X103.267 Y78.699 E.04917
G1 X104.231 Y77.443 E.04964
G1 X105.244 Y76.233 E.04948
G1 X106.31 Y75.062 E.04965
G1 X106.853 Y74.503 E.02443
G1 X107.994 Y73.399 E.04978
G1 X108.571 Y72.875 E.02444
G1 X109.78 Y71.845 E.0498
G1 X110.389 Y71.358 E.02445
G1 X111.66 Y70.406 E.04979
G1 X112.318 Y69.946 E.02517
G1 X113.623 Y69.092 E.0489
G1 X114.983 Y68.281 E.04965
G1 X116.362 Y67.535 E.04916
G1 X117.785 Y66.841 E.04964
G1 X119.236 Y66.207 E.04965
G1 X120.699 Y65.641 E.04918
M73 P1 R39
G1 X122.198 Y65.131 E.04965
G1 X123.735 Y64.681 E.05021
G1 X125.249 Y64.305 E.04891
G1 X126.015 Y64.14 E.02457
G1 X126.785 Y63.991 E.02459
G1 X128.349 Y63.74 E.04967
G1 X129.921 Y63.554 E.04963
G1 X130.697 Y63.487 E.02442
G1 X132.283 Y63.401 E.0498
G1 X133.062 Y63.383 E.02443
G1 X134.629 Y63.396 E.04913
G1 X153.667 Y64.062 E.59729
G1 X153.011 Y82.851 E.58947
G1 X151.048 Y139.066 E1.76365
M204 P1000
G1 X151.41 Y139.516 F10800
M204 P800
G1 F1200
G1 X132.023 Y138.841 E.60823
G1 X130.415 Y138.742 E.05051
G1 X129.627 Y138.669 E.02481
G1 X128.042 Y138.471 E.05008
G1 X126.47 Y138.207 E.04998
G1 X124.91 Y137.878 E.04999
G1 X123.366 Y137.483 E.04997
G1 X121.839 Y137.023 E.05
G1 X120.331 Y136.499 E.05006
G1 X119.592 Y136.216 E.02481
G1 X118.119 Y135.598 E.05008
G1 X116.676 Y134.92 E.04999
G1 X115.261 Y134.18 E.05007
G1 X114.572 Y133.792 E.02479
G1 X113.205 Y132.965 E.05009
G1 X111.875 Y132.081 E.05007
G1 X111.231 Y131.622 E.0248
G1 X109.959 Y130.656 E.05008
G1 X108.731 Y129.64 E.04997
G1 X107.547 Y128.572 E.04999
G1 X106.406 Y127.454 E.05009
G1 X105.859 Y126.883 E.02479
G1 X104.792 Y125.695 E.05007
G1 X103.79 Y124.481 E.04935
G1 X103.291 Y123.837 E.02554
G1 X102.352 Y122.541 E.05018
G1 X101.908 Y121.887 E.02478
G1 X101.053 Y120.534 E.05018
G1 X100.651 Y119.853 E.02479
G1 X99.884 Y118.452 E.05008
G1 X99.178 Y117.022 E.05
G1 X98.531 Y115.562 E.05007
G1 X98.234 Y114.829 E.0248
G1 X97.679 Y113.328 E.05018
G1 X97.422 Y112.555 E.02554
G1 X96.971 Y111.047 E.04935
G1 X96.577 Y109.499 E.05008
G1 X96.407 Y108.727 E.02479
G1 X96.112 Y107.157 E.05009
G1 X95.883 Y105.576 E.05009
G1 X95.722 Y103.997 E.04977
G1 X95.628 Y102.426 E.04935
G1 X95.599 Y100.808 E.05074
G1 X95.637 Y99.235 E.04933
G1 X95.682 Y98.422 E.02553
G1 X95.822 Y96.828 E.05017
G1 X95.915 Y96.042 E.02482
G1 X96.155 Y94.46 E.05017
G1 X96.298 Y93.682 E.0248
G1 X96.637 Y92.121 E.05008
G1 X97.04 Y90.579 E.04997
G1 X97.508 Y89.052 E.05008
G1 X97.764 Y88.303 E.02482
G1 X98.329 Y86.806 E.05017
G1 X98.631 Y86.075 E.0248
G1 X99.287 Y84.619 E.05007
G1 X100.003 Y83.194 E.05
G1 X100.78 Y81.799 E.05007
G1 X101.186 Y81.12 E.02481
G1 X102.051 Y79.773 E.05019
G1 X102.964 Y78.474 E.04978
G1 X103.937 Y77.207 E.05009
G1 X104.96 Y75.985 E.04997
M73 P2 R39
G1 X106.036 Y74.804 E.05009
G1 X106.586 Y74.236 E.02479
G1 X107.737 Y73.124 E.05018
G1 X108.322 Y72.592 E.02479
G1 X109.54 Y71.554 E.05018
G1 X110.158 Y71.06 E.02481
G1 X111.439 Y70.101 E.05017
G1 X112.106 Y69.634 E.02553
G1 X113.423 Y68.772 E.04935
G1 X114.795 Y67.954 E.05008
G1 X116.191 Y67.198 E.04978
G1 X117.627 Y66.498 E.05009
G1 X119.091 Y65.859 E.05008
G1 X120.572 Y65.286 E.04979
G1 X122.084 Y64.772 E.05007
G1 X123.636 Y64.317 E.05071
G1 X125.164 Y63.937 E.04937
G1 X125.94 Y63.77 E.02489
G1 X126.72 Y63.62 E.0249
G1 X128.297 Y63.366 E.05008
G1 X129.883 Y63.179 E.05007
G1 X130.671 Y63.111 E.0248
G1 X132.269 Y63.024 E.05018
G1 X133.06 Y63.006 E.02481
G1 X134.638 Y63.019 E.04948
G1 X154.057 Y63.698 E.60924
G1 X153.388 Y82.864 E.6013
G1 X151.412 Y139.456 E1.77548
M204 P1000
G1 X151.773 Y139.906 F10800
M204 P800
;TYPE:External perimeter
G1 F1200
G1 X132.005 Y139.217 E.62019
G1 X130.386 Y139.118 E.05086
G1 X129.587 Y139.044 E.02516
G1 X127.988 Y138.844 E.05053
G1 X126.4 Y138.578 E.05048
G1 X124.825 Y138.245 E.05047
G1 X123.265 Y137.846 E.05049
G1 X121.723 Y137.382 E.05049
G1 X120.201 Y136.854 E.05051
G1 X119.451 Y136.566 E.02519
G1 X117.966 Y135.943 E.05049
G1 X116.509 Y135.258 E.05048
G1 X115.081 Y134.512 E.05052
G1 X114.381 Y134.118 E.02519
G1 X113.003 Y133.283 E.05052
G1 X111.662 Y132.392 E.05048
G1 X111.007 Y131.926 E.0252
G1 X109.724 Y130.952 E.05051
G1 X108.484 Y129.925 E.05048
G1 X107.288 Y128.847 E.05048
G1 X106.138 Y127.719 E.05051
G1 X105.583 Y127.139 E.02517
G1 X104.506 Y125.941 E.05051
G1 X103.495 Y124.717 E.04978
G1 X102.989 Y124.063 E.02593
G1 X102.043 Y122.758 E.05054
G1 X101.593 Y122.093 E.02518
G1 X100.731 Y120.731 E.05054
G1 X100.323 Y120.039 E.02519
G1 X99.549 Y118.626 E.05051
G1 X98.836 Y117.182 E.05049
G1 X98.184 Y115.709 E.05051
G1 X97.882 Y114.965 E.02518
G1 X97.323 Y113.453 E.05054
G1 X97.062 Y112.669 E.02591
G1 X96.607 Y111.148 E.04978
G1 X96.21 Y109.586 E.05053
G1 X96.037 Y108.802 E.02517
G1 X95.74 Y107.219 E.0505
G1 X95.509 Y105.625 E.0505
G1 X95.346 Y104.025 E.05043
G1 X95.251 Y102.44 E.04979
G1 X95.221 Y100.807 E.05121
G1 X95.26 Y99.22 E.04977
G1 X95.306 Y98.395 E.02591
G1 X95.446 Y96.789 E.05055
G1 X95.542 Y95.992 E.02517
G1 X95.783 Y94.398 E.05055
G1 X95.929 Y93.608 E.02519
G1 X96.27 Y92.033 E.05053
G1 X96.677 Y90.476 E.05046
G1 X97.149 Y88.935 E.05053
G1 X97.409 Y88.176 E.02516
G1 X97.978 Y86.667 E.05057
G1 X98.285 Y85.925 E.02518
G1 X98.947 Y84.457 E.05049
G1 X99.67 Y83.018 E.05049
G1 X100.453 Y81.61 E.05051
G1 X100.866 Y80.921 E.02519
G1 X101.737 Y79.565 E.05053
G1 X102.661 Y78.249 E.05042
G1 X103.642 Y76.971 E.05051
G1 X104.676 Y75.737 E.05048
G1 X105.761 Y74.546 E.05052
G1 X106.32 Y73.97 E.02517
G1 X107.479 Y72.849 E.05056
G1 X108.073 Y72.309 E.02517
G1 X109.3 Y71.263 E.05055
G1 X109.927 Y70.762 E.02516
G1 X111.217 Y69.795 E.05055
G1 X111.895 Y69.321 E.02594
G1 X113.223 Y68.452 E.04976
G1 X114.607 Y67.627 E.05052
G1 X116.021 Y66.862 E.05041
G1 X117.469 Y66.156 E.05051
G1 X118.946 Y65.511 E.05053
G1 X120.445 Y64.93 E.05041
G1 X121.97 Y64.412 E.0505
G1 X123.538 Y63.953 E.05123
G1 X125.079 Y63.57 E.04979
G1 X125.864 Y63.401 E.02518
G1 X126.654 Y63.248 E.02523
G1 X128.245 Y62.992 E.05053
G1 X129.845 Y62.804 E.05051
G1 X130.644 Y62.735 E.02515
G1 X132.254 Y62.647 E.05056
G1 X133.057 Y62.629 E.02518
G1 X134.646 Y62.642 E.04982
G1 X154.447 Y63.334 E.62122
G1 X153.765 Y82.877 E.61313
G1 X151.775 Y139.846 E1.78731
M204 P1000
G1 E-1 F2100
G1 Z.4 F720
G1 X149.745 Y138.726 F10800
G1 Z.2 F720
G1 E1 F2100
M204 P800
;TYPE:Internal infill
;WIDTH:0.42
G1 F1200
G1 X150.704 Y138.76 E.03009
G1 X150.758 Y137.22 E.04832
G1 X114.481 Y68.993 E2.42281
G1 X116.666 Y67.781 E.07834
M204 P1000
G1 E-1 F2100
G1 Z.4 F720
G1 X123.085 Y65.241 F10800
G1 Z.2 F720
G1 E1 F2100
M204 P800
G1 F1200
G1 X125.222 Y64.677 E.0693
G1 X153.257 Y65.656 E.87955
G1 X153.199 Y67.321 E.05224
M73 P3 R39
G1 X112.868 Y131.863 E2.38628
G1 X112.225 Y131.432 E.02427
G1 X150.913 Y132.783 E1.21377
G1 X150.971 Y131.118 E.05224
G1 X117.165 Y67.538 E2.25778
G1 X117.017 Y67.61 E.00516
G1 X96.333 Y100.711 E1.22382
G1 X96.342 Y100.328 E.01201
G1 X151.978 Y102.271 E1.74549
G1 X152.036 Y100.606 E.05224
G1 X132.442 Y63.753 E1.30867
G1 X133.833 Y63.744 E.04361
G1 X100.235 Y117.511 E1.9879
G1 X100.918 Y118.817 E.04621
G1 X151.339 Y120.578 E1.58188
G1 X151.397 Y118.913 E.05224
G1 X122.889 Y65.298 E1.90392
G1 X121.86 Y65.62 E.03381
M73 P4 R38
G1 X96.673 Y105.928 E1.49028
G1 X96.749 Y106.452 E.0166
G1 X151.765 Y108.373 E1.72604
G1 X151.823 Y106.708 E.05224
G1 X129.118 Y64.006 E1.51639
G1 X130.141 Y63.891 E.03228
G1 X98.753 Y114.123 E1.85719
G1 X98.369 Y113.086 E.03467
G1 X98.212 Y112.613 E.01563
G1 X151.552 Y114.475 E1.67346
G1 X151.61 Y112.81 E.05224
G1 X125.937 Y64.526 E1.71461
M204 P1000
G1 X126.174 Y64.478 F10800
M204 P800
G1 F1200
G1 X97.537 Y110.306 E1.69438
G1 X97.339 Y109.527 E.0252
G1 X151.659 Y111.424 E1.7042
G1 X151.707 Y110.038 E.04348
G1 X134.121 Y138.182 E1.04054
G1 X133.977 Y138.177 E.00452
M73 P5 R38
G1 X102.93 Y79.785 E2.07355
G1 X103.352 Y79.188 E.02292
G1 X152.724 Y80.912 E1.54897
G1 X152.676 Y82.298 E.04348
G1 X142.969 Y64.042 E.64829
G1 X144.415 Y64.093 E.04537
G1 X105.862 Y125.791 E2.28111
G1 X105.231 Y125.078 E.02985
G1 X151.126 Y126.68 E1.43988
G1 X151.184 Y125.015 E.05224
G1 X119.964 Y66.298 E2.08509
G1 X117.902 Y67.178 E.07029
M204 P1000
G1 X117.86 Y67.199 F10800
M204 P800
G1 F1200
G1 X117.332 Y67.456 E.01841
G1 X153.15 Y68.707 E1.12373
G1 X153.102 Y70.093 E.04348
G1 X150.016 Y64.289 E.2061
G1 X151.462 Y64.339 E.04537
G1 X110.391 Y130.065 E2.43006
G1 X108.492 Y128.44 E.07837
M204 P1000
G1 X107.908 Y127.902 F10800
M204 P800
G1 F1200
G1 X107.613 Y127.613 E.01295
G1 X96.921 Y107.505 E.71406
G1 X96.778 Y106.653 E.02709
M73 P6 R38
M204 P1000
G1 E-1 F2100
G1 Z.4 F720
G1 X96.332 Y100.915 F10800
G1 Z.2 F720
G1 E1 F2100
M204 P800
G1 F1200
G1 X96.418 Y103.385 E.07749
G1 X151.872 Y105.322 E1.73978
G1 X151.92 Y103.935 E.04351
G1 X130.621 Y138.022 E1.26026
G1 X130.43 Y138.009 E.006
G1 X101.068 Y82.786 E1.96101
G1 X101.408 Y82.175 E.02192
G1 X152.618 Y83.963 E1.60663
G1 X152.559 Y85.628 E.05224
G1 X121.09 Y135.989 E1.86196
G1 X118.764 Y135.076 E.07835
M73 P6 R37
M204 P1000
G1 X118.42 Y134.931 F10800
M204 P800
G1 F1200
G1 X96.9 Y94.457 E1.43726
G1 X96.94 Y94.239 E.00695
G1 X152.191 Y96.168 E1.73341
G1 X152.14 Y97.63 E.04587
M204 P1000
G1 E-1 F2100
G1 Z.4 F720
G1 X149.812 Y64.282 F10800
G1 Z.2 F720
G1 E1 F2100
M204 P800
G1 F1200
G1 X147.938 Y64.216 E.05879
G1 X108.054 Y128.045 E2.35989
G1 X108.269 Y128.239 E.00908
M73 P7 R37
G1 X151.019 Y129.732 E1.34121
G1 X151.068 Y128.345 E.04352
G1 X144.691 Y138.55 E.37731
G1 X144.547 Y138.545 E.00452
G1 X109.47 Y72.575 E2.34266
G1 X108.671 Y73.264 E.03308
G1 X152.937 Y74.809 E1.38877
G1 X152.889 Y76.196 E.04351
G1 X146.492 Y64.166 E.4272
G1 X144.619 Y64.1 E.05876
M204 P1000
G1 E-1 F2100
G1 Z.4 F720
G1 X99.315 Y86.337 F10800
G1 Z.2 F720
G1 E1 F2100
M204 P800
G1 F1200
G1 X98.59 Y88.186 E.06227
G1 X152.404 Y90.066 E1.68833
G1 X152.346 Y91.731 E.05224
G1 X124.11 Y136.918 E1.67067
G1 X122.726 Y136.526 E.0451
G1 X97.984 Y89.994 E1.6524
G1 X97.632 Y91.208 E.03963
G1 X152.298 Y93.117 E1.71506
G1 X152.25 Y94.503 E.04348
G1 X135.922 Y63.796 E1.09045
G1 X137.369 Y63.847 E.0454
G1 X101.932 Y120.557 E2.09671
G1 X102.827 Y121.939 E.05162
M73 P8 R37
G1 X151.232 Y123.629 E1.51863
G1 X151.281 Y122.243 E.04348
G1 X141.168 Y138.427 E.59836
G1 X141.023 Y138.422 E.00455
G1 X107.148 Y74.711 E2.26243
G1 X108.52 Y73.4 E.0595
M204 P1000
G1 E-1 F2100
G1 Z.4 F720
G1 X111.747 Y70.784 F10800
G1 Z.2 F720
G1 E1 F2100
M204 P800
G1 F1200
G1 X111.157 Y71.226 E.02311
G1 X97.008 Y93.869 E.83717
G1 X97.097 Y93.452 E.01337
M204 P1000
G1 E-1 F2100
G1 Z.4 F720
G1 X100.145 Y117.329 F10800
G1 Z.2 F720
G1 E1 F2100
M204 P800
G1 F1200
G1 X99.396 Y115.709 E.05596
G1 X151.446 Y117.527 E1.63299
G1 X151.494 Y116.14 E.04351
G1 X137.644 Y138.305 E.81949
G1 X137.5 Y138.3 E.00452
G1 X104.968 Y77.115 E2.17273
G1 X105.739 Y76.216 E.03713
G1 X152.831 Y77.861 E1.47744
G1 X152.773 Y79.526 E.05224
G1 X118.212 Y134.834 E2.04488
G1 X117.896 Y134.685 E.01095
M73 P9 R36
G1 X150.806 Y135.834 E1.0325
G1 X150.855 Y134.448 E.04348
G1 X148.214 Y138.673 E.15622
G1 X148.07 Y138.668 E.00452
G1 X111.911 Y70.663 E2.41492
G1 X112.375 Y70.338 E.01776
G1 X153.044 Y71.758 E1.27592
G1 X152.986 Y73.423 E.05224
G1 X115.471 Y133.459 E2.21968
G1 X113.583 Y132.338 E.06885
G1 X96.352 Y99.93 E1.15083
G1 X96.516 Y97.279 E.08328
G1 X152.085 Y99.219 E1.74339
G1 X152.133 Y97.833 E.04348
G1 X127.283 Y137.602 E1.47034
G1 X126.704 Y137.505 E.01841
G1 X99.399 Y86.151 E1.82362
G1 X99.839 Y85.175 E.03357
G1 X152.511 Y87.014 E1.6525
G1 X152.463 Y88.401 E.04351
M73 P10 R36
G1 X139.446 Y63.919 E.86937
G1 X140.892 Y63.97 E.04537
G1 X103.812 Y123.31 E2.19394
G1 X105.101 Y124.921 E.06469
M204 P1000
;LAYER_CHANGE
;Z:0.305733
;HEIGHT:0.105733
;BEFORE_LAYER_CHANGE
G92 E0.0
;0.305733


;WIPE_START
G1 F8640
G1 X103.812 Y123.31 E-.4764
G1 X105.014 Y121.387 E-.5236
;WIPE_END
G1 Z.306 F720
;AFTER_LAYER_CHANGE
;0.305733
G1 Z.506
G1 X150.962 Y139.92 F10800
G1 Z.306 F720
G1 E1 F2100
M204 P800
;TYPE:Perimeter
;WIDTH:0.45
G1 F1696.591
G1 X150.571 Y139.906 E.00735
G1 F2700
G1 X132.524 Y139.275 E.3392
G1 X131.193 Y139.216 E.02503
G1 X129.581 Y139.083 E.03038
G1 X127.982 Y138.883 E.03027
G1 X126.393 Y138.616 E.03027
G1 X124.816 Y138.283 E.03028
G1 X123.249 Y137.883 E.03038
G1 X121.435 Y137.327 E.03564
G1 X120.185 Y136.889 E.02488
G1 X119.441 Y136.605 E.01496
G1 X117.95 Y135.979 E.03038
G1 X116.492 Y135.293 E.03027
