; generated by PrusaSlicer 2.9.2 on 2025-08-19 at 20:16:07 UTC


;
;
; 

; external perimeters extrusion width = 0.45mm
; perimeters extrusion width = 0.45mm
; infill extrusion width = 0.45mm
; solid infill extrusion width = 0.45mm
; top infill extrusion width = 0.40mm
; first layer extrusion width = 0.42mm

M73 P0 R58
M201 X1000 Y1000 Z200 E8000 ; sets maximum accelerations, mm/sec^2
M203 X12000 Y12000 Z720 E7200 ; sets maximum feedrates, mm / min
M204 P1250 T1500 ; sets acceleration (P, T), mm/sec^2
M566 X480.00 Y480.00 Z24.00 E270.00 ; sets the jerk limits, mm/min

; printing object mmu_bump id:0 copy 0
; stop printing object mmu_bump id:0 copy 0

M190 S85 ; set bed temperature and wait for it to be reached
;TYPE:Custom
; Dusa start code
M118 S"Running Start Code - Dual Extruder Mode"
T1			; select T1 so it can become standby, (cura puts a T0 in its preface)
G29 S1 ; load default mesh bed compensation
M280 P0 S90 ; retract the BLtouch
; Sets both active and standby to the same value
M109 T0 S260
M109 T1 S260
T0			; activate tool0
G92 E0			; zero current extruder position
G1 X20.0 Y2.0 Z1.2 		; move onto buildplate
G1 Z0.2 F1000 		; lower to 0.2 mm height, 0.1125 mmE per mmX
G1 X80 Y2.0 E10.0 F500 	; 60 mmX at extra rate
G1 X140 Y2.0 E16.75 F500 	; 60 mmX at std rate
G1 Z5.0 F6000 		; raise Z to 5
G92 E0			; rezero extruder
T1		; activate tool1
G92 E0		; zero current extruder position
G1 X160 Y5.0 Z1.2 	; move onto buildplate
G1 Z0.2 F1000 	; lower to 0.2 mm height
G1 X100 Y5.0 E10.0 F500 	; 60 mmX at extra rate
G1 X40 Y5.0 E16.75 F500 	; 60 mmX at std rate
G1 Z5.0 F6000 		; raise Z to 5
G92 E0			; rezero extruder
T0			; select the first extruder that will be used
M118 S"Finished Start Code"
G21 ; set units to millimeters
G90 ; use absolute coordinates
M83 ; use relative distances for extrusion
T1

M900 K0.08 ; Filament gcode LA 1.5
M900 K45 ; Filament gcode LA 1.0




M107
;LAYER_CHANGE
;Z:0.2
;HEIGHT:0.2
; printing object mmu_bump id:0 copy 0
G1 E-1 F2100
G1 Z.4 F720
G1 X124.516 Y106.1 F10800
G1 Z.2 F720
G1 E1 F2100
M204 P200
;TYPE:Perimeter
;WIDTH:0.419999
G1 F720
G1 X123.327 Y106.088 E.03728
G1 X122.549 Y106.055 E.02442
G1 X120.97 Y105.939 E.04964
G1 X119.397 Y105.756 E.04965
G1 X118.626 Y105.642 E.02444
G1 X117.068 Y105.361 E.04964
G1 X115.523 Y105.014 E.04965
G1 X114.768 Y104.82 E.02444
G1 X113.244 Y104.375 E.04978
G1 X112.503 Y104.134 E.02443
G1 X111.014 Y103.596 E.04964
G1 X109.553 Y102.997 E.04951
G1 X108.119 Y102.338 E.04948
G1 X106.709 Y101.617 E.04965
G1 X106.027 Y101.241 E.02442
G1 X104.686 Y100.445 E.0489
G1 X103.344 Y99.57 E.05023
G1 X102.055 Y98.65 E.04965
G1 X101.436 Y98.178 E.02441
G1 X100.203 Y97.175 E.04984
G1 X99.615 Y96.665 E.0244
G1 X98.469 Y95.606 E.04892
G1 X97.339 Y94.471 E.05022
G1 X96.274 Y93.307 E.04947
G1 X95.255 Y92.094 E.04967
G1 X94.773 Y91.482 E.02443
G1 X93.833 Y90.208 E.04964
G1 X92.947 Y88.896 E.04964
G1 X92.532 Y88.236 E.02444
G1 X91.731 Y86.871 E.04962
G1 X90.99 Y85.477 E.0495
G1 X90.308 Y84.054 E.04948
M73 P1 R58
G1 X89.687 Y82.603 E.04949
G1 X89.128 Y81.127 E.04949
G1 X88.63 Y79.629 E.0495
G1 X88.197 Y78.112 E.04946
G1 X87.826 Y76.572 E.04967
G1 X87.667 Y75.809 E.02444
G1 X87.398 Y74.273 E.04889
G1 X87.187 Y72.68 E.05038
M73 P1 R57
G1 X87.109 Y71.905 E.02442
G1 X87.001 Y70.325 E.04966
G1 X86.959 Y68.731 E.05
G1 X86.961 Y49.714 E.59626
G1 X162.071 Y49.714 E2.35502
G1 X162.072 Y68.587 E.59175
G1 X162.06 Y69.531 E.0296
G1 X161.985 Y71.113 E.04966
G1 X161.844 Y72.69 E.04964
G1 X161.75 Y73.464 E.02445
G1 X161.509 Y75.029 E.04965
G1 X161.204 Y76.577 E.04947
G1 X160.835 Y78.111 E.04947
G1 X160.4 Y79.634 E.04966
G1 X160.162 Y80.376 E.02443
G1 X159.632 Y81.868 E.04964
G1 X159.041 Y83.331 E.04947
G1 X158.39 Y84.769 E.04949
G1 X157.678 Y86.178 E.0495
G1 X156.908 Y87.556 E.04949
G1 X156.081 Y88.9 E.04948
G1 X155.198 Y90.208 E.04948
G1 X154.261 Y91.478 E.04948
G1 X153.268 Y92.712 E.04966
G1 X152.761 Y93.303 E.02441
G1 X151.693 Y94.471 E.04962
G1 X150.579 Y95.59 E.04951
G1 X149.417 Y96.665 E.04963
G1 X148.828 Y97.175 E.02443
G1 X147.6 Y98.175 E.04965
G1 X146.331 Y99.122 E.04965
G1 X145.692 Y99.567 E.02441
G1 X144.366 Y100.432 E.04964
G1 X143.009 Y101.238 E.04949
G1 X141.619 Y101.986 E.04949
G1 X140.194 Y102.678 E.04967
G1 X139.483 Y102.995 E.02441
G1 X138.018 Y103.596 E.04965
G1 X136.533 Y104.132 E.0495
G1 X135.028 Y104.606 E.04947
G1 X133.504 Y105.015 E.04947
G1 X131.964 Y105.361 E.04949
G1 X130.405 Y105.642 E.04967
G1 X129.635 Y105.756 E.02441
G1 X128.062 Y105.939 E.04965
G1 X126.488 Y106.055 E.04949
G1 X124.91 Y106.105 E.0495
G1 X124.576 Y106.101 E.01047
M204 P1000
G1 X124.516 Y106.478 F10800
M204 P200
G1 F720
G1 X123.317 Y106.465 E.0376
G1 X122.527 Y106.432 E.02479
G1 X120.934 Y106.314 E.05008
G1 X119.347 Y106.13 E.05009
G1 X118.565 Y106.014 E.02479
G1 X116.993 Y105.73 E.05009
G1 X115.435 Y105.381 E.05006
G1 X114.669 Y105.184 E.0248
G1 X113.132 Y104.736 E.0502
G1 X112.38 Y104.49 E.02481
G1 X110.878 Y103.948 E.05007
G1 X109.403 Y103.343 E.04999
G1 X107.954 Y102.678 E.04999
G1 X106.532 Y101.95 E.05009
G1 X105.84 Y101.568 E.02478
G1 X104.487 Y100.765 E.04933
G1 X103.131 Y99.882 E.05074
G1 X101.831 Y98.954 E.05008
G1 X101.202 Y98.474 E.02481
G1 X99.961 Y97.464 E.05017
G1 X99.363 Y96.946 E.02481
G1 X98.207 Y95.878 E.04935
G1 X97.066 Y94.732 E.0507
G1 X95.99 Y93.555 E.05
G1 X94.963 Y92.332 E.05007
G1 X94.473 Y91.711 E.0248
G1 X93.525 Y90.426 E.05007
G1 X92.632 Y89.102 E.05007
G1 X92.21 Y88.432 E.02483
G1 X91.402 Y87.055 E.05006
G1 X90.653 Y85.647 E.05
G1 X89.965 Y84.209 E.04998
G1 X89.338 Y82.744 E.04996
G1 X88.772 Y81.253 E.05
G1 X88.27 Y79.74 E.04998
G1 X87.832 Y78.208 E.04996
G1 X87.458 Y76.655 E.05009
G1 X87.297 Y75.88 E.02482
G1 X87.025 Y74.33 E.04934
G1 X86.812 Y72.723 E.05083
G1 X86.733 Y71.936 E.0248
G1 X86.624 Y70.343 E.05006
G1 X86.582 Y68.735 E.05043
G1 X86.583 Y49.337 E.60821
G1 X162.448 Y49.337 E2.37869
G1 X162.449 Y68.587 E.60357
G1 X162.437 Y69.543 E.02998
G1 X162.361 Y71.139 E.0501
G1 X162.219 Y72.73 E.05008
G1 X162.123 Y73.515 E.0248
G1 X161.881 Y75.094 E.05009
G1 X161.573 Y76.658 E.04998
G1 X161.2 Y78.208 E.04999
G1 X160.761 Y79.743 E.05006
G1 X160.519 Y80.497 E.02483
G1 X159.984 Y82.002 E.05008
G1 X159.388 Y83.48 E.04997
G1 X158.73 Y84.932 E.04998
G1 X158.011 Y86.355 E.04999
G1 X157.234 Y87.747 E.04998
G1 X156.398 Y89.104 E.04997
G1 X155.506 Y90.426 E.05
G1 X154.56 Y91.709 E.04998
G1 X153.559 Y92.953 E.05006
G1 X153.043 Y93.553 E.02481
G1 X151.965 Y94.732 E.05009
G1 X150.841 Y95.862 E.04997
G1 X149.668 Y96.946 E.05008
G1 X149.071 Y97.464 E.02478
G1 X147.832 Y98.472 E.05008
G1 X146.551 Y99.427 E.0501
G1 X145.903 Y99.88 E.02479
G1 X144.565 Y100.753 E.05009
G1 X143.194 Y101.566 E.04998
G1 X141.791 Y102.322 E.04997
G1 X140.354 Y103.019 E.05008
G1 X139.631 Y103.342 E.02483
G1 X138.153 Y103.948 E.05009
G1 X136.654 Y104.489 E.04997
G1 X135.133 Y104.968 E.05
G1 X133.594 Y105.382 E.04997
G1 X132.038 Y105.73 E.04999
G1 X130.467 Y106.014 E.05006
G1 X129.684 Y106.13 E.02482
G1 X128.097 Y106.314 E.05009
G1 X126.508 Y106.431 E.04996
G1 X124.914 Y106.482 E.05
M73 P2 R57
G1 X124.576 Y106.478 E.0106
M204 P1000
G1 X124.516 Y106.855 F10800
M204 P200
;TYPE:External perimeter
G1 F720
G1 X123.307 Y106.842 E.03791
G1 X122.505 Y106.808 E.02517
G1 X120.898 Y106.69 E.05052
G1 X119.298 Y106.504 E.0505
G1 X118.504 Y106.386 E.02517
G1 X116.918 Y106.1 E.05053
G1 X115.346 Y105.747 E.05052
G1 X114.569 Y105.547 E.02516
G1 X113.021 Y105.096 E.05055
G1 X112.258 Y104.847 E.02516
G1 X110.742 Y104.3 E.05053
G1 X109.253 Y103.689 E.05046
G1 X107.79 Y103.017 E.05048
G1 X106.355 Y102.283 E.05054
G1 X105.652 Y101.895 E.02518
G1 X104.287 Y101.085 E.04977
G1 X102.919 Y100.193 E.05121
G1 X101.607 Y99.257 E.05053
G1 X100.969 Y98.77 E.02517
G1 X99.718 Y97.753 E.05055
G1 X99.112 Y97.227 E.02516
G1 X97.946 Y96.15 E.04977
G1 X96.793 Y94.992 E.05124
G1 X95.707 Y93.804 E.05047
G1 X94.67 Y92.57 E.05054
G1 X94.173 Y91.94 E.02516
G1 X93.217 Y90.643 E.05052
G1 X92.316 Y89.308 E.0505
G1 X91.888 Y88.628 E.02519
G1 X91.072 Y87.239 E.05051
G1 X90.317 Y85.817 E.05048
G1 X89.621 Y84.365 E.05049
G1 X88.988 Y82.885 E.05047
G1 X88.417 Y81.38 E.05047
G1 X87.91 Y79.852 E.05048
G1 X87.467 Y78.304 E.05048
G1 X87.09 Y76.737 E.05053
G1 X86.926 Y75.951 E.02518
G1 X86.652 Y74.388 E.04975
G1 X86.438 Y72.767 E.05127
G1 X86.358 Y71.968 E.02518
G1 X86.248 Y70.361 E.0505
G1 X86.205 Y68.74 E.05084
G1 X86.206 Y48.96 E.62019
G1 X162.825 Y48.96 E2.40233
G1 X162.826 Y68.587 E.61539
G1 X162.813 Y69.555 E.03035
G1 X162.737 Y71.165 E.05054
G1 X162.594 Y72.769 E.05049
G1 X162.497 Y73.566 E.02517
G1 X162.252 Y75.159 E.05053
G1 X161.941 Y76.738 E.05046
G1 X161.564 Y78.304 E.0505
G1 X161.121 Y79.853 E.05051
G1 X160.877 Y80.617 E.02515
G1 X160.337 Y82.135 E.05052
G1 X159.735 Y83.628 E.05047
G1 X159.07 Y85.095 E.0505
G1 X158.344 Y86.532 E.05048
G1 X157.559 Y87.938 E.05049
G1 X156.715 Y89.309 E.05048
G1 X155.815 Y90.643 E.05046
G1 X154.859 Y91.939 E.05049
G1 X153.849 Y93.194 E.05051
G1 X153.326 Y93.803 E.02517
G1 X152.238 Y94.992 E.05053
G1 X151.103 Y96.134 E.05048
G1 X149.92 Y97.227 E.0505
G1 X149.313 Y97.753 E.02518
G1 X148.063 Y98.77 E.05053
G1 X146.772 Y99.733 E.0505
G1 X146.114 Y100.193 E.02517
G1 X144.764 Y101.073 E.05053
G1 X143.38 Y101.895 E.05047
G1 X141.962 Y102.658 E.05049
G1 X140.513 Y103.361 E.0505
G1 X139.78 Y103.689 E.02518
G1 X138.289 Y104.3 E.05052
G1 X136.775 Y104.847 E.05047
G1 X135.239 Y105.33 E.05049
G1 X133.684 Y105.748 E.05049
G1 X132.113 Y106.1 E.05048
G1 X130.528 Y106.386 E.0505
G1 X129.733 Y106.504 E.0252
G1 X128.133 Y106.69 E.0505
G1 X126.527 Y106.808 E.05049
G1 X124.918 Y106.859 E.05047
G1 X124.576 Y106.855 E.01072
M204 P1000
G1 E-1 F2100
G1 Z.4 F720
G1 X139.473 Y102.612 F10800
G1 Z.2 F720
G1 E1 F2100
M204 P200
;TYPE:Internal infill
;WIDTH:0.42
G1 F720
G1 X137.15 Y103.533 E.07835
G1 X106.282 Y50.069 E1.93566
G1 X108.905 Y50.069 E.08224
G1 X90.094 Y82.651 E1.17962
M73 P2 R56
G1 X89.705 Y81.65 E.03367
G1 X159.333 Y81.65 E2.18314
G1 X158.935 Y82.647 E.03366
G1 X140.126 Y50.069 E1.17948
G1 X142.749 Y50.069 E.08224
M73 P3 R56
G1 X111.882 Y103.533 E1.93565
G1 X109.559 Y102.61 E.07837
M204 P1000
G1 E-1 F2100
G1 Z.4 F720
G1 X99.197 Y95.797 F10800
G1 Z.2 F720
G1 E1 F2100
M204 P200
G1 F720
G1 X98.399 Y95.034 E.03462
G1 X88.513 Y77.911 E.61994
G1 X88.284 Y76.963 E.03058
M204 P1000
G1 E-1 F2100
G1 Z.4 F720
G1 X87.543 Y50.069 F10800
G1 Z.2 F720
G1 E1 F2100
M204 P200
G1 F720
G1 X87.315 Y50.069 E.00715
G1 X87.315 Y52.34 E.07121
G1 X161.715 Y52.34 E2.33276
G1 X161.713 Y56.302 E.12423
G1 X133.855 Y104.554 E1.74695
G1 X132.31 Y104.92 E.04978
G1 X100.641 Y50.069 E1.98588
G1 X103.265 Y50.069 E.08227
G1 X88.128 Y76.286 E.94919
G1 X88.237 Y76.765 E.0154
G1 X160.795 Y76.765 E2.27501
G1 X160.901 Y76.282 E.0155
M73 P4 R56
G1 X145.767 Y50.069 E.94904
G1 X148.39 Y50.069 E.08224
G1 X116.722 Y104.92 E1.98587
G1 X115.18 Y104.56 E.04965
G1 X87.314 Y56.295 E1.74743
G1 X87.314 Y57.225 E.02916
G1 X161.712 Y57.225 E2.3327
G1 X161.712 Y58.146 E.02888
M73 P4 R55
G1 X157.048 Y50.069 E.29244
G1 X159.671 Y50.069 E.08224
G1 X127.6 Y105.618 E2.01114
G1 X127.094 Y105.655 E.01591
G1 X95.001 Y50.069 E2.01249
G1 X97.624 Y50.069 E.08224
G1 X87.314 Y67.926 E.64651
G1 X87.355 Y70.308 E.0747
G1 X87.463 Y71.88 E.04941
G1 X161.56 Y71.88 E2.32326
M73 P5 R55
G1 X161.253 Y74.36 E.07835
M204 P1000
G1 E-1 F2100
G1 Z.4 F720
G1 X160.747 Y76.963 F10800
G1 Z.2 F720
G1 E1 F2100
M204 P200
G1 F720
G1 X160.519 Y77.911 E.03057
G1 X150.632 Y95.035 E.61998
G1 X149.834 Y95.796 E.03457
M204 P1000
G1 E-1 F2100
G1 Z.4 F720
G1 X147.83 Y97.531 F10800
G1 Z.2 F720
G1 E1 F2100
M204 P200
G1 F720
G1 X145.835 Y99.036 E.07835
G1 X117.563 Y50.069 E1.77286
G1 X120.187 Y50.069 E.08227
G1 X95.84 Y92.239 E1.52676
G1 X95.175 Y91.42 E.03308
G1 X153.853 Y91.42 E1.83981
G1 X153.193 Y92.241 E.03303
G1 X128.845 Y50.069 E1.52683
G1 X131.468 Y50.069 E.08224
G1 X103.199 Y99.032 E1.7727
G1 X104.873 Y100.144 E.06301
G1 X106.668 Y101.19 E.06514
G1 X142.351 Y101.19 E1.11882
G1 X144.503 Y99.92 E.07835
M73 P6 R55
M204 P1000
G1 E-1 F2100
G1 Z.4 F720
G1 X161.708 Y64.61 F10800
G1 Z.2 F720
G1 E1 F2100
M204 P200
G1 F720
G1 X161.707 Y66.082 E.04615
G1 X141.044 Y101.871 E1.29574
G1 X141.654 Y101.565 E.0214
G1 X111.923 Y50.069 E1.8644
G1 X114.546 Y50.069 E.08224
M73 P6 R54
G1 X92.725 Y87.864 E1.36836
G1 X91.954 Y86.535 E.04817
G1 X157.073 Y86.535 E2.04176
G1 X156.305 Y87.861 E.04805
G1 X134.485 Y50.069 E1.36826
G1 X137.109 Y50.069 E.08227
G1 X107.379 Y101.562 E1.8643
G1 X107.988 Y101.873 E.02144
G1 X87.314 Y66.064 E1.29645
G1 X87.314 Y66.995 E.02919
G1 X161.707 Y66.995 E2.33254
G1 X161.706 Y67.907 E.0286
M73 P7 R54
G1 X151.407 Y50.069 E.64583
G1 X154.031 Y50.069 E.08227
G1 X121.938 Y105.655 E2.01249
G1 X121.431 Y105.618 E.01594
G1 X89.36 Y50.069 E2.01114
G1 X91.983 Y50.069 E.08224
G1 X87.314 Y58.156 E.29279
G1 X87.314 Y62.11 E.12397
G1 X161.71 Y62.11 E2.33263
G1 X161.708 Y64.61 E.07839
M204 P1000
G1 E-1 F2100
G1 Z.4 F720
G1 X128.327 Y50.069 F10800
G1 Z.2 F720
G1 E1 F2100
M204 P200
G1 F720
G1 X125.827 Y50.069 E.07839
G1 X99.347 Y95.935 E1.66056
G1 X99.747 Y96.305 E.01708
G1 X149.284 Y96.305 E1.5532
G1 X149.685 Y95.935 E.01711
M73 P7 R53
G1 X123.204 Y50.069 E1.66057
G1 X120.704 Y50.069 E.07839
M73 P8 R53
M204 P1000
;LAYER_CHANGE
;Z:0.305733
;HEIGHT:0.105733
;BEFORE_LAYER_CHANGE
G92 E0.0
;0.305733


;WIPE_START
G1 F8640
G1 X123.204 Y50.069 E-.57726
G1 X124.119 Y51.655 E-.42274
;WIPE_END
G1 Z.306 F720
;AFTER_LAYER_CHANGE
;0.305733
M140 S90 ; set bed temperature
G1 Z.506
G1 X86.608 Y49.63 F10800
G1 Z.306 F720
G1 E1 F2100
M204 P200
;TYPE:Perimeter
;WIDTH:0.45
G1 F1513.183
G1 X86.696 Y49.63 E.00165
G1 F1800
G1 X162.335 Y49.63 E1.4208
G1 F1511.682
G1 X162.867 Y49.63 E.00999
G1 F1549.146
G1 X162.867 Y50.162 E.00999
G1 F1800
G1 X162.866 Y68.214 E.33909
G1 X162.823 Y70.365 E.04041
G1 X162.754 Y71.457 E.02055
G1 X162.633 Y72.771 E.02479
G1 X162.422 Y74.37 E.0303
G1 X162.143 Y75.963 E.03038
G1 X161.981 Y76.742 E.01495
G1 X161.673 Y78.031 E.02489
G1 X161.159 Y79.863 E.03574
G1 X160.551 Y81.666 E.03574
G1 X160.079 Y82.904 E.02489
G1 X159.773 Y83.639 E.01495
G1 X159.105 Y85.112 E.03038
G1 X158.379 Y86.55 E.03026
G1 X157.592 Y87.958 E.0303
G1 X156.903 Y89.084 E.0248
G1 X156.306 Y90 E.02054
G1 X155.372 Y91.324 E.03044
G1 X154.893 Y91.959 E.01494
G1 X154.064 Y92.993 E.02489
G1 X152.821 Y94.426 E.03563
G1 X151.701 Y95.601 E.03049
G1 X150.328 Y96.91 E.03563
G1 X149.334 Y97.787 E.0249
G1 X148.722 Y98.295 E.01494
G1 X147.442 Y99.293 E.03049
G1 X146.8 Y99.761 E.01492
G1 X145.465 Y100.673 E.03037
G1 X144.096 Y101.525 E.03029
G1 X142.689 Y102.321 E.03037
G1 X141.985 Y102.69 E.01493
G1 X140.53 Y103.396 E.03038
G1 X139.052 Y104.039 E.03028
G1 X137.543 Y104.62 E.03037
G1 X135.742 Y105.218 E.03565
G1 X134.47 Y105.586 E.02487
G1 X133.699 Y105.785 E.01496
G1 X132.121 Y106.139 E.03038
G1 X130.535 Y106.425 E.03027
G1 X128.933 Y106.645 E.03037
G1 X128.142 Y106.728 E.01494
G1 X126.53 Y106.847 E.03036
G1 X124.913 Y106.898 E.03039
G1 X123.016 Y106.869 E.03564
G1 X121.693 Y106.796 E.02489
G1 X120.9 Y106.73 E.01495
G1 X119.294 Y106.543 E.03037
G1 X117.702 Y106.29 E.03028
G1 X116.117 Y105.969 E.03038
G1 X115.343 Y105.787 E.01494
G1 X113.782 Y105.367 E.03036
G1 X112.243 Y104.883 E.0303
G1 X111.001 Y104.438 E.02478
G1 X109.982 Y104.04 E.02055
G1 X108.501 Y103.396 E.03034
G1 X107.046 Y102.69 E.03038
G1 X106.343 Y102.321 E.01491
G1 X104.935 Y101.525 E.03038
G1 X103.562 Y100.67 E.03038
G1 X102.901 Y100.229 E.01493
G1 X101.585 Y99.289 E.03038
G1 X100.313 Y98.299 E.03028
G1 X99.085 Y97.256 E.03026
G1 X97.901 Y96.162 E.03028
G1 X96.761 Y95.015 E.03038
G1 X96.218 Y94.434 E.01494
G1 X95.152 Y93.218 E.03038
G1 X94.142 Y91.963 E.03026
G1 X93.185 Y90.666 E.03028
G1 X92.283 Y89.33 E.03028
G1 X91.439 Y87.957 E.03027
G1 X90.652 Y86.55 E.03028
G1 X89.924 Y85.107 E.03036
G1 X89.588 Y84.386 E.01494
G1 X88.951 Y82.9 E.03037
G1 X88.38 Y81.393 E.03027
G1 X87.872 Y79.863 E.03028
G1 X87.429 Y78.314 E.03026
G1 X87.052 Y76.747 E.03027
G1 X86.739 Y75.16 E.03038
G1 X86.611 Y74.376 E.01492
G1 X86.399 Y72.772 E.03039
G1 X86.255 Y71.167 E.03027
G1 X86.179 Y69.552 E.03037
