; generated by PrusaSlicer 2.9.2 on 2025-08-19 at 14:21:52 UTC


;
;
; 

; external perimeters extrusion width = 0.45mm
; perimeters extrusion width = 0.45mm
; infill extrusion width = 0.45mm
; solid infill extrusion width = 0.45mm
; top infill extrusion width = 0.40mm
; first layer extrusion width = 0.42mm

; external perimeters extrusion width = 0.45mm
; perimeters extrusion width = 0.45mm
; infill extrusion width = 0.45mm
; solid infill extrusion width = 0.45mm
; top infill extrusion width = 0.40mm
; first layer extrusion width = 0.42mm

M73 P0 R107
M201 X1000 Y1000 Z200 E8000 ; sets maximum accelerations, mm/sec^2
M203 X12000 Y12000 Z720 E7200 ; sets maximum feedrates, mm / min
M204 P1250 T1500 ; sets acceleration (P, T), mm/sec^2
M566 X480.00 Y480.00 Z24.00 E270.00 ; sets the jerk limits, mm/min

; printing object Blank.stl id:0 copy 0
; stop printing object Blank.stl id:0 copy 0
; printing object PG-assembly-adapter-MK4-R1.stl id:1 copy 0
; stop printing object PG-assembly-adapter-MK4-R1.stl id:1 copy 0

M190 S85 ; set bed temperature and wait for it to be reached
;TYPE:Custom
; Dusa start code
M118 S"Running Start Code - Dual Extruder Mode"
T1			; select T1 so it can become standby, (cura puts a T0 in its preface)
G29 S1 ; load default mesh bed compensation
M280 P0 S90 ; retract the BLtouch
; Sets both active and standby to the same value
M109 T0 S260
M109 T1 S260
T0			; activate tool0
G92 E0			; zero current extruder position
G1 X20.0 Y2.0 Z1.2 		; move onto buildplate
G1 Z0.2 F1000 		; lower to 0.2 mm height, 0.1125 mmE per mmX
G1 X80 Y2.0 E10.0 F500 	; 60 mmX at extra rate
G1 X140 Y2.0 E16.75 F500 	; 60 mmX at std rate
G1 Z5.0 F6000 		; raise Z to 5
G92 E0			; rezero extruder
T1		; activate tool1
G92 E0		; zero current extruder position
G1 X160 Y5.0 Z1.2 	; move onto buildplate
G1 Z0.2 F1000 	; lower to 0.2 mm height
G1 X100 Y5.0 E10.0 F500 	; 60 mmX at extra rate
G1 X40 Y5.0 E16.75 F500 	; 60 mmX at std rate
G1 Z5.0 F6000 		; raise Z to 5
G92 E0			; rezero extruder
T0			; select the first extruder that will be used
M118 S"Finished Start Code"
G21 ; set units to millimeters
G90 ; use absolute coordinates
M83 ; use relative distances for extrusion
T1

M900 K0.08 ; Filament gcode LA 1.5
M900 K45 ; Filament gcode LA 1.0




M107
;LAYER_CHANGE
;Z:0.24
;HEIGHT:0.24
; printing object Blank.stl id:0 copy 0
G1 E-1 F2100
G1 Z.44 F720
G1 X112.823 Y109.448 F10800
G1 Z.24 F720
G1 E1 F2100
M204 P400
;TYPE:External perimeter
;WIDTH:0.419999
G1 F720
G1 X113.23 Y109.114 E.01936
G1 X113.697 Y108.839 E.01993
G1 X114.201 Y108.639 E.01994
G1 X114.729 Y108.52 E.0199
G1 X115.27 Y108.484 E.01994
G1 X115.81 Y108.533 E.01994
G1 X116.336 Y108.664 E.01993
G1 X116.835 Y108.876 E.01993
G1 X117.295 Y109.162 E.01992
G1 X117.706 Y109.516 E.01994
G1 X118.056 Y109.929 E.0199
G1 X118.339 Y110.391 E.01992
G1 X118.546 Y110.892 E.01993
;WIDTH:0.453907
G1 X118.605 Y111.064 E.0073
;WIDTH:0.487815
G1 X118.664 Y111.236 E.00792
;WIDTH:0.521723
G1 X118.723 Y111.407 E.00849
G1 X118.756 Y111.956 E.0258
;WIDTH:0.51606
G1 X118.726 Y112.503 E.02539
G1 X118.641 Y112.765 E.01277
;WIDTH:0.46803
G1 X118.555 Y113.027 E.01146
;WIDTH:0.419999
G1 X118.352 Y113.53 E.01994
;WIDTH:0.450427
G1 X118.086 Y114.003 E.0216
G1 X117.729 Y114.414 E.02167
;WIDTH:0.446044
G1 X117.327 Y114.778 E.02135
G1 X116.86 Y115.058 E.02144
;WIDTH:0.419999
G1 X116.363 Y115.273 E.01991
;WIDTH:0.467138
G1 X116.106 Y115.364 E.01131
;WIDTH:0.514277
G1 X115.85 Y115.455 E.01255
G1 X115.302 Y115.5 E.02539
;WIDTH:0.512336
G1 X114.755 Y115.477 E.02517
G1 X114.492 Y115.397 E.01264
;WIDTH:0.466168
G1 X114.228 Y115.316 E.01143
;WIDTH:0.419999
G1 X113.722 Y115.121 E.01994
G1 X113.253 Y114.85 E.01992
G1 X112.832 Y114.509 E.01992
G1 X112.468 Y114.107 E.01994
G1 X112.172 Y113.655 E.01987
G1 X111.948 Y113.16 E.01998
G1 X111.804 Y112.638 E.01991
G1 X111.742 Y111.88 E.02796
G1 X111.799 Y111.337 E.02008
G1 X111.939 Y110.813 E.01994
G1 X112.158 Y110.318 E.0199
G1 X112.451 Y109.863 E.0199
G1 X112.782 Y109.491 E.01831
M204 P1000
G1 E-1 F2100
G1 Z.44 F720
G1 X114.744 Y84.428 F10800
G1 Z.24 F720
G1 E1 F2100
M204 P400
G1 F720
G1 X114.228 Y84.316 E.01941
G1 X113.722 Y84.121 E.01994
G1 X113.253 Y83.85 E.01992
G1 X112.832 Y83.51 E.0199
G1 X112.468 Y83.107 E.01997
G1 X112.172 Y82.655 E.01987
G1 X111.948 Y82.16 E.01998
G1 X111.804 Y81.638 E.01991
G1 X111.742 Y80.88 E.02796
G1 X111.799 Y80.337 E.02008
G1 X111.939 Y79.813 E.01994
G1 X112.158 Y79.318 E.0199
G1 X112.451 Y78.863 E.0199
G1 X112.812 Y78.457 E.01998
G1 X113.23 Y78.114 E.01988
G1 X113.697 Y77.839 E.01993
G1 X114.201 Y77.639 E.01994
;WIDTH:0.464946
G1 X114.46 Y77.558 E.01119
;WIDTH:0.509892
G1 X114.719 Y77.476 E.01243
G1 X115.268 Y77.447 E.02515
;WIDTH:0.520364
G1 X115.814 Y77.483 E.0256
G1 X115.988 Y77.543 E.00861
;WIDTH:0.486909
G1 X116.161 Y77.604 E.00797
;WIDTH:0.453454
G1 X116.334 Y77.664 E.00734
;WIDTH:0.419999
G1 X116.835 Y77.876 E.02
;WIDTH:0.447069
G1 X117.302 Y78.15 E.02137
G1 X117.708 Y78.513 E.0215
;WIDTH:0.450372
G1 X118.068 Y78.919 E.0216
G1 X118.339 Y79.391 E.02166
;WIDTH:0.419999
G1 X118.531 Y79.855 E.01846
;WIDTH:0.453907
G1 X118.595 Y80.039 E.00782
;WIDTH:0.487815
G1 X118.659 Y80.223 E.00848
;WIDTH:0.521723
G1 X118.723 Y80.407 E.00914
G1 X118.756 Y80.956 E.0258
;WIDTH:0.51606
G1 X118.726 Y81.503 E.02539
G1 X118.641 Y81.765 E.01277
;WIDTH:0.46803
G1 X118.555 Y82.027 E.01146
;WIDTH:0.419999
G1 X118.352 Y82.53 E.01994
G1 X118.073 Y82.995 E.01994
G1 X117.726 Y83.411 E.01992
G1 X117.318 Y83.768 E.01993
G1 X116.86 Y84.058 E.01993
G1 X116.363 Y84.273 E.01991
G1 X115.838 Y84.409 E.01994
G1 X115.299 Y84.462 E.01991
G1 X114.804 Y84.434 E.01823
M204 P1000
G1 E-1 F2100
G1 Z.44 F720
G1 X87.675 Y81.514 F10800
G1 Z.24 F720
G1 E1 F2100
M204 P400
G1 F720
G1 X87.555 Y82.027 E.01937
G1 X87.352 Y82.53 E.01994
G1 X87.073 Y82.995 E.01994
G1 X86.726 Y83.411 E.01992
G1 X86.318 Y83.768 E.01993
G1 X85.86 Y84.058 E.01993
G1 X85.363 Y84.273 E.01991
G1 X84.838 Y84.409 E.01994
G1 X84.299 Y84.462 E.01991
G1 X83.758 Y84.431 E.01992
G1 X83.228 Y84.316 E.01994
G1 X82.722 Y84.121 E.01994
G1 X82.253 Y83.85 E.01992
G1 X81.832 Y83.509 E.01992
G1 X81.468 Y83.107 E.01994
G1 X81.172 Y82.655 E.01987
G1 X80.948 Y82.16 E.01998
;WIDTH:0.468597
G1 X80.853 Y81.906 E.01129
;WIDTH:0.517194
G1 X80.757 Y81.651 E.01266
G1 X80.703 Y80.883 E.03577
;WIDTH:0.527083
G1 X80.746 Y80.331 E.02627
G1 X80.81 Y80.158 E.00875
;WIDTH:0.491389
G1 X80.874 Y79.986 E.00806
;WIDTH:0.455694
G1 X80.939 Y79.813 E.00745
;WIDTH:0.419999
G1 X81.158 Y79.318 E.0199
;WIDTH:0.444665
G1 X81.44 Y78.856 E.02123
G1 X81.808 Y78.454 E.02138
;WIDTH:0.45583
G1 X82.219 Y78.1 E.02188
G1 X82.697 Y77.839 E.02197
;WIDTH:0.419999
G1 X83.201 Y77.639 E.01994
;WIDTH:0.465259
G1 X83.46 Y77.558 E.0112
;WIDTH:0.510519
G1 X83.719 Y77.476 E.01244
G1 X84.268 Y77.446 E.02518
;WIDTH:0.52103
G1 X84.815 Y77.483 E.02569
G1 X84.988 Y77.543 E.00858
;WIDTH:0.487353
G1 X85.162 Y77.604 E.00802
;WIDTH:0.453676
G1 X85.336 Y77.664 E.00739
;WIDTH:0.419999
G1 X85.835 Y77.876 E.01993
G1 X86.295 Y78.162 E.01992
G1 X86.706 Y78.516 E.01994
G1 X87.056 Y78.929 E.0199
G1 X87.339 Y79.391 E.01992
G1 X87.546 Y79.892 E.01993
G1 X87.674 Y80.419 E.01994
G1 X87.718 Y80.959 E.01992
G1 X87.681 Y81.455 E.01829
M204 P1000
G1 E-1 F2100
G1 Z.44 F720
G1 X87.824 Y81.466 F10800
G1 X87.844 Y81.212
G1 X87.862 Y80.973
G1 X87.844 Y80.735
G1 X87.819 Y80.411
G1 X87.764 Y80.178
G1 X87.688 Y79.862
G1 X87.599 Y79.64
G1 X87.474 Y79.34
G1 X87.352 Y79.134
G1 X87.182 Y78.857
G1 X87.03 Y78.672
G1 X86.819 Y78.425
G1 X86.64 Y78.266
G1 X86.393 Y78.055
G1 X86.192 Y77.925
G1 X85.915 Y77.755
G1 X85.697 Y77.657
G1 X85.397 Y77.533
G1 X85.166 Y77.47
G1 X84.85 Y77.394
G1 X84.611 Y77.376
G1 X84.288 Y77.361
G1 X84.05 Y77.367
G1 X83.726 Y77.381
G1 X83.49 Y77.421
G1 X83.174 Y77.497
G1 X82.949 Y77.578
G1 X82.883 Y77.606
G1 X82.803 Y77.417
G1 Z.24 F720
G1 E1 F2100
M204 P400
;TYPE:Perimeter
;WIDTH:0.415398
G1 F720
G1 X82.972 Y77.335 E.00682
M204 P1000
G1 E-1 F2100
G1 Z.44 F720
G1 X80.574 Y79.795 F10800
G1 Z.24 F720
G1 E1 F2100
M204 P400
;WIDTH:0.407618
G1 F720
G1 X80.628 Y79.615 E.00668
M204 P1000
G1 E-1 F2100
G1 Z.44 F720
G1 X80.453 Y79.481 F10800
G1 X82.994 Y115.841
G1 X116.762 Y115.716
G1 X116.8 Y115.679
G1 X116.652 Y115.531
G1 Z.24 F720
G1 E1 F2100
M204 P400
;WIDTH:0.40853
G1 F720
G1 X116.493 Y115.612 E.00636
M204 P1000
G1 E-1 F2100
G1 Z.44 F720
G1 X118.885 Y113.154 F10800
G1 Z.24 F720
G1 E1 F2100
M204 P400
;WIDTH:0.411358
G1 F720
G1 X118.83 Y113.323 E.00638
M204 P1000
G1 E-1 F2100
G1 Z.44 F720
G1 X118.785 Y79.548 F10800
G1 Z.24 F720
G1 E1 F2100
M204 P400
;WIDTH:0.411416
G1 F720
G1 X118.868 Y79.717 E.00676
M204 P1000
G1 E-1 F2100
G1 Z.44 F720
G1 X116.422 Y77.32 F10800
G1 Z.24 F720
G1 E1 F2100
M204 P400
;WIDTH:0.409848
G1 F720
G1 X116.584 Y77.373 E.00609
M204 P1000
G1 E-1 F2100
G1 Z.44 F720
G1 X116.5 Y77.576 F10800
G1 X116.397 Y77.533
G1 X116.166 Y77.47
G1 X115.85 Y77.394
G1 X115.611 Y77.376
G1 X115.288 Y77.361
G1 X115.05 Y77.367
G1 X114.726 Y77.381
G1 X114.49 Y77.421
G1 X114.174 Y77.497
G1 X113.949 Y77.578
G1 X113.649 Y77.702
G1 X113.438 Y77.816
G1 X113.161 Y77.986
G1 X112.971 Y78.131
G1 X112.724 Y78.342
G1 X112.558 Y78.515
G1 X112.347 Y78.762
G1 X112.209 Y78.958
G1 X112.136 Y79.076
G1 X111.639 Y78.771
G1 Z.24 F720
G1 E1 F2100
M204 P400
;WIDTH:0.419999
G1 F720
G1 X111.485 Y79.017 E.01067
G1 X111.227 Y79.62 E.02412
G1 X111.066 Y80.256 E.02412
G1 X111.007 Y80.937 E.02513
G1 X111.093 Y81.832 E.03306
G1 X111.275 Y82.461 E.02408
G1 X111.554 Y83.056 E.02416
G1 X111.92 Y83.6 E.02411
G1 X112.367 Y84.081 E.02414
G1 X112.882 Y84.486 E.02409
G1 X113.454 Y84.807 E.02412
G1 X114.069 Y85.036 E.02413
G1 X114.712 Y85.166 E.02412
G1 X115.368 Y85.196 E.02415
G1 X116.02 Y85.123 E.02412
G1 X116.653 Y84.951 E.02412
G1 X117.252 Y84.682 E.02414
G1 X117.802 Y84.324 E.02413
G1 X118.189 Y83.987 E.01887
G1 X118.501 Y83.634 E.01732
G1 X118.501 Y109.313 E.94418
G1 X118.189 Y108.959 E.01735
G1 X117.687 Y108.538 E.02409
G1 X117.125 Y108.198 E.02415
G1 X116.517 Y107.95 E.02414
G1 X115.879 Y107.799 E.02411
G1 X115.225 Y107.749 E.02412
G1 X114.57 Y107.8 E.02416
G1 X113.932 Y107.953 E.02412
G1 X113.325 Y108.202 E.02412
G1 X112.764 Y108.542 E.02412
G1 X112.263 Y108.965 E.02411
G1 X111.833 Y109.461 E.02414
G1 X111.485 Y110.017 E.02412
G1 X111.227 Y110.62 E.02412
G1 X111.066 Y111.256 E.02412
G1 X111.007 Y111.937 E.02513
G1 X111.093 Y112.832 E.03306
G1 X111.275 Y113.461 E.02408
G1 X111.554 Y114.056 E.02416
G1 X111.92 Y114.6 E.02411
G1 X112.263 Y114.982 E.01888
G1 X112.57 Y115.247 E.01491
G1 X83.052 Y115.234 E1.08533
G1 X80.955 Y113.12 E.10948
G1 X80.955 Y83.639 E1.08397
G1 X81.366 Y84.08 E.02217
G1 X81.882 Y84.486 E.02414
G1 X82.454 Y84.807 E.02412
G1 X83.069 Y85.036 E.02413
G1 X83.712 Y85.166 E.02412
G1 X84.368 Y85.196 E.02415
G1 X85.02 Y85.123 E.02412
M73 P0 R106
G1 X85.653 Y84.951 E.02412
G1 X86.252 Y84.682 E.02414
G1 X86.802 Y84.324 E.02413
G1 X87.289 Y83.885 E.02411
G1 X87.703 Y83.376 E.02412
G1 X88.034 Y82.809 E.02414
G1 X88.272 Y82.198 E.02411
G1 X88.413 Y81.557 E.02413
G1 X88.453 Y80.902 E.02413
G1 X88.391 Y80.249 E.02412
G1 X88.228 Y79.613 E.02414
G1 X87.969 Y79.01 E.02413
G1 X87.62 Y78.454 E.02414
G1 X87.289 Y78.061 E.01889
G1 X86.891 Y77.701 E.01973
G1 X112.569 Y77.702 E.94414
G1 X112.263 Y77.965 E.01484
G1 X111.833 Y78.461 E.02414
G1 X111.671 Y78.72 E.01123
M204 P1000
G1 E-1 F2100
G1 Z.44 F720
G1 X113.971 Y77.333 F10800
G1 Z.24 F720
G1 E1 F2100
M204 P400
G1 F720
G1 X113.511 Y77.52 E.01826
G1 X112.997 Y77.828 E.02203
G1 X112.537 Y78.211 E.02201
G1 X112.142 Y78.662 E.02204
G1 X111.821 Y79.167 E.022
G1 X111.583 Y79.717 E.02203
G1 X111.433 Y80.296 E.02199
G1 X111.375 Y80.909 E.02264
G1 X111.449 Y81.735 E.03049
G1 X111.612 Y82.311 E.02201
G1 X111.863 Y82.855 E.02203
G1 X112.194 Y83.354 E.02202
G1 X112.6 Y83.795 E.02204
G1 X113.068 Y84.168 E.022
G1 X113.588 Y84.464 E.022
G1 X114.149 Y84.676 E.02205
G1 X114.735 Y84.799 E.02202
G1 X115.333 Y84.829 E.02202
G1 X115.929 Y84.766 E.02204
G1 X116.508 Y84.612 E.02203
G1 X117.056 Y84.37 E.02203
G1 X117.56 Y84.046 E.02203
G1 X118.008 Y83.648 E.02203
G1 X118.388 Y83.186 E.02199
G1 X118.654 Y82.746 E.0189
G1 X118.869 Y82.238 E.02028
G1 X118.869 Y110.709 E1.04684
G1 X118.654 Y110.201 E.02028
G1 X118.338 Y109.692 E.02203
G1 X117.947 Y109.238 E.02203
G1 X117.491 Y108.85 E.02201
G1 X116.98 Y108.537 E.02203
G1 X116.426 Y108.307 E.02206
G1 X115.844 Y108.166 E.02202
G1 X115.248 Y108.117 E.02199
G1 X114.65 Y108.16 E.02204
G1 X114.066 Y108.296 E.02205
G1 X113.511 Y108.52 E.02201
G1 X112.997 Y108.828 E.02203
G1 X112.537 Y109.211 E.02201
G1 X112.142 Y109.662 E.02204
G1 X111.821 Y110.167 E.022
G1 X111.583 Y110.717 E.02203
G1 X111.433 Y111.296 E.02199
G1 X111.375 Y111.909 E.02264
G1 X111.449 Y112.735 E.03049
G1 X111.612 Y113.311 E.02201
G1 X111.863 Y113.855 E.02203
G1 X112.194 Y114.354 E.02202
G1 X112.599 Y114.795 E.02202
G1 X113.068 Y115.168 E.02203
G1 X113.511 Y115.427 E.01887
G1 X113.974 Y115.615 E.01837
G1 X83.051 Y115.615 E1.13699
G1 X82.838 Y115.542 E.00828
G1 X80.685 Y113.388 E.11198
G1 X80.586 Y113.186 E.00827
G1 X80.586 Y82.24 E1.13784
G1 X80.863 Y82.855 E.0248
M73 P1 R106
G1 X81.194 Y83.354 E.02202
G1 X81.599 Y83.795 E.02202
G1 X82.068 Y84.168 E.02203
G1 X82.588 Y84.464 E.022
G1 X83.149 Y84.676 E.02205
G1 X83.735 Y84.799 E.02202
G1 X84.333 Y84.829 E.02202
G1 X84.929 Y84.766 E.02204
G1 X85.508 Y84.612 E.02203
G1 X86.056 Y84.37 E.02203
G1 X86.56 Y84.046 E.02203
G1 X87.008 Y83.648 E.02203
G1 X87.388 Y83.186 E.02199
G1 X87.693 Y82.67 E.02204
G1 X87.914 Y82.113 E.02203
G1 X88.046 Y81.528 E.02205
G1 X88.085 Y80.931 E.022
G1 X88.032 Y80.334 E.02204
G1 X87.887 Y79.753 E.02202
G1 X87.654 Y79.201 E.02203
G1 X87.338 Y78.692 E.02203
G1 X86.947 Y78.238 E.02203
G1 X86.491 Y77.85 E.02201
G1 X85.98 Y77.537 E.02203
G1 X85.508 Y77.334 E.01889
G1 X113.911 Y77.333 E1.04434
M204 P1000
G1 E-1 F2100
G1 Z.44 F720
G1 X116.488 Y76.972 F10800
G1 Z.24 F720
G1 E1 F2100
M204 P400
;TYPE:External perimeter
G1 F720
G1 X116.805 Y77.085 E.01237
G1 X117.198 Y77.465 E.0201
;WIDTH:0.446037
G1 X118.006 Y78.279 E.04515
;WIDTH:0.455487
G1 X118.404 Y78.696 E.02324
G1 X119.033 Y79.3 E.03515
;WIDTH:0.419999
G1 X119.183 Y79.533 E.01019
G1 X119.238 Y79.76 E.00859
G1 X119.238 Y79.84 E.00294
;WIDTH:0.46803
G1 X119.214 Y80.133 E.01222
;WIDTH:0.51606
G1 X119.19 Y80.426 E.01363
G1 X119.2 Y81.008 E.02698
;WIDTH:0.511935
G1 X119.192 Y81.594 E.02692
G1 X119.215 Y81.851 E.01185
;WIDTH:0.465967
G1 X119.238 Y82.107 E.01063
;WIDTH:0.419999
G1 X119.238 Y110.84 E1.05647
;WIDTH:0.46803
G1 X119.214 Y111.133 E.01222
;WIDTH:0.51606
G1 X119.19 Y111.426 E.01363
G1 X119.2 Y112.008 E.02698
;WIDTH:0.511935
G1 X119.192 Y112.594 E.02692
G1 X119.215 Y112.851 E.01185
;WIDTH:0.465967
G1 X119.238 Y113.107 E.01063
;WIDTH:0.419999
G1 X119.165 Y113.483 E.01408
G1 X118.779 Y113.901 E.02092
;WIDTH:0.450373
G1 X118.361 Y114.297 E.02292
G1 X117.965 Y114.71 E.02277
;WIDTH:0.450606
G1 X117.55 Y115.108 E.0229
G1 X116.901 Y115.78 E.0372
;WIDTH:0.419999
G1 X116.677 Y115.924 E.00979
G1 X116.423 Y115.983 E.00959
;WIDTH:0.453691
G1 X116.228 Y115.967 E.00785
;WIDTH:0.487382
G1 X116.032 Y115.95 E.00856
;WIDTH:0.521073
G1 X115.836 Y115.933 E.00922
G1 X115.254 Y115.945 E.02727
;WIDTH:0.517373
G1 X114.669 Y115.935 E.0272
G1 X114.412 Y115.959 E.012
;WIDTH:0.468686
G1 X114.156 Y115.983 E.0107
;WIDTH:0.419999
G1 X83.115 Y115.983 E1.14133
G1 X82.81 Y115.933 E.01136
G1 X82.595 Y115.819 E.00895
G1 X80.469 Y113.694 E.11052
G1 X80.29 Y113.443 E.01134
G1 X80.218 Y113.21 E.00897
G1 X80.218 Y82.229 E1.13913
;WIDTH:0.455455
G1 X80.236 Y82.029 E.00809
;WIDTH:0.49091
G1 X80.253 Y81.828 E.00884
;WIDTH:0.526365
G1 X80.271 Y81.627 E.00956
G1 X80.257 Y80.817 E.03839
;WIDTH:0.527083
G1 X80.271 Y80.305 E.02431
G1 X80.254 Y80.135 E.00811
;WIDTH:0.491389
G1 X80.236 Y79.965 E.0075
;WIDTH:0.455694
G1 X80.218 Y79.795 E.00689
;WIDTH:0.419999
G1 X80.271 Y79.548 E.00929
G1 X80.382 Y79.34 E.00867
G1 X80.762 Y78.961 E.01973
;WIDTH:0.442891
G1 X81.576 Y78.153 E.04479
;WIDTH:0.450141
G1 X82.554 Y77.169 E.05518
;WIDTH:0.419999
G1 X82.852 Y76.982 E.01294
G1 X83.155 Y76.963 E.01116
;WIDTH:0.46617
