; generated by PrusaSlicer 2.9.2 on 2025-08-19 at 01:23:18 UTC


;
;
; 

; external perimeters extrusion width = 0.45mm
; perimeters extrusion width = 0.45mm
; infill extrusion width = 0.45mm
; solid infill extrusion width = 0.45mm
; top infill extrusion width = 0.40mm
; first layer extrusion width = 0.42mm

M73 P0 R13
M201 X1000 Y1000 Z200 E8000 ; sets maximum accelerations, mm/sec^2
M203 X12000 Y12000 Z720 E7200 ; sets maximum feedrates, mm / min
M204 P1250 T1500 ; sets acceleration (P, T), mm/sec^2
M566 X480.00 Y480.00 Z24.00 E270.00 ; sets the jerk limits, mm/min

; printing object idler-nut-fs-R2.stl id:0 copy 0
; stop printing object idler-nut-fs-R2.stl id:0 copy 0

M190 S70 ; set bed temperature and wait for it to be reached
;TYPE:Custom
; Dusa start code
M118 S"Running Start Code - Dual Extruder Mode"
T1			; select T1 so it can become standby, (cura puts a T0 in its preface)
G29 S1 ; load default mesh bed compensation
M280 P0 S90 ; retract the BLtouch
; Sets both active and standby to the same value
M109 T0 S260
M109 T1 S230
T0			; activate tool0
G92 E0			; zero current extruder position
G1 X20.0 Y2.0 Z1.2 		; move onto buildplate
G1 Z0.2 F1000 		; lower to 0.2 mm height, 0.1125 mmE per mmX
G1 X80 Y2.0 E10.0 F500 	; 60 mmX at extra rate
G1 X140 Y2.0 E16.75 F500 	; 60 mmX at std rate
G1 Z5.0 F6000 		; raise Z to 5
M73 P1 R12
G92 E0			; rezero extruder
T1		; activate tool1
G92 E0		; zero current extruder position
G1 X160 Y5.0 Z1.2 	; move onto buildplate
G1 Z0.2 F1000 	; lower to 0.2 mm height
G1 X100 Y5.0 E10.0 F500 	; 60 mmX at extra rate
G1 X40 Y5.0 E16.75 F500 	; 60 mmX at std rate
M73 P2 R12
G1 Z5.0 F6000 		; raise Z to 5
M73 P3 R12
G92 E0			; rezero extruder
T0			; select the first extruder that will be used
M118 S"Finished Start Code"
G21 ; set units to millimeters
G90 ; use absolute coordinates
M83 ; use relative distances for extrusion

M900 K0.08 ; Filament gcode LA 1.5
M900 K45 ; Filament gcode LA 1.0




M107
;LAYER_CHANGE
;Z:0.24
;HEIGHT:0.24
G1 E-1 F2100
G1 Z.44 F720
; printing object idler-nut-fs-R2.stl id:0 copy 0
G1 X125.482 Y112.503 F10800
G1 Z.24 F720
M73 P4 R12
G1 E1 F2100
M204 P400
;TYPE:External perimeter
;WIDTH:0.419999
G1 F720
G1 X125.78 Y112.532 E.01101
;WIDTH:0.459115
G1 X126.037 Y112.616 E.011
;WIDTH:0.49823
G1 X126.295 Y112.7 E.01209
;WIDTH:0.537345
G1 X126.552 Y112.783 E.01309
;WIDTH:0.537584
G1 X126.958 Y113.108 E.02522
G1 X127.251 Y113.483 E.02308
;WIDTH:0.52556
G1 X127.33 Y113.713 E.0115
;WIDTH:0.490373
G1 X127.409 Y113.943 E.01065
;WIDTH:0.455186
G1 X127.488 Y114.172 E.00976
;WIDTH:0.419999
G1 X127.564 Y114.705 E.0198
G1 X127.51 Y115.21 E.01867
G1 X127.378 Y115.619 E.0158
G1 X127.128 Y116.041 E.01803
G1 X126.783 Y116.417 E.01876
G1 X126.342 Y116.71 E.01947
;WIDTH:0.468611
G1 X126.248 Y116.775 E.00476
;WIDTH:0.517223
G1 X126.155 Y116.84 E.00527
;WIDTH:0.565834
G1 X126.061 Y116.906 E.00589
G1 X125.757 Y116.975 E.016
;WIDTH:0.523699
G1 X125.191 Y117.001 E.0267
;WIDTH:0.513042
G1 X124.604 Y116.89 E.02751
;WIDTH:0.511614
G1 X124.125 Y116.666 E.02428
;WIDTH:0.50536
G1 X123.736 Y116.362 E.02236
;WIDTH:0.506149
G1 X123.431 Y115.995 E.02165
;WIDTH:0.513462
G1 X123.164 Y115.451 E.02793
G1 X123.093 Y115.207 E.01171
;WIDTH:0.511679
G1 X123.041 Y114.746 E.0213
;WIDTH:0.512255
G1 X123.094 Y114.247 E.02307
G1 X123.258 Y113.895 E.01785
;WIDTH:0.466127
G1 X123.422 Y113.544 E.01603
;WIDTH:0.419999
G1 X123.735 Y113.15 E.0185
G1 X124.084 Y112.86 E.01668
G1 X124.414 Y112.68 E.01382
G1 X124.861 Y112.535 E.01728
G1 X125.316 Y112.487 E.01682
G1 X125.422 Y112.497 E.00391
M204 P1000
G1 E-1 F2100
G1 Z.44 F720
G1 X127.51 Y113.367 F10800
G1 Z.24 F720
G1 E1 F2100
M204 P400
;TYPE:Perimeter
;WIDTH:0.354594
G1 F720
G1 X128.089 Y113.946 E.02476
;WIDTH:0.370196
G1 X128.198 Y114.416 E.01534
G1 X128.212 Y114.894 E.01521
;WIDTH:0.368909
G1 X128.111 Y115.443 E.01768
;WIDTH:0.404393
G1 X128.063 Y115.501 E.00265
;WIDTH:0.450448
G1 X128.015 Y115.559 E.003
;WIDTH:0.496504
G1 X127.967 Y115.616 E.00331
;WIDTH:0.542559
G1 X127.918 Y115.674 E.00372
;WIDTH:0.588615
G1 X127.87 Y115.732 E.00403
;WIDTH:0.63467
G1 X127.822 Y115.789 E.00434
G1 X127.823 Y115.71 E.0046
;WIDTH:0.588054
G1 X127.825 Y115.63 E.00428
;WIDTH:0.541438
G1 X127.826 Y115.551 E.00386
;WIDTH:0.494822
G1 X127.827 Y115.472 E.00349
;WIDTH:0.448206
G1 X127.829 Y115.392 E.00317
;WIDTH:0.40159
G1 X127.83 Y115.313 E.00276
;WIDTH:0.364422
G1 X127.903 Y114.782 E.01674
G1 X127.851 Y114.24 E.017
;WIDTH:0.354594
G1 X127.702 Y113.737 E.01587
G1 X127.538 Y113.42 E.01079
M204 P1000
G1 E-1 F2100
G1 Z.44 F720
G1 X127.822 Y115.789 F10800
G1 Z.24 F720
G1 E1 F2100
M204 P400
;WIDTH:0.63467
G1 F720
G1 X127.687 Y116.007 E.01492
;WIDTH:0.605598
G1 X127.553 Y116.226 E.01419
;WIDTH:0.576526
G1 X127.352 Y116.435 E.01519
;WIDTH:0.540652
G1 X127.151 Y116.644 E.01415
;WIDTH:0.504778
G1 X126.965 Y116.77 E.01016
;WIDTH:0.469072
G1 X126.779 Y116.896 E.00936
;WIDTH:0.433366
G1 X126.519 Y117.029 E.01113
M204 P1000
G1 E-1 F2100
G1 Z.44 F720
G1 X126.582 Y117.246 F10800
G1 X123.915 Y116.972
G1 X122.698 Y115.095
G1 X122.736 Y113.828
G1 X122.713 Y113.828
G1 X122.716 Y113.304
G1 Z.24 F720
G1 E1 F2100
M204 P400
;WIDTH:0.419999
G1 F720
G1 X122.636 Y113.262 E.00332
G1 X122.389 Y113.228 E.00917
G1 X118.722 Y113.223 E.13483
G1 X118.722 Y96.55 E.61304
G1 X122.05 Y93.222 E.17305
G1 X128.898 Y93.222 E.25179
G1 X128.898 Y95.825 E.09571
G1 X128.898 Y98.428 E.09571
G1 X125.247 Y98.428 E.13424
G1 X124.911 Y98.492 E.01258
G1 X124.616 Y98.678 E.01282
G1 X124.404 Y98.977 E.01348
G1 X124.326 Y99.349 E.01398
G1 X124.331 Y110.463 E.40865
G1 X124.42 Y110.775 E.01193
G1 X124.596 Y111.02 E.01109
G1 X125.329 Y111.753 E.03811
G1 X124.778 Y111.802 E.02034
G1 X124.181 Y111.981 E.02292
G1 X123.725 Y112.217 E.01888
G1 X123.27 Y112.578 E.02136
G1 X122.937 Y112.964 E.01874
G1 X122.749 Y113.253 E.01268
M204 P1000
G1 X122.767 Y113.765 F10800
M204 P400
G1 F720
G1 X122.537 Y113.617 E.01006
G1 X122.389 Y113.597 E.00549
G1 X118.568 Y113.591 E.14049
G1 X118.401 Y113.494 E.0071
M73 P5 R12
G1 X118.354 Y113.321 E.00659
G1 X118.354 Y96.397 E.62227
G1 X121.897 Y92.853 E.18426
G1 X129.266 Y92.853 E.27095
G1 X129.266 Y95.825 E.10928
G1 X129.266 Y98.797 E.10928
G1 X125.152 Y98.805 E.15127
G1 X124.93 Y98.897 E.00884
G1 X124.742 Y99.126 E.01089
G1 X124.694 Y99.349 E.00839
G1 X124.694 Y110.369 E.40519
G1 X124.718 Y110.528 E.00591
G1 X124.856 Y110.759 E.00989
G1 X126.513 Y112.416 E.08616
G1 X126.308 Y112.311 E.00847
G1 X125.882 Y112.178 E.01641
G1 X125.349 Y112.12 E.01971
G1 X124.82 Y112.168 E.01953
G1 X124.297 Y112.33 E.02013
G1 X123.819 Y112.598 E.02015
G1 X123.42 Y112.948 E.01952
G1 X123.095 Y113.374 E.0197
G1 X122.854 Y113.924 E.02208
G1 X122.813 Y113.801 E.00477
M204 P1000
G1 X122.485 Y114.01 F10800
M204 P400
;TYPE:External perimeter
G1 F720
G1 X122.388 Y113.965 E.00393
G1 X118.647 Y113.96 E.13755
G1 X118.436 Y113.937 E.0078
G1 X118.234 Y113.832 E.00837
G1 X118.064 Y113.647 E.00924
G1 X117.985 Y113.352 E.01123
G1 X117.985 Y96.245 E.629
G1 X121.745 Y92.485 E.19551
G1 X129.635 Y92.485 E.2901
G1 X129.635 Y95.825 E.12281
M73 P6 R12
G1 X129.635 Y99.165 E.12281
G1 X125.247 Y99.165 E.16134
G1 X125.121 Y99.215 E.00498
G1 X125.063 Y99.349 E.00537
G1 X125.063 Y110.369 E.40519
G1 X125.117 Y110.499 E.00518
G1 X126.53 Y111.912 E.07347
;WIDTH:0.459115
G1 X126.645 Y112.054 E.00743
;WIDTH:0.49823
G1 X126.76 Y112.197 E.00818
;WIDTH:0.537345
G1 X126.875 Y112.34 E.0089
;WIDTH:0.537875
G1 X127.245 Y112.71 E.02539
;WIDTH:0.559033
G1 X127.615 Y113.095 E.02704
G1 X127.735 Y113.182 E.00751
;WIDTH:0.512689
G1 X127.854 Y113.269 E.00678
;WIDTH:0.466344
G1 X127.974 Y113.355 E.00611
;WIDTH:0.419999
G1 X128.393 Y113.775 E.02181
G1 X128.546 Y114.44 E.02509
G1 X128.548 Y114.959 E.01908
G1 X128.404 Y115.645 E.02577
G1 X128.164 Y116.146 E.02043
G1 X127.762 Y116.673 E.02437
G1 X127.221 Y117.103 E.02541
;WIDTH:0.422132
G1 X126.594 Y117.386 E.02544
;WIDTH:0.469253
G1 X126.427 Y117.398 E.00698
;WIDTH:0.516373
G1 X126.259 Y117.409 E.00781
;WIDTH:0.563493
G1 X125.747 Y117.441 E.02621
;WIDTH:0.534756
G1 X125.403 Y117.461 E.01662
;WIDTH:0.506018
G1 X124.901 Y117.42 E.02284
;WIDTH:0.506312
G1 X124.344 Y117.279 E.02607
G1 X123.849 Y117.027 E.02521
;WIDTH:0.505788
G1 X123.403 Y116.67 E.0259
;WIDTH:0.506149
G1 X123.045 Y116.234 E.02559
G1 X122.789 Y115.75 E.02484
;WIDTH:0.511679
G1 X122.636 Y115.26 E.02357
G1 X122.584 Y114.713 E.02523
;WIDTH:0.521258
G1 X122.62 Y114.198 E.0242
G1 X122.59 Y114.142 E.00298
;WIDTH:0.487505
G1 X122.559 Y114.087 E.00275
;WIDTH:0.453752
G1 X122.534 Y114.041 E.0021
M204 P1000
G1 E-1 F2100
G1 Z.44 F720
G1 X119.645 Y113.058 F10800
G1 Z.24 F720
G1 E1 F2100
M204 P400
;TYPE:Solid infill
;WIDTH:0.425103
G1 F720
G1 X119.054 Y112.468 E.03113
G1 X119.054 Y111.939 E.01972
G1 X120.008 Y112.893 E.05029
G1 X120.537 Y112.894 E.01972
G1 X119.054 Y111.411 E.07818
G1 X119.054 Y110.883 E.01968
G1 X121.066 Y112.895 E.10607
G1 X121.595 Y112.895 E.01972
G1 X119.054 Y110.354 E.13396
G1 X119.054 Y109.826 E.01968
G1 X122.124 Y112.896 E.16185
G1 X122.566 Y112.916 E.01649
G1 X122.612 Y112.856 E.00282
G1 X119.054 Y109.297 E.1876
G1 X119.054 Y108.769 E.01968
G1 X122.84 Y112.555 E.19959
G1 X123.101 Y112.288 E.01392
G1 X119.054 Y108.241 E.21335
G1 X119.054 Y107.712 E.01972
G1 X123.39 Y112.048 E.22859
G1 X123.715 Y111.845 E.01428
G1 X119.054 Y107.184 E.24572
G1 X119.054 Y106.656 E.01968
G1 X124.067 Y111.669 E.26428
G1 X124.463 Y111.537 E.01556
M73 P7 R12
G1 X119.054 Y106.127 E.28518
G1 X119.054 Y105.599 E.01968
G1 X124.012 Y110.558 E.26141
G1 X124 Y110.017 E.02017
G1 X119.054 Y105.071 E.26075
G1 X119.054 Y104.542 E.01972
G1 X124 Y109.488 E.26075
G1 X123.999 Y108.96 E.01968
G1 X119.054 Y104.014 E.26072
G1 X119.054 Y103.486 E.01968
G1 X123.999 Y108.431 E.26069
G1 X123.999 Y107.902 E.01972
G1 X119.054 Y102.957 E.26069
G1 X119.054 Y102.429 E.01968
G1 X123.999 Y107.374 E.26069
G1 X123.998 Y106.845 E.01972
G1 X119.054 Y101.901 E.26064
G1 X119.054 Y101.372 E.01972
G1 X123.998 Y106.317 E.26067
G1 X123.998 Y105.788 E.01972
G1 X119.054 Y100.844 E.26064
G1 X119.054 Y100.316 E.01968
G1 X123.997 Y105.259 E.26059
G1 X123.997 Y104.731 E.01968
M73 P8 R12
G1 X119.054 Y99.787 E.26062
G1 X119.054 Y99.259 E.01968
G1 X123.997 Y104.202 E.26059
G1 X123.997 Y103.673 E.01972
G1 X119.054 Y98.73 E.26059
G1 X119.054 Y98.202 E.01968
G1 X123.996 Y103.145 E.26056
G1 X123.996 Y102.616 E.01972
G1 X119.054 Y97.674 E.26054
G1 X119.054 Y97.145 E.01972
G1 X123.996 Y102.088 E.26056
G1 X123.995 Y101.559 E.01972
G1 X119.089 Y96.652 E.25867
G1 X119.353 Y96.388 E.01392
G1 X123.995 Y101.03 E.24472
G1 X123.995 Y100.502 E.01968
G1 X119.617 Y96.124 E.2308
G1 X119.881 Y95.86 E.01392
G1 X123.995 Y99.973 E.21686
G1 X123.994 Y99.444 E.01972
G1 X120.146 Y95.596 E.20286
G1 X120.41 Y95.331 E.01394
G1 X124.057 Y98.978 E.19227
G1 X124.1 Y98.843 E.00528
G1 X124.228 Y98.621 E.00955
G1 X120.674 Y95.067 E.18736
G1 X120.938 Y94.803 E.01392
G1 X124.493 Y98.358 E.18742
G1 X124.587 Y98.284 E.00446
M73 P9 R12
G1 X124.833 Y98.17 E.01011
G1 X121.202 Y94.539 E.19142
G1 X121.466 Y94.275 E.01392
G1 X125.288 Y98.096 E.20147
G1 X125.816 Y98.096 E.01968
G1 X121.731 Y94.011 E.21536
G1 X121.995 Y93.746 E.01394
G1 X126.345 Y98.096 E.22933
G1 X126.873 Y98.096 E.01968
G1 X122.33 Y93.554 E.23948
G1 X122.859 Y93.554 E.01972
M73 P9 R11
G1 X127.401 Y98.096 E.23945
G1 X127.93 Y98.096 E.01972
G1 X123.387 Y93.554 E.23948
G1 X123.915 Y93.554 E.01968
G1 X128.458 Y98.096 E.23948
G1 X128.566 Y98.096 E.00403
G1 X128.566 Y97.676 E.01566
G1 X124.444 Y93.554 E.21731
G1 X124.972 Y93.554 E.01968
G1 X128.566 Y97.148 E.18947
G1 X128.566 Y96.619 E.01972
G1 X125.5 Y93.554 E.16161
G1 X126.029 Y93.554 E.01972
G1 X128.566 Y96.091 E.13375
G1 X128.566 Y95.563 E.01968
G1 X126.557 Y93.554 E.10591
G1 X127.086 Y93.554 E.01972
G1 X128.566 Y95.034 E.07802
G1 X128.566 Y94.506 E.01968
G1 X127.614 Y93.554 E.05019
G1 X128.142 Y93.554 E.01968
G1 X128.732 Y94.144 E.0311
M204 P1000
;LAYER_CHANGE
;Z:0.48
;HEIGHT:0.24
;BEFORE_LAYER_CHANGE
G92 E0.0
;0.48


;WIPE_START
G1 F8640
G1 X128.142 Y93.554 E-.19266
G1 X127.614 Y93.554 E-.12192
G1 X128.566 Y94.506 E-.31087
G1 X128.566 Y95.034 E-.12192
G1 X127.792 Y94.26 E-.25263
;WIPE_END
G1 Z.48 F720
;AFTER_LAYER_CHANGE
;0.48
G1 Z.68
G1 X124.875 Y98.977 F10800
G1 X124.875 Y110.523
G1 X126.287 Y111.934
G1 X125.769 Y112.452
G1 Z.48 F720
G1 E1 F2100
M204 P400
;TYPE:Perimeter
;WIDTH:0.449999
G1 F1200
G1 X125.82 Y112.456 E.00203
G1 X126.203 Y112.576 E.01596
G1 X126.578 Y112.784 E.01705
;WIDTH:0.431229
G1 X126.964 Y113.111 E.01917
;WIDTH:0.431373
G1 X127.259 Y113.457 E.01723
;WIDTH:0.46918
G1 X127.376 Y113.641 E.00909
;WIDTH:0.506986
G1 X127.494 Y113.825 E.00993
M73 P10 R11
;WIDTH:0.551814
G1 X127.592 Y114.081 E.01368
;WIDTH:0.596641
G1 X127.69 Y114.337 E.01491
;WIDTH:0.601056
G1 X127.716 Y114.847 E.028
G1 X127.626 Y115.351 E.02807
;WIDTH:0.596541
G1 X127.467 Y115.763 E.02402
;WIDTH:0.567767
G1 X127.238 Y116.125 E.02207
;WIDTH:0.548395
G1 X126.861 Y116.501 E.0264
;WIDTH:0.511766
G1 X126.391 Y116.785 E.02522
;WIDTH:0.468396
G1 X126.029 Y116.921 E.01609
;WIDTH:0.42708
G1 X125.725 Y116.964 E.01151
;WIDTH:0.400299
G1 X125.421 Y117.007 E.01069
;WIDTH:0.373518
G1 X124.911 Y116.966 E.01644
;WIDTH:0.370273
G1 X124.423 Y116.823 E.01617
;WIDTH:0.371042
G1 X124.03 Y116.605 E.01433
;WIDTH:0.371178
G1 X123.727 Y116.355 E.01253
;WIDTH:0.380642
G1 X123.424 Y115.985 E.01571
G1 X123.195 Y115.546 E.01626
;WIDTH:0.377046
G1 X123.069 Y115.063 E.01621
G1 X123.049 Y114.867 E.0064
;WIDTH:0.386686
G1 X123.071 Y114.351 E.01727
;WIDTH:0.418343
G1 X123.113 Y114.125 E.00841
;WIDTH:0.449999
G1 X123.155 Y113.899 E.00914
G1 X123.383 Y113.452 E.01995
G1 X123.631 Y113.137 E.01594
G1 X123.954 Y112.853 E.0171
G1 X124.447 Y112.576 E.02248
G1 X124.83 Y112.457 E.01595
G1 X125.257 Y112.406 E.0171
G1 X125.709 Y112.446 E.01804
M204 P1000
G1 X125.694 Y112.838 F10800
M204 P400
;TYPE:External perimeter
G1 F1206.459
G1 X125.71 Y112.84 E.00064
G1 F1210.502
G1 X126.029 Y112.934 E.01322
G1 F1214.599
G1 X126.337 Y113.089 E.01371
G1 F1220.068
G1 X126.711 Y113.39 E.01909
G1 F1225.273
G1 X126.92 Y113.649 E.01323
G1 F1228.636
G1 X127.086 Y113.951 E.0137
G1 X127.224 Y114.412 E.01913
G1 F1225.425
G1 X127.244 Y114.806 E.01569
G1 F1220.475
G1 X127.175 Y115.212 E.01637
G1 F1215.638
G1 X127.069 Y115.538 E.01363
G1 F1211.399
G1 X126.892 Y115.84 E.01392
G1 F1207.179
G1 X126.581 Y116.175 E.01818
G1 F1203.627
G1 X126.197 Y116.426 E.01824
G1 F1201.651
G1 X125.922 Y116.549 E.01198
G1 F1200.435
G1 X125.382 Y116.649 E.02184
G1 X125.009 Y116.623 E.01487
G1 X124.548 Y116.486 E.01912
G1 X124.097 Y116.2 E.02123
G1 X123.772 Y115.86 E.0187
G1 X123.538 Y115.439 E.01915
G1 X123.428 Y115.017 E.01734
G1 X123.403 Y114.821 E.00786
G1 X123.448 Y114.301 E.02075
G1 X123.549 Y113.985 E.01319
G1 X123.702 Y113.691 E.01318
G1 X123.903 Y113.428 E.01316
G1 X124.158 Y113.195 E.01373
G1 X124.573 Y112.953 E.0191
G1 F1201.721
G1 X124.889 Y112.851 E.0132
G1 F1203.416
G1 X125.231 Y112.804 E.01373
G1 F1206.459
G1 X125.634 Y112.834 E.01607
M204 P1000
;WIPE_START
G1 F8640
G1 X125.694 Y112.838 E-.01388
G1 X125.71 Y112.84 E-.00372
G1 X126.029 Y112.934 E-.07679
G1 X126.337 Y113.089 E-.07962
G1 X126.711 Y113.39 E-.11085
G1 X126.92 Y113.649 E-.07685
G1 X127.086 Y113.951 E-.07957
G1 X127.224 Y114.412 E-.11111
G1 X127.244 Y114.806 E-.09109
G1 X127.175 Y115.212 E-.09509
G1 X127.069 Y115.538 E-.07915
G1 X126.892 Y115.84 E-.08083
G1 X126.593 Y116.162 E-.10145
;WIPE_END
G1 Z.68 F720
G1 X126.853 Y116.44 F10800
G1 X126.965 Y116.335
G1 X126.986 Y116.312
G1 X127.098 Y116.188
G1 X127.117 Y116.163
G1 X127.217 Y116.03
G1 X127.234 Y116.004
G1 X127.322 Y115.862
G1 X127.337 Y115.834
G1 X127.413 Y115.686
G1 X127.425 Y115.657
G1 X127.488 Y115.502
G1 X127.497 Y115.472
G1 X127.547 Y115.313
G1 X127.589 Y115.119
G1 X127.615 Y114.923
G1 X127.623 Y114.725
G1 X127.615 Y114.527
G1 X127.589 Y114.331
G1 X127.547 Y114.137
G1 X127.497 Y113.978
G1 X127.488 Y113.948
G1 X127.425 Y113.793
G1 X127.413 Y113.764
G1 X127.337 Y113.616
G1 X127.322 Y113.588
G1 X127.234 Y113.446
G1 X127.217 Y113.42
G1 X127.117 Y113.287
G1 X127.098 Y113.262
G1 X126.986 Y113.138
G1 X126.965 Y113.115
