; generated by PrusaSlicer 2.9.2 on 2025-08-19 at 17:52:42 UTC


;
;
; 

; external perimeters extrusion width = 0.45mm
; perimeters extrusion width = 0.45mm
; infill extrusion width = 0.45mm
; solid infill extrusion width = 0.45mm
; top infill extrusion width = 0.40mm
; first layer extrusion width = 0.42mm

M73 P0 R42
M201 X1000 Y1000 Z200 E8000 ; sets maximum accelerations, mm/sec^2
M203 X12000 Y12000 Z720 E7200 ; sets maximum feedrates, mm / min
M204 P1250 T1500 ; sets acceleration (P, T), mm/sec^2
M566 X480.00 Y480.00 Z24.00 E270.00 ; sets the jerk limits, mm/min

; printing object Blank.stl id:0 copy 0
; stop printing object Blank.stl id:0 copy 0

M190 S85 ; set bed temperature and wait for it to be reached
;TYPE:Custom
; Dusa start code
M118 S"Running Start Code - Dual Extruder Mode"
T1			; select T1 so it can become standby, (cura puts a T0 in its preface)
G29 S1 ; load default mesh bed compensation
M280 P0 S90 ; retract the BLtouch
; Sets both active and standby to the same value
M109 T0 S260
M109 T1 S260
T0			; activate tool0
G92 E0			; zero current extruder position
G1 X20.0 Y2.0 Z1.2 		; move onto buildplate
G1 Z0.2 F1000 		; lower to 0.2 mm height, 0.1125 mmE per mmX
G1 X80 Y2.0 E10.0 F500 	; 60 mmX at extra rate
G1 X140 Y2.0 E16.75 F500 	; 60 mmX at std rate
G1 Z5.0 F6000 		; raise Z to 5
G92 E0			; rezero extruder
T1		; activate tool1
G92 E0		; zero current extruder position
G1 X160 Y5.0 Z1.2 	; move onto buildplate
G1 Z0.2 F1000 	; lower to 0.2 mm height
G1 X100 Y5.0 E10.0 F500 	; 60 mmX at extra rate
G1 X40 Y5.0 E16.75 F500 	; 60 mmX at std rate
G1 Z5.0 F6000 		; raise Z to 5
M73 P1 R42
G92 E0			; rezero extruder
T0			; select the first extruder that will be used
M118 S"Finished Start Code"
G21 ; set units to millimeters
G90 ; use absolute coordinates
M83 ; use relative distances for extrusion

M900 K0.08 ; Filament gcode LA 1.5
M900 K45 ; Filament gcode LA 1.0




M107
;LAYER_CHANGE
;Z:0.24
;HEIGHT:0.24
G1 E-1 F2100
G1 Z.44 F720
; printing object Blank.stl id:0 copy 0
G1 X138.095 Y117.974 F10800
G1 Z.24 F720
M73 P1 R41
G1 E1 F2100
M204 P400
;TYPE:External perimeter
;WIDTH:0.419999
G1 F720
G1 X138.502 Y117.64 E.01936
G1 X138.969 Y117.365 E.01993
G1 X139.473 Y117.166 E.01992
G1 X140.001 Y117.047 E.0199
G1 X140.542 Y117.011 E.01994
G1 X141.082 Y117.059 E.01993
G1 X141.608 Y117.191 E.01994
G1 X142.107 Y117.402 E.01992
G1 X142.567 Y117.688 E.01992
G1 X142.978 Y118.042 E.01994
G1 X143.328 Y118.455 E.0199
G1 X143.611 Y118.918 E.01995
G1 X143.818 Y119.419 E.01993
;WIDTH:0.453907
G1 X143.877 Y119.591 E.0073
;WIDTH:0.487815
G1 X143.936 Y119.762 E.00788
;WIDTH:0.521723
G1 X143.995 Y119.934 E.00853
G1 X144.028 Y120.483 E.0258
;WIDTH:0.51606
G1 X143.998 Y121.03 E.02539
G1 X143.913 Y121.292 E.01277
;WIDTH:0.46803
G1 X143.827 Y121.554 E.01146
;WIDTH:0.419999
G1 X143.624 Y122.056 E.01991
;WIDTH:0.450427
G1 X143.358 Y122.529 E.0216
G1 X143.001 Y122.94 E.02167
;WIDTH:0.446044
G1 X142.599 Y123.305 E.02138
G1 X142.132 Y123.584 E.02142
;WIDTH:0.419999
G1 X141.635 Y123.8 E.01993
;WIDTH:0.467138
G1 X141.378 Y123.891 E.01131
;WIDTH:0.514277
G1 X141.122 Y123.981 E.01253
G1 X140.574 Y124.027 E.02539
;WIDTH:0.512336
G1 X140.027 Y124.003 E.02518
G1 X139.764 Y123.923 E.01264
;WIDTH:0.466168
G1 X139.5 Y123.843 E.01141
;WIDTH:0.419999
G1 X138.994 Y123.647 E.01995
G1 X138.525 Y123.376 E.01992
G1 X138.104 Y123.036 E.0199
G1 X137.74 Y122.634 E.01994
G1 X137.444 Y122.181 E.0199
G1 X137.22 Y121.687 E.01994
G1 X137.076 Y121.165 E.01991
G1 X137.014 Y120.407 E.02796
G1 X137.071 Y119.863 E.02011
G1 X137.211 Y119.34 E.01991
G1 X137.43 Y118.844 E.01994
G1 X137.723 Y118.389 E.0199
G1 X138.054 Y118.017 E.01831
M204 P1000
G1 E-1 F2100
G1 Z.44 F720
G1 X140.016 Y92.955 F10800
G1 Z.24 F720
G1 E1 F2100
M204 P400
G1 F720
G1 X139.5 Y92.843 E.01941
G1 X138.994 Y92.647 E.01995
G1 X138.525 Y92.376 E.01992
G1 X138.105 Y92.036 E.01987
G1 X137.74 Y91.634 E.01996
G1 X137.444 Y91.181 E.0199
G1 X137.22 Y90.687 E.01994
G1 X137.076 Y90.165 E.01991
G1 X137.014 Y89.407 E.02796
G1 X137.071 Y88.863 E.02011
G1 X137.211 Y88.34 E.01991
G1 X137.43 Y87.844 E.01994
G1 X137.723 Y87.389 E.0199
G1 X138.084 Y86.984 E.01995
G1 X138.502 Y86.64 E.0199
G1 X138.969 Y86.365 E.01993
G1 X139.473 Y86.166 E.01992
;WIDTH:0.464946
G1 X139.732 Y86.084 E.01121
;WIDTH:0.509892
G1 X139.991 Y86.003 E.01241
G1 X140.54 Y85.973 E.02515
;WIDTH:0.520364
G1 X141.087 Y86.009 E.02565
G1 X141.26 Y86.07 E.00858
;WIDTH:0.486909
G1 X141.433 Y86.13 E.00796
;WIDTH:0.453454
G1 X141.606 Y86.191 E.00736
;WIDTH:0.419999
G1 X142.107 Y86.402 E.01999
;WIDTH:0.447069
G1 X142.574 Y86.677 E.02139
G1 X142.98 Y87.039 E.02147
;WIDTH:0.450372
G1 X143.34 Y87.446 E.02163
G1 X143.611 Y87.918 E.02166
;WIDTH:0.419999
G1 X143.803 Y88.381 E.01843
;WIDTH:0.453907
G1 X143.867 Y88.566 E.00786
;WIDTH:0.487815
G1 X143.931 Y88.75 E.00848
;WIDTH:0.521723
G1 X143.995 Y88.934 E.00914
G1 X144.028 Y89.483 E.0258
;WIDTH:0.51606
G1 X143.998 Y90.03 E.02539
G1 X143.913 Y90.292 E.01277
;WIDTH:0.46803
G1 X143.827 Y90.554 E.01146
;WIDTH:0.419999
G1 X143.624 Y91.056 E.01991
G1 X143.345 Y91.521 E.01994
G1 X142.998 Y91.937 E.01992
G1 X142.59 Y92.295 E.01996
G1 X142.132 Y92.584 E.01991
G1 X141.635 Y92.8 E.01993
G1 X141.11 Y92.936 E.01994
G1 X140.571 Y92.989 E.01991
G1 X140.076 Y92.96 E.01823
M204 P1000
G1 E-1 F2100
G1 Z.44 F720
G1 X112.947 Y90.041 F10800
G1 Z.24 F720
G1 E1 F2100
M204 P400
G1 F720
G1 X112.827 Y90.554 E.01937
G1 X112.624 Y91.056 E.01991
G1 X112.345 Y91.521 E.01994
G1 X111.998 Y91.937 E.01992
G1 X111.59 Y92.295 E.01996
G1 X111.132 Y92.584 E.01991
G1 X110.635 Y92.8 E.01993
G1 X110.11 Y92.936 E.01994
G1 X109.571 Y92.989 E.01991
G1 X109.03 Y92.957 E.01993
G1 X108.5 Y92.843 E.01993
G1 X107.994 Y92.647 E.01995
G1 X107.525 Y92.376 E.01992
G1 X107.104 Y92.036 E.0199
G1 X106.74 Y91.634 E.01994
G1 X106.444 Y91.181 E.0199
G1 X106.22 Y90.687 E.01994
;WIDTH:0.468597
G1 X106.125 Y90.432 E.01133
;WIDTH:0.517194
G1 X106.029 Y90.178 E.01262
G1 X105.975 Y89.41 E.03577
;WIDTH:0.527083
G1 X106.018 Y88.857 E.02632
G1 X106.082 Y88.685 E.00871
;WIDTH:0.491389
G1 X106.146 Y88.512 E.0081
;WIDTH:0.455694
G1 X106.211 Y88.34 E.00742
;WIDTH:0.419999
G1 X106.43 Y87.844 E.01994
;WIDTH:0.444665
G1 X106.713 Y87.382 E.02125
G1 X107.08 Y86.981 E.02132
;WIDTH:0.45583
G1 X107.491 Y86.626 E.02191
G1 X107.969 Y86.365 E.02197
;WIDTH:0.419999
G1 X108.473 Y86.166 E.01992
;WIDTH:0.465259
G1 X108.732 Y86.084 E.01122
;WIDTH:0.510519
G1 X108.991 Y86.002 E.01244
G1 X109.54 Y85.973 E.02518
;WIDTH:0.52103
G1 X110.087 Y86.009 E.02568
G1 X110.26 Y86.07 E.00859
;WIDTH:0.487353
G1 X110.434 Y86.13 E.008
;WIDTH:0.453676
G1 X110.608 Y86.191 E.0074
;WIDTH:0.419999
G1 X111.107 Y86.402 E.01992
G1 X111.567 Y86.688 E.01992
G1 X111.978 Y87.042 E.01994
G1 X112.328 Y87.455 E.0199
G1 X112.611 Y87.918 E.01995
G1 X112.818 Y88.419 E.01993
G1 X112.946 Y88.946 E.01994
G1 X112.99 Y89.486 E.01992
G1 X112.954 Y89.981 E.01825
M204 P1000
G1 E-1 F2100
G1 Z.44 F720
G1 X113.096 Y89.992 F10800
G1 X113.116 Y89.738
G1 X113.134 Y89.5
G1 X113.116 Y89.262
G1 X113.091 Y88.938
G1 X113.036 Y88.705
G1 X112.96 Y88.389
G1 X112.871 Y88.167
G1 X112.746 Y87.867
G1 X112.624 Y87.661
G1 X112.454 Y87.384
G1 X112.302 Y87.199
G1 X112.091 Y86.952
G1 X111.912 Y86.793
G1 X111.665 Y86.582
G1 X111.464 Y86.451
G1 X111.187 Y86.282
G1 X110.969 Y86.184
G1 X110.669 Y86.059
G1 X110.438 Y85.996
G1 X110.122 Y85.92
G1 X109.883 Y85.902
G1 X109.56 Y85.888
G1 X109.322 Y85.893
G1 X108.998 Y85.908
G1 X108.762 Y85.948
G1 X108.446 Y86.023
G1 X108.221 Y86.104
G1 X108.155 Y86.132
G1 X108.075 Y85.944
G1 Z.24 F720
G1 E1 F2100
M204 P400
;TYPE:Perimeter
;WIDTH:0.415398
G1 F720
G1 X108.244 Y85.862 E.00682
M204 P1000
G1 E-1 F2100
G1 Z.44 F720
G1 X105.846 Y88.322 F10800
G1 Z.24 F720
G1 E1 F2100
M204 P400
;WIDTH:0.407618
G1 F720
G1 X105.9 Y88.142 E.00668
M204 P1000
G1 E-1 F2100
G1 Z.44 F720
G1 X105.725 Y88.008 F10800
G1 X108.266 Y124.367
G1 X142.034 Y124.243
G1 X142.072 Y124.205
G1 X141.925 Y124.058
G1 Z.24 F720
G1 E1 F2100
M204 P400
;WIDTH:0.40853
G1 F720
G1 X141.765 Y124.139 E.00639
M204 P1000
G1 E-1 F2100
G1 Z.44 F720
G1 X144.157 Y121.68 F10800
G1 Z.24 F720
G1 E1 F2100
M204 P400
;WIDTH:0.411358
G1 F720
G1 X144.102 Y121.85 E.00642
M204 P1000
G1 E-1 F2100
G1 Z.44 F720
G1 X144.057 Y88.074 F10800
G1 Z.24 F720
G1 E1 F2100
M204 P400
;WIDTH:0.411416
G1 F720
G1 X144.14 Y88.243 E.00676
M204 P1000
G1 E-1 F2100
G1 Z.44 F720
G1 X141.694 Y85.846 F10800
G1 Z.24 F720
G1 E1 F2100
M204 P400
;WIDTH:0.409848
G1 F720
G1 X141.856 Y85.899 E.00609
M204 P1000
G1 E-1 F2100
G1 Z.44 F720
G1 X141.772 Y86.102 F10800
G1 X141.669 Y86.059
G1 X141.438 Y85.996
G1 X141.122 Y85.92
G1 X140.883 Y85.902
G1 X140.56 Y85.888
G1 X140.322 Y85.893
G1 X139.998 Y85.908
G1 X139.762 Y85.948
G1 X139.446 Y86.023
G1 X139.221 Y86.104
G1 X138.921 Y86.229
G1 X138.71 Y86.343
G1 X138.433 Y86.513
G1 X138.243 Y86.658
G1 X137.996 Y86.869
G1 X137.83 Y87.041
G1 X137.619 Y87.288
G1 X137.481 Y87.484
G1 X137.409 Y87.603
G1 X136.911 Y87.298
G1 Z.24 F720
G1 E1 F2100
M204 P400
;WIDTH:0.419999
G1 F720
G1 X136.757 Y87.543 E.01064
G1 X136.499 Y88.147 E.02415
G1 X136.338 Y88.783 E.02412
G1 X136.28 Y89.464 E.02513
G1 X136.365 Y90.358 E.03302
G1 X136.547 Y90.988 E.02411
G1 X136.826 Y91.583 E.02416
G1 X137.192 Y92.126 E.02408
G1 X137.639 Y92.607 E.02414
G1 X138.154 Y93.013 E.02411
G1 X138.726 Y93.334 E.02412
G1 X139.341 Y93.562 E.02412
G1 X139.984 Y93.693 E.02413
G1 X140.64 Y93.722 E.02414
G1 X141.292 Y93.65 E.02412
G1 X141.925 Y93.477 E.02413
G1 X142.524 Y93.209 E.02413
G1 X143.074 Y92.851 E.02413
G1 X143.461 Y92.514 E.01887
G1 X143.773 Y92.161 E.01732
G1 X143.773 Y117.839 E.94414
G1 X143.461 Y117.486 E.01732
G1 X142.959 Y117.064 E.02411
G1 X142.397 Y116.725 E.02413
G1 X141.789 Y116.477 E.02414
G1 X141.151 Y116.326 E.02411
G1 X140.497 Y116.275 E.02412
G1 X139.842 Y116.327 E.02416
G1 X139.204 Y116.479 E.02411
G1 X138.597 Y116.729 E.02414
G1 X138.036 Y117.069 E.02412
G1 X137.535 Y117.491 E.02409
G1 X137.105 Y117.988 E.02416
G1 X136.757 Y118.543 E.02409
G1 X136.499 Y119.147 E.02415
G1 X136.338 Y119.783 E.02412
G1 X136.28 Y120.464 E.02513
G1 X136.365 Y121.358 E.03302
G1 X136.547 Y121.988 E.02411
G1 X136.826 Y122.583 E.02416
G1 X137.192 Y123.126 E.02408
G1 X137.535 Y123.508 E.01888
G1 X137.842 Y123.773 E.01491
G1 X108.324 Y123.761 E1.08533
G1 X106.227 Y121.646 E.10951
G1 X106.227 Y92.165 E1.08397
G1 X106.638 Y92.607 E.02219
M73 P2 R41
G1 X107.154 Y93.013 E.02414
G1 X107.726 Y93.334 E.02412
G1 X108.341 Y93.562 E.02412
G1 X108.984 Y93.693 E.02413
G1 X109.64 Y93.722 E.02414
G1 X110.292 Y93.65 E.02412
G1 X110.925 Y93.477 E.02413
G1 X111.524 Y93.209 E.02413
G1 X112.074 Y92.851 E.02413
G1 X112.561 Y92.412 E.02411
G1 X112.976 Y91.903 E.02415
G1 X113.306 Y91.336 E.02412
G1 X113.544 Y90.724 E.02414
G1 X113.685 Y90.083 E.02413
G1 X113.725 Y89.428 E.02413
G1 X113.663 Y88.775 E.02412
G1 X113.5 Y88.14 E.0241
G1 X113.241 Y87.536 E.02416
G1 X112.892 Y86.981 E.02411
G1 X112.561 Y86.588 E.01889
G1 X112.163 Y86.227 E.01976
G1 X137.841 Y86.228 E.94414
G1 X137.535 Y86.491 E.01484
G1 X137.105 Y86.988 E.02416
G1 X136.943 Y87.247 E.01123
M204 P1000
G1 E-1 F2100
G1 Z.44 F720
G1 X139.243 Y85.86 F10800
G1 Z.24 F720
G1 E1 F2100
M204 P400
G1 F720
G1 X138.783 Y86.047 E.01826
G1 X138.269 Y86.354 E.02201
G1 X137.809 Y86.738 E.02203
G1 X137.414 Y87.188 E.02202
G1 X137.093 Y87.694 E.02203
G1 X136.855 Y88.243 E.022
G1 X136.705 Y88.823 E.02203
G1 X136.647 Y89.435 E.0226
G1 X136.721 Y90.262 E.03053
G1 X136.884 Y90.837 E.02198
G1 X137.135 Y91.382 E.02206
G1 X137.466 Y91.88 E.02199
G1 X137.872 Y92.322 E.02207
G1 X138.34 Y92.694 E.02198
G1 X138.86 Y92.99 E.022
G1 X139.421 Y93.203 E.02206
G1 X140.007 Y93.325 E.02201
G1 X140.605 Y93.356 E.02202
G1 X141.201 Y93.293 E.02204
G1 X141.78 Y93.139 E.02203
G1 X142.328 Y92.897 E.02203
G1 X142.832 Y92.573 E.02203
G1 X143.28 Y92.175 E.02203
G1 X143.66 Y91.712 E.02202
G1 X143.926 Y91.273 E.01887
G1 X144.142 Y90.764 E.02033
G1 X144.142 Y119.236 E1.04687
G1 X143.926 Y118.727 E.02033
G1 X143.61 Y118.218 E.02203
G1 X143.219 Y117.764 E.02203
G1 X142.763 Y117.376 E.02201
G1 X142.252 Y117.063 E.02203
G1 X141.699 Y116.834 E.02201
G1 X141.116 Y116.693 E.02205
G1 X140.52 Y116.643 E.02199
G1 X139.922 Y116.687 E.02205
G1 X139.338 Y116.822 E.02204
G1 X138.783 Y117.047 E.02202
G1 X138.269 Y117.355 E.02203
G1 X137.809 Y117.738 E.02201
G1 X137.414 Y118.188 E.02202
G1 X137.093 Y118.694 E.02203
G1 X136.855 Y119.243 E.022
G1 X136.705 Y119.823 E.02203
G1 X136.647 Y120.435 E.0226
G1 X136.721 Y121.262 E.03053
G1 X136.884 Y121.837 E.02198
G1 X137.135 Y122.382 E.02206
G1 X137.466 Y122.88 E.02199
G1 X137.871 Y123.321 E.02202
G1 X138.34 Y123.694 E.02203
G1 X138.783 Y123.953 E.01887
G1 X139.246 Y124.142 E.01839
G1 X108.323 Y124.142 E1.13699
G1 X108.11 Y124.068 E.00829
G1 X105.957 Y121.915 E.11195
G1 X105.858 Y121.712 E.0083
G1 X105.858 Y90.766 E1.13784
G1 X106.135 Y91.382 E.02483
G1 X106.466 Y91.88 E.02199
G1 X106.871 Y92.321 E.02202
G1 X107.34 Y92.694 E.02203
G1 X107.86 Y92.99 E.022
G1 X108.421 Y93.203 E.02206
G1 X109.007 Y93.325 E.02201
G1 X109.605 Y93.356 E.02202
G1 X110.201 Y93.293 E.02204
G1 X110.78 Y93.139 E.02203
G1 X111.328 Y92.897 E.02203
G1 X111.832 Y92.573 E.02203
G1 X112.28 Y92.175 E.02203
G1 X112.66 Y91.712 E.02202
G1 X112.965 Y91.196 E.02204
G1 X113.186 Y90.639 E.02203
G1 X113.318 Y90.055 E.02201
G1 X113.357 Y89.457 E.02203
G1 X113.304 Y88.86 E.02204
G1 X113.159 Y88.279 E.02202
G1 X112.926 Y87.727 E.02203
G1 X112.61 Y87.218 E.02203
G1 X112.219 Y86.764 E.02203
G1 X111.763 Y86.376 E.02201
G1 X111.252 Y86.063 E.02203
G1 X110.78 Y85.86 E.01889
G1 X139.183 Y85.86 E1.04434
M204 P1000
G1 E-1 F2100
G1 Z.44 F720
G1 X141.76 Y85.498 F10800
G1 Z.24 F720
G1 E1 F2100
M204 P400
;TYPE:External perimeter
G1 F720
G1 X142.078 Y85.611 E.01241
G1 X142.47 Y85.991 E.02007
;WIDTH:0.446037
G1 X143.278 Y86.805 E.04515
;WIDTH:0.455487
G1 X143.676 Y87.222 E.02324
G1 X144.305 Y87.826 E.03515
;WIDTH:0.419999
G1 X144.455 Y88.06 E.01022
G1 X144.51 Y88.287 E.00859
G1 X144.51 Y88.366 E.0029
;WIDTH:0.46803
G1 X144.486 Y88.659 E.01222
;WIDTH:0.51606
G1 X144.462 Y88.952 E.01363
G1 X144.472 Y89.535 E.02703
;WIDTH:0.511935
G1 X144.464 Y90.12 E.02688
G1 X144.487 Y90.377 E.01185
;WIDTH:0.465967
G1 X144.51 Y90.634 E.01067
;WIDTH:0.419999
G1 X144.51 Y119.366 E1.05643
;WIDTH:0.46803
G1 X144.486 Y119.659 E.01222
;WIDTH:0.51606
G1 X144.462 Y119.952 E.01363
G1 X144.472 Y120.535 E.02703
;WIDTH:0.511935
G1 X144.464 Y121.12 E.02688
G1 X144.487 Y121.377 E.01185
;WIDTH:0.465967
G1 X144.51 Y121.634 E.01067
;WIDTH:0.419999
G1 X144.437 Y122.009 E.01405
G1 X144.051 Y122.427 E.02092
;WIDTH:0.450373
G1 X143.634 Y122.824 E.02291
G1 X143.237 Y123.236 E.02277
;WIDTH:0.450606
G1 X142.822 Y123.635 E.02293
G1 X142.173 Y124.306 E.03717
;WIDTH:0.419999
G1 X141.949 Y124.451 E.00981
G1 X141.695 Y124.51 E.00959
;WIDTH:0.453691
G1 X141.5 Y124.493 E.00786
;WIDTH:0.487382
G1 X141.304 Y124.476 E.00856
;WIDTH:0.521073
G1 X141.109 Y124.459 E.00917
G1 X140.526 Y124.472 E.02732
;WIDTH:0.517373
G1 X139.941 Y124.461 E.0272
G1 X139.684 Y124.486 E.012
;WIDTH:0.468686
G1 X139.428 Y124.51 E.0107
;WIDTH:0.419999
G1 X108.387 Y124.51 E1.14133
G1 X108.082 Y124.459 E.01137
G1 X107.867 Y124.345 E.00895
G1 X105.742 Y122.22 E.1105
G1 X105.562 Y121.969 E.01136
G1 X105.49 Y121.736 E.00897
G1 X105.49 Y90.756 E1.13909
;WIDTH:0.455455
G1 X105.508 Y90.555 E.00813
M73 P3 R41
;WIDTH:0.49091
G1 X105.525 Y90.354 E.00884
;WIDTH:0.526365
G1 X105.543 Y90.153 E.00956
G1 X105.529 Y89.344 E.03834
;WIDTH:0.527083
G1 X105.544 Y88.831 E.02435
G1 X105.526 Y88.661 E.00811
;WIDTH:0.491389
G1 X105.508 Y88.492 E.00746
;WIDTH:0.455694
G1 X105.49 Y88.322 E.00689
;WIDTH:0.419999
G1 X105.543 Y88.074 E.00932
G1 X105.655 Y87.867 E.00865
G1 X106.034 Y87.487 E.01973
;WIDTH:0.442891
G1 X106.848 Y86.68 E.04476
;WIDTH:0.450141
G1 X107.826 Y85.695 E.05521
;WIDTH:0.419999
G1 X108.124 Y85.508 E.01294
G1 X108.427 Y85.49 E.01116
;WIDTH:0.46617
G1 X108.72 Y85.513 E.01216
;WIDTH:0.51234
G1 X109.012 Y85.536 E.01347
G1 X109.595 Y85.529 E.02681
;WIDTH:0.527348
G1 X110.182 Y85.544 E.02788
G1 X110.353 Y85.526 E.00816
;WIDTH:0.491565
