; generated by PrusaSlicer 2.9.2 on 2025-08-18 at 19:09:04 UTC


;
;
; 

; external perimeters extrusion width = 0.45mm
; perimeters extrusion width = 0.45mm
; infill extrusion width = 0.45mm
; solid infill extrusion width = 0.45mm
; top infill extrusion width = 0.40mm
; first layer extrusion width = 0.42mm

; external perimeters extrusion width = 0.45mm
; perimeters extrusion width = 0.45mm
; infill extrusion width = 0.45mm
; solid infill extrusion width = 0.45mm
; top infill extrusion width = 0.40mm
; first layer extrusion width = 0.42mm

; external perimeters extrusion width = 0.45mm
; perimeters extrusion width = 0.45mm
; infill extrusion width = 0.45mm
; solid infill extrusion width = 0.45mm
; top infill extrusion width = 0.40mm
; first layer extrusion width = 0.42mm

; external perimeters extrusion width = 0.45mm
; perimeters extrusion width = 0.45mm
; infill extrusion width = 0.45mm
; solid infill extrusion width = 0.45mm
; top infill extrusion width = 0.40mm
; first layer extrusion width = 0.42mm

; external perimeters extrusion width = 0.45mm
; perimeters extrusion width = 0.45mm
; infill extrusion width = 0.45mm
; solid infill extrusion width = 0.45mm
; top infill extrusion width = 0.40mm
; first layer extrusion width = 0.42mm

; external perimeters extrusion width = 0.45mm
; perimeters extrusion width = 0.45mm
; infill extrusion width = 0.45mm
; solid infill extrusion width = 0.45mm
; top infill extrusion width = 0.40mm
; first layer extrusion width = 0.42mm

M73 P0 R80
M201 X1000 Y1000 Z200 E8000 ; sets maximum accelerations, mm/sec^2
M203 X12000 Y12000 Z720 E7200 ; sets maximum feedrates, mm / min
M204 P1250 T1500 ; sets acceleration (P, T), mm/sec^2
M566 X480.00 Y480.00 Z24.00 E270.00 ; sets the jerk limits, mm/min

; printing object idler-lever-A-R2.stl id:5 copy 0
; stop printing object idler-lever-A-R2.stl id:5 copy 0
; printing object swivel-B-R2.stl id:2 copy 0
; stop printing object swivel-B-R2.stl id:2 copy 0
; printing object screw-guide-R2.stl id:0 copy 0
; stop printing object screw-guide-R2.stl id:0 copy 0
; printing object swivel-A-R2.stl id:3 copy 0
; stop printing object swivel-A-R2.stl id:3 copy 0
; printing object idler-lever-B-R2.stl id:4 copy 0
; stop printing object idler-lever-B-R2.stl id:4 copy 0
; printing object main-plate-R2.stl id:1 copy 0
; stop printing object main-plate-R2.stl id:1 copy 0

M190 S70 ; set bed temperature and wait for it to be reached
;TYPE:Custom
; Dusa start code
M118 S"Running Start Code - Dual Extruder Mode"
T1			; select T1 so it can become standby, (cura puts a T0 in its preface)
G29 S1 ; load default mesh bed compensation
M280 P0 S90 ; retract the BLtouch
; Sets both active and standby to the same value
M109 T0 S260
M109 T1 S230
T0			; activate tool0
G92 E0			; zero current extruder position
G1 X20.0 Y2.0 Z1.2 		; move onto buildplate
G1 Z0.2 F1000 		; lower to 0.2 mm height, 0.1125 mmE per mmX
G1 X80 Y2.0 E10.0 F500 	; 60 mmX at extra rate
G1 X140 Y2.0 E16.75 F500 	; 60 mmX at std rate
M73 P0 R79
G1 Z5.0 F6000 		; raise Z to 5
G92 E0			; rezero extruder
T1		; activate tool1
G92 E0		; zero current extruder position
G1 X160 Y5.0 Z1.2 	; move onto buildplate
G1 Z0.2 F1000 	; lower to 0.2 mm height
G1 X100 Y5.0 E10.0 F500 	; 60 mmX at extra rate
G1 X40 Y5.0 E16.75 F500 	; 60 mmX at std rate
G1 Z5.0 F6000 		; raise Z to 5
G92 E0			; rezero extruder
T0			; select the first extruder that will be used
M118 S"Finished Start Code"
G21 ; set units to millimeters
G90 ; use absolute coordinates
M83 ; use relative distances for extrusion

M900 K0.08 ; Filament gcode LA 1.5
M900 K45 ; Filament gcode LA 1.0




M107
;LAYER_CHANGE
;Z:0.24
;HEIGHT:0.24
G1 E-1 F2100
G1 Z.44 F720
; printing object swivel-A-R2.stl id:3 copy 0
G1 X164.067 Y104.722 F10800
G1 Z.24 F720
G1 E1 F2100
M204 P400
;TYPE:External perimeter
;WIDTH:0.419999
G1 F720
G1 X164.096 Y105.02 E.01101
G1 X164.045 Y105.469 E.01662
G1 X163.916 Y105.872 E.01556
G1 X163.694 Y106.267 E.01666
G1 X163.423 Y106.584 E.01533
G1 X163.148 Y106.808 E.01304
G1 X162.751 Y107.027 E.01667
G1 X162.348 Y107.152 E.01551
G1 X161.896 Y107.199 E.01671
G1 X161.478 Y107.158 E.01544
G1 X161.041 Y107.026 E.01678
G1 X160.646 Y106.807 E.01661
G1 X160.322 Y106.535 E.01555
G1 X160.042 Y106.18 E.01662
G1 X159.833 Y105.749 E.01761
G1 X159.741 Y105.403 E.01316
G1 X159.698 Y105.017 E.01428
G1 X159.735 Y104.598 E.01547
G1 X159.864 Y104.162 E.01672
G1 X160.061 Y103.79 E.01548
G1 X160.349 Y103.438 E.01672
G1 X160.646 Y103.193 E.01416
G1 X161.072 Y102.961 E.01784
G1 X161.412 Y102.855 E.01309
G1 X161.862 Y102.802 E.01666
G1 X162.282 Y102.835 E.01549
G1 X162.718 Y102.96 E.01668
G1 X163.092 Y103.154 E.01549
G1 X163.446 Y103.439 E.01671
G1 X163.715 Y103.763 E.01548
G1 X163.931 Y104.163 E.01671
G1 X164.052 Y104.566 E.01547
G1 X164.061 Y104.662 E.00355
M204 P1000
G1 E-1 F2100
G1 Z.44 F720
G1 X164.212 Y104.644 F10800
G1 X164.211 Y104.628
G1 X164.189 Y104.52
G1 X164.173 Y104.445
G1 X164.144 Y104.339
G1 X164.122 Y104.265
G1 X164.084 Y104.162
G1 X164.056 Y104.09
G1 X164.01 Y103.991
G1 X163.977 Y103.921
G1 X163.923 Y103.825
G1 X163.884 Y103.759
G1 X163.823 Y103.668
G1 X163.779 Y103.604
G1 X163.711 Y103.518
G1 X163.662 Y103.459
G1 X163.587 Y103.378
G1 X163.533 Y103.323
G1 X163.453 Y103.249
G1 X163.394 Y103.198
G1 X163.308 Y103.13
G1 X163.246 Y103.085
G1 X163.155 Y103.024
G1 X163.089 Y102.983
G1 X162.993 Y102.93
G1 X162.924 Y102.895
G1 X162.825 Y102.849
G1 X162.753 Y102.82
G1 X162.65 Y102.782
G1 X162.577 Y102.758
G1 X162.471 Y102.729
G1 X162.396 Y102.711
G1 X162.288 Y102.69
G1 X162.212 Y102.679
G1 X162.103 Y102.666
G1 X162.026 Y102.661
G1 X161.916 Y102.657
G1 X161.839 Y102.659
G1 X161.729 Y102.663
G1 X161.653 Y102.671
G1 X161.544 Y102.684
G1 X161.468 Y102.698
G1 X161.36 Y102.719
G1 X161.286 Y102.739
G1 X161.18 Y102.769
G1 X161.107 Y102.796
G1 X161.004 Y102.833
G1 X160.934 Y102.866
G1 X160.835 Y102.911
G1 X160.672 Y103.002
G1 X160.581 Y103.063
G1 X160.517 Y103.106
G1 X160.431 Y103.174
G1 X160.37 Y103.222
G1 X160.29 Y103.297
G1 X160.234 Y103.35
G1 X160.159 Y103.43
G1 X160.107 Y103.488
G1 X160.039 Y103.574
G1 X159.993 Y103.635
G1 X159.932 Y103.726
G1 X159.89 Y103.791
G1 X159.836 Y103.887
G1 X159.812 Y103.932
G1 X157.729 Y103.388
G1 X157.632 Y103.557
G1 Z.24 F720
G1 E1 F2100
M204 P400
G1 F720
G1 X157.672 Y103.626 E.00293
G1 X157.496 Y104.547 E.03448
G1 X157.469 Y105.086 E.01984
G1 X157.525 Y105.711 E.02307
G1 X157.667 Y106.333 E.02346
G1 X157.665 Y106.424 E.00335
G1 X157.578 Y106.534 E.00516
G1 X155.953 Y107.455 E.06868
;WIDTH:0.456042
G1 X155.735 Y107.563 E.00982
;WIDTH:0.492085
G1 X155.517 Y107.672 E.01071
G1 X155.07 Y107.764 E.02006
;WIDTH:0.4543
G1 X154.884 Y107.702 E.00788
;WIDTH:0.420001
G1 X152.76 Y106.476 E.09017
;WIDTH:0.440596
G1 X152.63 Y106.383 E.00621
G1 X152.614 Y106.227 E.00609
;WIDTH:0.42
G1 X152.614 Y103.773 E.09023
;WIDTH:0.440596
G1 X152.63 Y103.617 E.00609
G1 X152.76 Y103.524 E.00621
;WIDTH:0.420001
G1 X154.884 Y102.298 E.09017
;WIDTH:0.453704
G1 X155.07 Y102.236 E.00787
;WIDTH:0.471267
G1 X155.553 Y102.352 E.02081
G1 X155.698 Y102.435 E.007
;WIDTH:0.445633
G1 X155.842 Y102.517 E.00652
;WIDTH:0.419999
G1 X156.315 Y102.74 E.01923
G1 X157.58 Y103.467 E.05365
G1 X157.602 Y103.505 E.00161
M204 P1000
G1 E-1 F2100
G1 Z.44 F720
G1 X157.684 Y103.362 F10800
G1 X161.544 Y102.684
G1 X161.653 Y102.671
G1 X161.729 Y102.663
G1 X161.839 Y102.659
G1 X161.916 Y102.657
G1 X162.026 Y102.661
G1 X162.103 Y102.666
G1 X162.212 Y102.679
G1 X162.288 Y102.69
G1 X162.396 Y102.711
G1 X162.471 Y102.729
G1 X162.577 Y102.758
G1 X162.65 Y102.782
G1 X162.753 Y102.82
G1 X162.825 Y102.849
G1 X162.924 Y102.895
G1 X162.993 Y102.93
G1 X163.089 Y102.983
G1 X163.155 Y103.024
G1 X163.246 Y103.085
G1 X163.308 Y103.13
G1 X163.394 Y103.198
G1 X163.453 Y103.249
G1 X163.533 Y103.323
G1 X163.587 Y103.378
G1 X163.662 Y103.459
G1 X163.711 Y103.518
G1 X163.779 Y103.604
G1 X163.823 Y103.668
G1 X163.884 Y103.759
G1 X163.923 Y103.825
G1 X163.977 Y103.921
G1 X164.01 Y103.991
G1 X164.03 Y104.033
G1 X170.99 Y104.594
G1 X171.134 Y104.618
G1 Z.24 F720
G1 E1 F2100
M204 P400
G1 F720
G1 X171.135 Y104.598 E.00074
G1 X171.264 Y104.162 E.01672
G1 X171.461 Y103.79 E.01548
G1 X171.749 Y103.438 E.01672
G1 X172.075 Y103.173 E.01545
G1 X172.441 Y102.974 E.01532
G1 X172.812 Y102.855 E.01433
G1 X173.262 Y102.802 E.01666
G1 X173.682 Y102.835 E.01549
G1 X174.118 Y102.96 E.01668
G1 X174.492 Y103.154 E.01549
G1 X174.846 Y103.439 E.01671
G1 X175.115 Y103.763 E.01548
G1 X175.331 Y104.164 E.01675
G1 X175.452 Y104.566 E.01544
G1 X175.496 Y105.02 E.01677
G1 X175.445 Y105.469 E.01662
G1 X175.316 Y105.872 E.01556
G1 X175.051 Y106.318 E.01908
G1 X174.803 Y106.6 E.01381
G1 X174.504 Y106.833 E.01394
G1 X174.151 Y107.027 E.01481
G1 X173.748 Y107.152 E.01551
G1 X173.296 Y107.199 E.01671
G1 X172.878 Y107.158 E.01544
G1 X172.441 Y107.026 E.01678
G1 X172.046 Y106.807 E.01661
G1 X171.722 Y106.535 E.01555
G1 X171.442 Y106.18 E.01662
G1 X171.251 Y105.808 E.01538
G1 X171.148 Y105.468 E.01306
G1 X171.098 Y105.017 E.01668
G1 X171.128 Y104.677 E.01255
M204 P1000
G1 E-1 F2100
G1 Z.44 F720
G1 X164.799 Y104.631 F10800
G1 Z.24 F720
G1 E1 F2100
M204 P400
;TYPE:Perimeter
G1 F720
G1 X164.785 Y104.487 E.00532
G1 X164.635 Y103.945 E.02068
G1 X164.36 Y103.407 E.02222
G1 X164.01 Y102.964 E.02076
G1 X163.677 Y102.677 E.01616
G1 X171.513 Y102.677 E.28812
G1 X171.279 Y102.87 E.01115
G1 X170.886 Y103.33 E.02225
G1 X170.61 Y103.821 E.02071
G1 X170.427 Y104.395 E.02215
G1 X170.361 Y105.023 E.02322
G1 X170.417 Y105.556 E.01971
G1 X170.548 Y106.028 E.01801
G1 X170.788 Y106.52 E.02013
G1 X171.147 Y106.996 E.02192
G1 X171.513 Y107.323 E.01805
G1 X163.684 Y107.325 E.28786
G1 X164.01 Y107.036 E.01602
G1 X164.36 Y106.593 E.02076
G1 X164.635 Y106.055 E.02222
G1 X164.785 Y105.513 E.02068
G1 X164.834 Y105 E.01895
G1 X164.804 Y104.691 E.01141
M204 P1000
G1 E-1 F2100
G1 Z.44 F720
G1 X170.775 Y104.554 F10800
G1 Z.24 F720
G1 E1 F2100
M204 P400
G1 F720
G1 X170.731 Y104.988 E.01604
G1 X170.782 Y105.512 E.01936
G1 X170.9 Y105.918 E.01555
G1 X171.115 Y106.35 E.01774
G1 X171.435 Y106.766 E.0193
G1 X171.899 Y107.151 E.02217
G1 X172.374 Y107.395 E.01963
;WIDTH:0.46008
G1 X172.499 Y107.449 E.00555
;WIDTH:0.50016
G1 X172.623 Y107.503 E.00605
;WIDTH:0.54024
G1 X172.748 Y107.557 E.00664
;WIDTH:0.58032
G1 X172.872 Y107.611 E.00714
G1 X172.737 Y107.632 E.00721
;WIDTH:0.54024
G1 X172.602 Y107.652 E.00666
;WIDTH:0.50016
G1 X172.467 Y107.672 E.00611
;WIDTH:0.46008
G1 X172.331 Y107.692 E.0056
;WIDTH:0.419999
G1 X163.058 Y107.694 E.34096
;WIDTH:0.465445
G1 X162.903 Y107.671 E.00647
;WIDTH:0.51089
G1 X162.749 Y107.648 E.00714
;WIDTH:0.556335
G1 X162.594 Y107.625 E.00789
;WIDTH:0.60178
G1 X162.439 Y107.603 E.0086
G1 X162.545 Y107.547 E.00658
;WIDTH:0.556335
G1 X162.651 Y107.49 E.00606
;WIDTH:0.51089
G1 X162.757 Y107.434 E.0055
;WIDTH:0.465445
G1 X162.863 Y107.378 E.00495
;WIDTH:0.419999
G1 X163.328 Y107.13 E.01938
G1 X163.659 Y106.867 E.01554
G1 X163.976 Y106.504 E.01772
G1 X164.239 Y106.05 E.01929
G1 X164.397 Y105.578 E.0183
G1 X164.463 Y105.059 E.01924
G1 X164.418 Y104.527 E.01963
G1 X164.283 Y104.054 E.01809
G1 X164.037 Y103.585 E.01947
G1 X163.728 Y103.202 E.01809
G1 X163.321 Y102.865 E.01943
G1 X162.885 Y102.632 E.01818
;WIDTH:0.4637
G1 X162.765 Y102.573 E.0055
;WIDTH:0.507401
G1 X162.645 Y102.514 E.00608
;WIDTH:0.551102
G1 X162.525 Y102.455 E.00667
;WIDTH:0.594802
G1 X162.405 Y102.396 E.00725
G1 X162.509 Y102.374 E.00576
;WIDTH:0.551102
G1 X162.613 Y102.352 E.0053
;WIDTH:0.507401
G1 X162.718 Y102.33 E.00488
;WIDTH:0.4637
G1 X162.822 Y102.308 E.00437
;WIDTH:0.419999
G1 X172.178 Y102.309 E.34401
;WIDTH:0.466533
G1 X172.314 Y102.332 E.00571
;WIDTH:0.513067
G1 X172.451 Y102.355 E.0064
;WIDTH:0.559601
G1 X172.587 Y102.378 E.00699
;WIDTH:0.606134
G1 X172.724 Y102.402 E.0077
G1 X172.633 Y102.454 E.0058
;WIDTH:0.559601
G1 X172.542 Y102.506 E.00531
;WIDTH:0.513067
G1 X172.451 Y102.558 E.00483
;WIDTH:0.466533
G1 X172.36 Y102.61 E.00434
;WIDTH:0.419999
G1 X171.899 Y102.849 E.01909
G1 X171.514 Y103.154 E.01806
G1 X171.174 Y103.56 E.01947
G1 X170.937 Y103.992 E.01812
G1 X170.782 Y104.495 E.01935
M204 P1000
G1 E-1 F2100
G1 Z.44 F720
G1 X172.724 Y102.402 F10800
G1 Z.24 F720
G1 E1 F2100
M204 P400
;WIDTH:0.606134
G1 F720
G1 X172.986 Y102.386 E.01453
;WIDTH:0.575193
G1 X173.249 Y102.371 E.01377
;WIDTH:0.544252
G1 X173.797 Y102.424 E.02707
;WIDTH:0.541066
G1 X174.304 Y102.573 E.02581
G1 X174.757 Y102.819 E.02518
;WIDTH:0.540664
G1 X175.169 Y103.156 E.02598
G1 X175.489 Y103.557 E.02504
;WIDTH:0.540134
G1 X175.738 Y104.029 E.02602
;WIDTH:0.541342
G1 X175.878 Y104.518 E.02486
G1 X175.919 Y105.052 E.02618
;WIDTH:0.537278
G1 X175.856 Y105.584 E.02597
;WIDTH:0.538858
G1 X175.691 Y106.078 E.02533
G1 X175.422 Y106.542 E.02608
;WIDTH:0.543558
G1 X175.078 Y106.931 E.0255
;WIDTH:0.547358
G1 X174.715 Y107.21 E.02265
G1 X174.28 Y107.432 E.02416
;WIDTH:0.534556
G1 X173.796 Y107.575 E.02433
;WIDTH:0.544074
G1 X173.276 Y107.63 E.0257
;WIDTH:0.58032
G1 X172.872 Y107.611 E.02134
M204 P1000
G1 E-1 F2100
G1 Z.44 F720
G1 X160.116 Y107.326 F10800
G1 Z.24 F720
G1 E1 F2100
M204 P400
;WIDTH:0.419999
G1 F720
G1 X157.676 Y107.326 E.08972
G1 X157.941 Y107.176 E.0112
G1 X158.373 Y106.626 E.02571
G1 X158.409 Y106.375 E.00932
G1 X158.386 Y106.169 E.00762
G1 X158.26 Y105.62 E.02071
G1 X158.21 Y105.098 E.01928
G1 X158.232 Y104.585 E.01888
G1 X158.409 Y103.626 E.03586
G1 X158.374 Y103.375 E.00932
G1 X157.947 Y102.828 E.02551
G1 X157.685 Y102.677 E.01112
G1 X160.113 Y102.677 E.08927
G1 X159.879 Y102.87 E.01115
G1 X159.486 Y103.33 E.02225
G1 X159.21 Y103.821 E.02071
G1 X159.011 Y104.459 E.02457
G1 X158.961 Y105.055 E.02199
G1 X159.017 Y105.556 E.01854
G1 X159.155 Y106.049 E.01882
G1 X159.389 Y106.522 E.0194
G1 X159.747 Y106.996 E.02184
G1 X160.071 Y107.286 E.01599
M204 P1000
G1 X160.3 Y106.986 F10800
M204 P400
G1 F720
G1 X160.499 Y107.151 E.0095
G1 X160.974 Y107.395 E.01963
;WIDTH:0.460641
G1 X161.099 Y107.449 E.00556
;WIDTH:0.501283
G1 X161.223 Y107.504 E.00609
;WIDTH:0.541925
G1 X161.348 Y107.558 E.00666
;WIDTH:0.582566
G1 X161.472 Y107.613 E.00719
G1 X161.337 Y107.633 E.00723
;WIDTH:0.541925
G1 X161.202 Y107.653 E.00668
;WIDTH:0.501283
G1 X161.066 Y107.674 E.00618
;WIDTH:0.460641
G1 X160.931 Y107.694 E.00557
;WIDTH:0.419999
G1 X156.525 Y107.695 E.162
G1 X156.238 Y107.717 E.01058
G1 X157.76 Y106.855 E.06431
G1 X158.019 Y106.525 E.01542
G1 X158.026 Y106.251 E.01008
G1 X157.89 Y105.653 E.02255
G1 X157.838 Y105.078 E.02123
G1 X157.867 Y104.508 E.02099
G1 X158.029 Y103.74 E.02886
G1 X158.02 Y103.476 E.00971
G1 X157.764 Y103.147 E.01533
G1 X156.91 Y102.656 E.03622
G1 X156.23 Y102.292 E.02836
G1 X157.018 Y102.308 E.02898
G1 X160.778 Y102.308 E.13825
;WIDTH:0.466569
G1 X160.914 Y102.332 E.00572
;WIDTH:0.513139
G1 X161.051 Y102.355 E.0064
;WIDTH:0.559709
G1 X161.187 Y102.378 E.00699
;WIDTH:0.606278
G1 X161.324 Y102.402 E.0077
G1 X161.233 Y102.454 E.0058
;WIDTH:0.559709
G1 X161.142 Y102.506 E.00531
;WIDTH:0.513139
G1 X161.051 Y102.558 E.00483
;WIDTH:0.466569
G1 X160.96 Y102.61 E.00434
;WIDTH:0.419999
G1 X160.499 Y102.849 E.01909
G1 X160.114 Y103.154 E.01806
G1 X159.774 Y103.56 E.01947
G1 X159.537 Y103.992 E.01812
G1 X159.381 Y104.496 E.0194
G1 X159.331 Y104.988 E.01818
G1 X159.375 Y105.446 E.01692
G1 X159.481 Y105.859 E.01568
G1 X159.715 Y106.351 E.02003
G1 X160.035 Y106.766 E.01927
G1 X160.254 Y106.948 E.01047
M204 P1000
G1 E-1 F2100
G1 Z.44 F720
G1 X160.382 Y106.787 F10800
G1 X160.37 Y106.778
G1 X160.29 Y106.703
G1 X160.234 Y106.65
G1 X160.159 Y106.57
G1 X160.107 Y106.512
G1 X160.039 Y106.426
G1 X159.993 Y106.365
G1 X159.932 Y106.274
G1 X159.89 Y106.209
G1 X159.836 Y106.113
G1 X159.8 Y106.045
G1 X159.754 Y105.945
G1 X159.723 Y105.874
G1 X159.685 Y105.772
G1 X159.661 Y105.698
G1 X159.631 Y105.593
G1 X159.612 Y105.518
G1 X159.591 Y105.41
G1 X159.578 Y105.334
G1 X159.565 Y105.225
G1 X159.559 Y105.148
G1 X159.555 Y105.039
G1 X159.555 Y104.961
G1 X159.559 Y104.852
G1 X159.565 Y104.775
G1 X159.578 Y104.666
G1 X159.591 Y104.59
G1 X159.612 Y104.482
G1 X159.631 Y104.407
G1 X159.661 Y104.302
G1 X159.685 Y104.229
