; generated by PrusaSlicer 2.7.3+linux-x64-GTK3 on 2024-06-06 at 21:27:39 UTC


;
;
; 

; external perimeters extrusion width = 0.45mm
; perimeters extrusion width = 0.45mm
; infill extrusion width = 0.45mm
; solid infill extrusion width = 0.45mm
; top infill extrusion width = 0.40mm
; first layer extrusion width = 0.42mm

M73 P0 R77
M73 Q0 S78
M201 X1000 Y1000 Z200 E8000 ; sets maximum accelerations, mm/sec^2
M203 X200 Y200 Z12 E120 ; sets maximum feedrates, mm / sec
M204 S1250 T1250 ; sets acceleration (S) and retract acceleration (R), mm/sec^2
M205 X8.00 Y8.00 Z0.40 E4.50 ; sets the jerk limits, mm/sec
M205 S0 T0 ; sets the minimum extruding and travel feed rate, mm/sec

; printing object FiberOpticCableHang3 id:0 copy 0
; stop printing object FiberOpticCableHang3 id:0 copy 0
; printing object FiberOpticCableHang3 id:0 copy 1
; stop printing object FiberOpticCableHang3 id:0 copy 1
; printing object FiberOpticCableHang3 id:0 copy 2
; stop printing object FiberOpticCableHang3 id:0 copy 2

;TYPE:Custom
M862.3 P "MK3SMMU3" ; printer model check
M862.1 P0.4 ; nozzle diameter check
M115 U3.13.3 ; tell printer latest fw version
G90 ; use absolute coordinates
M83 ; extruder relative mode
M104 S225 ; set extruder temp
M140 S85 ; set bed temp
M190 S85 ; wait for bed temp
M109 S225 ; wait for extruder temp
G28 W ; home all without mesh bed level
G80 X78.1041 Y60.0289 W109.465 H105.936 ; mesh bed levelling

; Send the filament type to the MMU unit.
; E stands for extruder number, F stands for filament type (0: default; 1:flex; 2: PVA)
M403 E0 F0
M403 E1 F0
M403 E2 F0
M403 E3 F0
M403 E4 F0


;go outside print area
G1 Y-3 F1000
G1 Z0.4 F1000
M73 P0 R76
; select extruder
T4
; initial load
G1 X55 E29 F1073
G1 X5 E29 F1800
G1 X55 E8 F2000
G1 Z0.3 F1000
G92 E0
G1 X240 E25 F2200
G1 Y-2 F1000
G1 X55 E25 F1400
G1 Z0.2 F1000
G1 X5 E4 F1000
G92 E0


M221 S95
G92 E0

; Don't change E values below. Excessive value can damage the printer.

G21 ; set units to millimeters
G90 ; use absolute coordinates
M83 ; use relative distances for extrusion
T4
M104 S225 ; set temperature

M900 K0.08 ; Filament gcode LA 1.5
M900 K45 ; Filament gcode LA 1.0




M107
;LAYER_CHANGE
;Z:0.3
;HEIGHT:0.3
; printing object FiberOpticCableHang3 id:0 copy 2
G1 E-1 F2100
; stop printing object FiberOpticCableHang3 id:0 copy 2
G1 Z.5 F720
G1 X186.803 Y121.211 F10800
G1 Z.3 F720
G1 E1 F2100
; printing object FiberOpticCableHang3 id:0 copy 2
M204 S800
;TYPE:Perimeter
;WIDTH:0.42
G1 F720
G1 X186.154 Y121.221 E.02879
G1 X184.766 Y121.287 E.06163
G1 X183.348 Y121.399 E.06309
G1 X181.966 Y121.551 E.06167
G1 X180.618 Y121.743 E.06039
G1 X179.172 Y121.994 E.0651
G1 X177.795 Y122.279 E.06237
G1 X176.444 Y122.603 E.06162
G1 X175.072 Y122.979 E.0631
G1 X173.727 Y123.393 E.06242
G1 X172.413 Y123.843 E.06161
G1 X171.082 Y124.346 E.06311
G1 X169.779 Y124.886 E.06256
G1 X168.096 Y125.662 E.0822
G1 X167.238 Y126.082 E.04237
G1 X165.995 Y126.74 E.06238
G1 X164.788 Y127.429 E.06164
G1 X163.974 Y127.928 E.04235
G1 X162.4 Y128.945 E.08312
G1 X161.249 Y129.753 E.06238
G1 X160.632 Y130.217 E.03424
G1 X159.03 Y131.475 E.09035
G1 X157.961 Y132.389 E.06238
G1 X156.919 Y133.338 E.06251
G1 X155.909 Y134.317 E.06239
G1 X155.286 Y134.959 E.03968
G1 X153.984 Y136.367 E.08506
G1 X153.4 Y137.051 E.03989
G1 X152.192 Y138.534 E.08484
G1 X151.348 Y139.659 E.06238
G1 X150.539 Y140.81 E.0624
G1 X149.767 Y141.985 E.06236
G1 X149.041 Y143.17 E.06164
G1 X148.336 Y144.406 E.06311
G1 X147.679 Y145.649 E.06236
G1 X147.067 Y146.897 E.06165
G1 X146.471 Y148.219 E.06432
G1 X145.944 Y149.493 E.06115
G1 X145.453 Y150.793 E.06164
G1 X144.992 Y152.139 E.06311
G1 X144.583 Y153.467 E.06163
G1 X144.212 Y154.824 E.0624
G1 X143.879 Y156.207 E.0631
G1 X143.598 Y157.568 E.06164
G1 X143.356 Y158.953 E.06236
G1 X143.155 Y160.362 E.06313
G1 X143.001 Y161.76 E.06238
G1 X142.892 Y163.145 E.06162
G1 X142.826 Y164.55 E.06239
G1 X142.815 Y165.199 E.02879
G1 X135.236 Y165.199 E.33616
G1 X135.322 Y119.564 E2.02413
G1 X135.671 Y118.629 E.04427
M73 P1 R76
M73 Q1 S77
G1 X136.302 Y117.473 E.05842
G1 X137.091 Y116.419 E.0584
G1 X138.023 Y115.487 E.05846
G1 X139.077 Y114.698 E.0584
G1 X140.233 Y114.067 E.05842
G1 X141.168 Y113.718 E.04427
G1 X186.803 Y113.632 E2.02413
G1 X186.803 Y117.531 E.17294
G1 X186.803 Y121.151 E.16056
M204 S1000
G1 X186.803 Y121.151 F10800
G1 X187.159 Y121.561
M204 S800
;TYPE:External perimeter
G1 F720
G1 X186.171 Y121.577 E.04383
G1 X184.783 Y121.642 E.06163
G1 X183.387 Y121.752 E.06211
G1 X182.005 Y121.904 E.06167
G1 X180.668 Y122.095 E.0599
G1 X179.244 Y122.342 E.0641
G1 X177.878 Y122.625 E.06188
G1 X176.527 Y122.949 E.06162
G1 X175.181 Y123.317 E.06189
G1 X173.848 Y123.727 E.06186
G1 X172.528 Y124.179 E.06189
G1 X171.218 Y124.674 E.06211
G1 X169.927 Y125.209 E.06198
G1 X168.244 Y125.985 E.0822
G1 X167.405 Y126.396 E.04144
G1 X166.172 Y127.049 E.06189
G1 X164.965 Y127.738 E.06164
G1 X164.167 Y128.226 E.04149
G1 X162.604 Y129.236 E.08254
G1 X161.463 Y130.038 E.06186
G1 X160.845 Y130.502 E.03428
G1 X159.26 Y131.747 E.0894
G1 X158.199 Y132.653 E.06188
G1 X157.166 Y133.593 E.06195
G1 X156.164 Y134.564 E.06189
G1 X155.542 Y135.206 E.03965
G1 X154.254 Y136.598 E.08412
G1 X153.67 Y137.282 E.03989
G1 X152.476 Y138.748 E.08386
G1 X151.639 Y139.863 E.06184
G1 X150.837 Y141.005 E.0619
G1 X150.071 Y142.171 E.06188
G1 X149.345 Y143.356 E.06164
G1 X148.651 Y144.572 E.0621
G1 X148 Y145.8 E.06165
G1 X147.387 Y147.053 E.06187
G1 X146.796 Y148.365 E.06383
G1 X146.276 Y149.619 E.06021
G1 X145.785 Y150.919 E.06164
G1 X145.331 Y152.244 E.06212
G1 X144.923 Y153.572 E.06162
G1 X144.555 Y154.918 E.06189
G1 X144.228 Y156.28 E.06213
G1 X143.945 Y157.646 E.06188
G1 X143.706 Y159.015 E.06164
G1 X143.509 Y160.401 E.06209
G1 X143.356 Y161.788 E.06189
G1 X143.247 Y163.173 E.06162
G1 X143.181 Y164.567 E.0619
G1 X143.165 Y165.555 E.04383
G1 X134.88 Y165.555 E.36748
G1 X134.966 Y119.5 E2.04276
M73 P1 R75
G1 X135.346 Y118.481 E.04824
G1 X136.002 Y117.28 E.0607
G1 X136.822 Y116.185 E.06068
G1 X137.789 Y115.218 E.06066
G1 X138.885 Y114.398 E.06071
G1 X140.085 Y113.742 E.06066
G1 X141.104 Y113.362 E.04824
G1 X187.159 Y113.275 E2.04276
G1 X187.159 Y117.531 E.18877
G1 X187.159 Y121.501 E.17609
M204 S1000
G1 E-1 F2100
G1 X187.159 Y121.501 Z.5 F10800
G1 X151.211 Y125.041
G1 Z.3 F720
G1 E1 F2100
M204 S800
;TYPE:Perimeter
G1 F720
G1 X151.306 Y125.634 E.02664
G1 X151.324 Y126.026 E.01741
G1 X151.281 Y126.59 E.02509
G1 X151.127 Y127.192 E.02756
G1 X150.833 Y127.837 E.03144
G1 X150.351 Y128.498 E.03629
G1 X149.732 Y129.044 E.03661
G1 X149.109 Y129.399 E.0318
G1 X148.439 Y129.626 E.03138
G1 X147.737 Y129.725 E.03145
G1 X147.03 Y129.689 E.0314
G1 X146.395 Y129.536 E.02897
G1 X145.696 Y129.229 E.03386
G1 X145.036 Y128.747 E.03625
G1 X144.554 Y128.217 E.03178
G1 X144.139 Y127.513 E.03625
G1 X143.907 Y126.835 E.03178
G1 X143.809 Y126.133 E.03144
G1 X143.844 Y125.426 E.0314
G1 X144.011 Y124.737 E.03145
G1 X144.304 Y124.092 E.03142
G1 X144.599 Y123.681 E.02244
G1 X144.883 Y123.332 E.01996
G1 X145.316 Y122.95 E.02561
G1 X145.921 Y122.581 E.03143
G1 X146.585 Y122.332 E.03145
G1 X147.392 Y122.206 E.03623
G1 X148.108 Y122.24 E.03179
G1 X148.899 Y122.445 E.03624
G1 X149.543 Y122.76 E.0318
G1 X150.106 Y123.185 E.03129
G1 X150.584 Y123.712 E.03156
G1 X150.953 Y124.317 E.03143
G1 X151.201 Y124.98 E.0314
M204 S1000
G1 X151.201 Y124.98 F10800
G1 X150.867 Y125.101
M204 S800
;TYPE:External perimeter
G1 F720
G1 X150.954 Y125.684 E.02615
G1 X150.969 Y126.004 E.01421
G1 X150.934 Y126.51 E.0225
G1 X150.782 Y127.104 E.0272
G1 X150.512 Y127.686 E.02846
G1 X150.067 Y128.284 E.03306
G1 X149.501 Y128.773 E.03318
G1 X148.938 Y129.087 E.02859
G1 X148.329 Y129.288 E.02845
G1 X147.693 Y129.372 E.02845
G1 X147.052 Y129.335 E.02848
G1 X146.483 Y129.192 E.02602
G1 X145.847 Y128.908 E.03089
G1 X145.249 Y128.463 E.03306
G1 X144.82 Y127.982 E.02859
G1 X144.448 Y127.336 E.03306
G1 X144.245 Y126.725 E.02856
G1 X144.162 Y126.088 E.02849
G1 X144.199 Y125.448 E.02843
G1 X144.355 Y124.826 E.02844
G1 X144.626 Y124.244 E.02848
G1 X145.068 Y123.648 E.03291
G1 X145.549 Y123.218 E.02862
G1 X146.102 Y122.887 E.02859
G1 X146.705 Y122.667 E.02847
G1 X147.442 Y122.558 E.03305
G1 X148.086 Y122.595 E.02861
G1 X148.805 Y122.788 E.03302
G1 X149.381 Y123.077 E.02858
G1 X149.888 Y123.466 E.02834
G1 X150.317 Y123.947 E.02859
G1 X150.646 Y124.498 E.02846
G1 X150.846 Y125.044 E.02579
M204 S1000
G1 E-1 F2100
G1 X150.846 Y125.044 Z.5 F10800
G1 X150.971 Y125.01
G1 X150.991 Y125.086
G1 X151.017 Y125.194
G1 X151.04 Y125.302
G1 X151.059 Y125.412
G1 X151.074 Y125.522
G1 X151.087 Y125.632
G1 X151.095 Y125.743
G1 X151.101 Y125.854
G1 X151.102 Y125.965
G1 X151.101 Y126.076
G1 X151.095 Y126.186
G1 X151.087 Y126.297
G1 X151.074 Y126.408
G1 X151.059 Y126.517
G1 X151.04 Y126.627
G1 X151.017 Y126.736
G1 X150.991 Y126.843
G1 X150.962 Y126.951
G1 X150.929 Y127.057
G1 X150.893 Y127.162
G1 X150.854 Y127.265
G1 X150.812 Y127.368
G1 X150.766 Y127.469
G1 X150.717 Y127.569
G1 X150.665 Y127.667
G1 X150.61 Y127.763
G1 X150.552 Y127.858
G1 X150.491 Y127.951
G1 X150.428 Y128.042
G1 X150.361 Y128.13
G1 X150.292 Y128.217
G1 X150.219 Y128.301
G1 X150.145 Y128.383
G1 X150.067 Y128.463
G1 X149.988 Y128.54
G1 X149.906 Y128.615
G1 X149.821 Y128.687
G1 X149.734 Y128.757
G1 X149.646 Y128.823
G1 X149.555 Y128.887
G1 X149.462 Y128.948
G1 X149.368 Y129.006
G1 X149.271 Y129.061
G1 X149.173 Y129.113
G1 X149.073 Y129.162
G1 X148.972 Y129.208
G1 X148.87 Y129.25
G1 X148.766 Y129.289
G1 X148.661 Y129.325
G1 X148.555 Y129.358
G1 X148.448 Y129.387
G1 X148.34 Y129.413
G1 X148.231 Y129.436
G1 X148.122 Y129.455
G1 X148.012 Y129.47
G1 X147.901 Y129.483
G1 X147.791 Y129.491
G1 X147.68 Y129.496
G1 X147.569 Y129.498
G1 X147.458 Y129.496
G1 X147.347 Y129.491
G1 X147.236 Y129.483
G1 X147.126 Y129.47
G1 X147.11 Y129.468
G1 X147.031 Y130.023
G1 Z.3 F720
G1 E1 F2100
M204 S800
;TYPE:Internal infill
;WIDTH:0.42
G1 F720
G1 X147.712 Y130.063 E.03026
G1 X148.464 Y129.967 E.03363
G1 X149.195 Y129.73 E.03408
G1 X149.45 Y129.59 E.0129
G1 X149.45 Y141.862 E.54432
G1 X150.631 Y140.096 E.09423
G1 X135.635 Y131.438 E.76804
G1 X135.63 Y134.036 E.11523
G1 X144.649 Y128.828 E.46194
G1 X145.476 Y129.492 E.04704
G1 X146.163 Y129.817 E.03371
G1 X146.818 Y129.986 E.03
M204 S1000
G1 E-1 F2100
G1 X146.818 Y129.986 Z.5 F10800
G1 X154.06 Y135.785
G1 Z.3 F720
G1 E1 F2100
M204 S800
G1 F720
G1 X152.44 Y137.689 E.11088
G1 X135.604 Y147.408 E.86225
G1 X135.609 Y144.782 E.11648
G1 X145.26 Y150.354 E.49429
G1 X146.222 Y147.958 E.11452
G1 X135.592 Y154.095 E.54443
G1 X135.597 Y151.454 E.11714
G1 X143.571 Y156.057 E.40838
G1 X143.543 Y156.184 E.00577
G1 X135.579 Y160.781 E.40787
G1 X135.584 Y158.126 E.11776
G1 X142.631 Y162.194 E.36091
G1 X142.545 Y163.439 E.05535
G1 X140.076 Y164.864 E.12644
G1 X137.882 Y164.864 E.09731
G1 X137.882 Y116.102 E2.16283
G1 X138.243 Y115.741 E.02264
G1 X139.259 Y114.98 E.0563
G1 X139.891 Y114.635 E.03194
M204 S1000
G1 E-1 F2100
G1 X139.891 Y114.635 Z.5 F10800
G1 X144.623 Y114.046
G1 Z.3 F720
G1 E1 F2100
M204 S800
G1 F720
G1 X147.123 Y114.042 E.11089
G1 X135.655 Y120.663 E.58735
G1 X135.657 Y119.625 E.04604
M73 P2 R75
G1 X135.976 Y118.769 E.04052
G1 X136.18 Y118.395 E.0189
G1 X144.533 Y123.217 E.4278
G1 X145.141 Y122.66 E.03657
M73 Q2 S77
G1 X145.886 Y122.227 E.03822
G1 X146.604 Y121.98 E.03368
G1 X147.359 Y121.872 E.03383
G1 X148.142 Y121.906 E.03476
G1 X149.001 Y122.125 E.03932
G1 X149.45 Y122.343 E.02214
G1 X149.45 Y114.037 E.36841
G1 X151.762 Y114.033 E.10255
G1 X169.868 Y124.486 E.92732
G1 X172.587 Y123.429 E.12939
G1 X172.587 Y113.994 E.41849
G1 X174.824 Y113.989 E.09922
G1 X186.468 Y120.712 E.59637
G1 X186.468 Y120.885 E.00767
G1 X184.156 Y120.999 E.10267
G1 X184.156 Y113.972 E.31168
G1 X181.943 Y113.976 E.09816
G1 X135.617 Y140.722 E2.37265
G1 X135.622 Y138.11 E.11585
G1 X147.622 Y145.039 E.61462
G1 X148.841 Y142.856 E.1109
M204 S1000
G1 E-1 F2100
G1 X148.841 Y142.856 Z.5 F10800
G1 X143.616 Y155.87
G1 Z.3 F720
G1 E1 F2100
M204 S800
G1 F720
G1 X143.666 Y155.661 E.00953
G1 X143.666 Y127.165 E1.26393
G1 X143.559 Y126.824 E.01585
M73 Q2 S76
G1 X143.469 Y126.068 E.03377
G1 X143.532 Y125.255 E.03617
G1 X143.666 Y124.767 E.02245
G1 X143.666 Y114.048 E.47544
G1 X141.229 Y114.053 E.10809
G1 X140.621 Y114.28 E.02879
G1 X163.783 Y127.652 E1.18626
G1 X166.803 Y125.933 E.15413
G1 X166.803 Y114.005 E.52906
G1 X170.336 Y113.998 E.15671
G1 X151.514 Y124.865 E.964
G1 X151.668 Y125.824 E.04308
G1 X151.61 Y126.656 E.03699
G1 X151.459 Y127.216 E.02573
G1 X158.644 Y131.364 E.36798
G1 X161.019 Y129.508 E.13369
G1 X161.019 Y114.015 E.68719
G1 X163.293 Y114.011 E.10086
G1 X177.245 Y122.067 E.71459
G1 X178.372 Y121.817 E.0512
G1 X178.372 Y113.983 E.34748
G1 X180.872 Y113.978 E.11089
M73 P2 R74
M204 S1000
G1 E-1 F2100
G1 X180.872 Y113.978 Z.5 F10800
G1 X186.468 Y115.542
G1 Z.3 F720
G1 E1 F2100
M204 S800
G1 F720
G1 X186.468 Y118.042 E.11089
G1 X180.654 Y121.399 E.29778
G1 X178.56 Y121.778 E.09439
M204 S1000
G1 E-1 F2100
G1 X178.56 Y121.778 Z.5 F10800
G1 X160.826 Y114.016
G1 Z.3 F720
G1 E1 F2100
M204 S800
G1 F720
G1 X158.73 Y114.02 E.09297
G1 X135.642 Y127.349 E1.18247
G1 X135.647 Y124.766 E.11457
G1 X154.292 Y135.531 E.95494
G1 X155.234 Y134.531 E.06094
G1 X155.234 Y114.026 E.9095
G1 X157.734 Y114.022 E.11089
M204 S1000
; stop printing object FiberOpticCableHang3 id:0 copy 2
; printing object FiberOpticCableHang3 id:0 copy 1
;WIPE_START
G1 F8640
G1 X155.234 Y114.026 E-.57726
G1 X155.234 Y115.857 E-.42274
;WIPE_END
G1 Z.5 F720
G1 X157.338 Y95.943 F10800
G1 Z.3 F720
G1 E1 F2100
M204 S800
;TYPE:Perimeter
;WIDTH:0.42
G1 F720
G1 X156.69 Y95.954 E.02875
G1 X155.302 Y96.019 E.06163
G1 X153.883 Y96.131 E.06314
G1 X152.502 Y96.283 E.06162
G1 X151.153 Y96.475 E.06044
G1 X149.708 Y96.726 E.06505
G1 X148.331 Y97.011 E.06237
G1 X146.979 Y97.336 E.06168
G1 X145.607 Y97.711 E.06309
G1 X144.263 Y98.125 E.06238
G1 X142.948 Y98.575 E.06165
G1 X141.617 Y99.078 E.06311
G1 X140.314 Y99.618 E.06256
G1 X138.631 Y100.394 E.0822
G1 X137.773 Y100.814 E.04237
G1 X136.531 Y101.473 E.06236
G1 X135.324 Y102.161 E.06162
G1 X134.51 Y102.66 E.04235
G1 X132.935 Y103.677 E.08316
G1 X131.785 Y104.486 E.06237
G1 X131.167 Y104.95 E.03428
G1 X129.566 Y106.208 E.09031
G1 X128.496 Y107.121 E.06239
G1 X127.454 Y108.07 E.06251
G1 X126.444 Y109.049 E.06239
G1 X125.822 Y109.691 E.03965
G1 X124.519 Y111.099 E.08509
G1 X123.935 Y111.784 E.03993
G1 X122.727 Y113.267 E.08484
G1 X121.883 Y114.391 E.06235
G1 X121.075 Y115.542 E.06238
G1 X120.303 Y116.718 E.0624
G1 X119.577 Y117.902 E.0616
G1 X118.872 Y119.138 E.06311
G1 X118.214 Y120.381 E.06238
G1 X117.603 Y121.629 E.06163
G1 X117.007 Y122.952 E.06436
G1 X116.479 Y124.226 E.06117
G1 X115.988 Y125.525 E.0616
G1 X115.527 Y126.872 E.06315
G1 X115.118 Y128.2 E.06163
G1 X114.747 Y129.556 E.06236
G1 X114.415 Y130.94 E.06313
G1 X114.133 Y132.301 E.06165
G1 X113.891 Y133.686 E.06236
G1 X113.69 Y135.095 E.06313
G1 X113.536 Y136.493 E.06238
G1 X113.427 Y137.878 E.06162
G1 X113.361 Y139.283 E.06239
G1 X113.35 Y139.931 E.02875
G1 X105.771 Y139.931 E.33616
G1 X105.857 Y94.297 E2.02409
G1 X106.206 Y93.362 E.04427
M73 P3 R74
G1 X106.837 Y92.206 E.05842
G1 X107.627 Y91.151 E.05846
G1 X108.558 Y90.22 E.0584
G1 X109.613 Y89.43 E.05846
G1 X110.769 Y88.799 E.05842
G1 X111.704 Y88.45 E.04427
G1 X157.338 Y88.364 E2.02409
G1 X157.338 Y92.263 E.17294
M73 Q3 S76
G1 X157.338 Y95.883 E.16056
M204 S1000
G1 X157.338 Y95.883 F10800
G1 X157.694 Y96.293
M204 S800
;TYPE:External perimeter
G1 F720
G1 X156.706 Y96.309 E.04383
G1 X155.318 Y96.375 E.06163
G1 X153.922 Y96.484 E.06211
G1 X152.541 Y96.637 E.06163
G1 X151.203 Y96.827 E.05994
G1 X149.78 Y97.074 E.06406
G1 X148.414 Y97.357 E.06188
G1 X147.062 Y97.682 E.06168
G1 X145.717 Y98.05 E.06185
G1 X144.383 Y98.46 E.0619
G1 X143.063 Y98.912 E.06189
G1 X141.753 Y99.407 E.06211
G1 X140.463 Y99.941 E.06193
G1 X138.78 Y100.717 E.0822
G1 X137.94 Y101.129 E.0415
G1 X136.707 Y101.782 E.06189
G1 X135.5 Y102.47 E.06162
G1 X134.702 Y102.959 E.04151
G1 X133.14 Y103.968 E.08248
G1 X131.998 Y104.77 E.0619
G1 X131.381 Y105.234 E.03424
G1 X129.795 Y106.48 E.08946
