; generated by PrusaSlicer 2.7.3+linux-x64-GTK3 on 2024-06-06 at 20:45:34 UTC


;
;
; 

; external perimeters extrusion width = 0.45mm
; perimeters extrusion width = 0.45mm
; infill extrusion width = 0.45mm
; solid infill extrusion width = 0.45mm
; top infill extrusion width = 0.40mm
; first layer extrusion width = 0.42mm

M73 P0 R26
M73 Q0 S27
M201 X1000 Y1000 Z200 E8000 ; sets maximum accelerations, mm/sec^2
M203 X200 Y200 Z12 E120 ; sets maximum feedrates, mm / sec
M204 S1250 T1250 ; sets acceleration (S) and retract acceleration (R), mm/sec^2
M205 X8.00 Y8.00 Z0.40 E4.50 ; sets the jerk limits, mm/sec
M205 S0 T0 ; sets the minimum extruding and travel feed rate, mm/sec

; printing object FiberOpticCableHang3 id:0 copy 0
; stop printing object FiberOpticCableHang3 id:0 copy 0

;TYPE:Custom
M862.3 P "MK3SMMU3" ; printer model check
M862.1 P0.4 ; nozzle diameter check
M115 U3.13.3 ; tell printer latest fw version
G90 ; use absolute coordinates
M83 ; extruder relative mode
M104 S225 ; set extruder temp
M140 S85 ; set bed temp
M190 S85 ; wait for bed temp
M109 S225 ; wait for extruder temp
G28 W ; home all without mesh bed level
G80 X98.45 Y78.45 W53.1 H53.1 ; mesh bed levelling

; Send the filament type to the MMU unit.
; E stands for extruder number, F stands for filament type (0: default; 1:flex; 2: PVA)
M403 E0 F0
M403 E1 F0
M403 E2 F0
M403 E3 F0
M403 E4 F0


;go outside print area
G1 Y-3 F1000
G1 Z0.4 F1000
; select extruder
T4
; initial load
G1 X55 E29 F1073
G1 X5 E29 F1800
M73 P1 R26
M73 Q1 S27
G1 X55 E8 F2000
G1 Z0.3 F1000
G92 E0
G1 X240 E25 F2200
G1 Y-2 F1000
G1 X55 E25 F1400
G1 Z0.2 F1000
M73 P2 R26
M73 Q2 S26
G1 X5 E4 F1000
G92 E0


M221 S95
G92 E0

; Don't change E values below. Excessive value can damage the printer.

G21 ; set units to millimeters
G90 ; use absolute coordinates
M83 ; use relative distances for extrusion
T4
M104 S225 ; set temperature

M900 K0.08 ; Filament gcode LA 1.5
M900 K45 ; Filament gcode LA 1.0




M107
;LAYER_CHANGE
;Z:0.3
;HEIGHT:0.3
; printing object FiberOpticCableHang3 id:0 copy 0
G1 E-1 F2100
; stop printing object FiberOpticCableHang3 id:0 copy 0
G1 Z.5 F720
G1 X150.784 Y86.796 F10800
G1 Z.3 F720
G1 E1 F2100
; printing object FiberOpticCableHang3 id:0 copy 0
M204 S800
;TYPE:Perimeter
;WIDTH:0.42
G1 F720
G1 X150.136 Y86.807 E.02875
G1 X148.748 Y86.872 E.06163
G1 X147.329 Y86.984 E.06314
G1 X145.948 Y87.136 E.06162
G1 X144.599 Y87.328 E.06044
G1 X143.154 Y87.579 E.06505
G1 X141.776 Y87.864 E.06241
G1 X140.425 Y88.189 E.06163
G1 X139.053 Y88.564 E.06309
G1 X137.709 Y88.978 E.06238
G1 X136.394 Y89.428 E.06165
G1 X135.063 Y89.931 E.06311
G1 X133.76 Y90.471 E.06256
G1 X132.077 Y91.247 E.0822
G1 X131.219 Y91.667 E.04237
G1 X129.977 Y92.326 E.06236
G1 X128.77 Y93.014 E.06162
G1 X127.956 Y93.513 E.04235
G1 X126.381 Y94.53 E.08316
G1 X125.231 Y95.339 E.06237
G1 X124.613 Y95.803 E.03428
G1 X123.012 Y97.06 E.09028
G1 X121.942 Y97.974 E.06242
G1 X120.9 Y98.923 E.06251
G1 X119.89 Y99.902 E.06239
G1 X119.268 Y100.544 E.03965
G1 X117.965 Y101.952 E.08509
G1 X117.381 Y102.636 E.03989
G1 X116.173 Y104.119 E.08484
G1 X115.329 Y105.244 E.06238
G1 X114.521 Y106.395 E.06238
G1 X113.749 Y107.57 E.06236
G1 X113.023 Y108.755 E.06164
G1 X112.318 Y109.991 E.06311
G1 X111.66 Y111.234 E.06238
G1 X111.048 Y112.482 E.06165
G1 X110.453 Y113.805 E.06434
G1 X109.925 Y115.078 E.06113
G1 X109.434 Y116.378 E.06164
G1 X108.973 Y117.725 E.06315
G1 X108.564 Y119.053 E.06163
G1 X108.193 Y120.409 E.06236
G1 X107.861 Y121.793 E.06313
G1 X107.579 Y123.154 E.06165
G1 X107.337 Y124.539 E.06236
G1 X107.136 Y125.948 E.06313
G1 X106.982 Y127.346 E.06238
G1 X106.873 Y128.731 E.06162
G1 X106.807 Y130.136 E.06239
G1 X106.796 Y130.784 E.02875
G1 X99.217 Y130.784 E.33616
G1 X99.303 Y85.15 E2.02409
G1 X99.652 Y84.215 E.04427
M73 P3 R26
M73 Q3 S26
G1 X100.283 Y83.059 E.05842
G1 X101.073 Y82.004 E.05846
G1 X102.004 Y81.073 E.0584
G1 X103.059 Y80.283 E.05846
G1 X104.215 Y79.652 E.05842
G1 X105.15 Y79.303 E.04427
G1 X150.784 Y79.217 E2.02409
G1 X150.784 Y83.116 E.17294
G1 X150.784 Y86.736 E.16056
M204 S1000
G1 X150.784 Y86.736 F10800
G1 X151.14 Y87.146
M204 S800
;TYPE:External perimeter
G1 F720
G1 X150.152 Y87.162 E.04383
G1 X148.764 Y87.227 E.06163
G1 X147.368 Y87.337 E.06211
G1 X145.987 Y87.49 E.06163
G1 X144.649 Y87.68 E.05994
G1 X143.226 Y87.927 E.06406
G1 X141.86 Y88.21 E.06188
G1 X140.508 Y88.535 E.06168
G1 X139.163 Y88.903 E.06185
G1 X137.829 Y89.313 E.0619
G1 X136.509 Y89.765 E.06189
G1 X135.199 Y90.26 E.06211
G1 X133.909 Y90.794 E.06193
G1 X132.226 Y91.57 E.0822
G1 X131.386 Y91.982 E.0415
G1 X130.153 Y92.635 E.06189
G1 X128.946 Y93.323 E.06162
G1 X128.148 Y93.812 E.04151
G1 X126.586 Y94.821 E.08248
G1 X125.444 Y95.623 E.0619
G1 X124.827 Y96.087 E.03424
G1 X123.241 Y97.332 E.08943
G1 X122.18 Y98.239 E.06191
G1 X121.147 Y99.178 E.06192
G1 X120.145 Y100.149 E.06189
G1 X119.523 Y100.792 E.03968
G1 X118.236 Y102.183 E.08405
G1 X117.651 Y102.867 E.03992
G1 X116.458 Y104.333 E.08383
G1 X115.62 Y105.449 E.0619
G1 X114.818 Y106.59 E.06186
G1 X114.052 Y107.756 E.06188
G1 X113.326 Y108.941 E.06164
G1 X112.632 Y110.158 E.06214
G1 X111.982 Y111.386 E.06163
G1 X111.368 Y112.639 E.06189
M73 P3 R25
G1 X110.777 Y113.951 E.06383
G1 X110.258 Y115.204 E.06016
G1 X109.766 Y116.504 E.06165
G1 X109.313 Y117.829 E.06211
G1 X108.904 Y119.157 E.06163
G1 X108.536 Y120.503 E.06189
G1 X108.209 Y121.865 E.06213
G1 X107.926 Y123.231 E.06188
G1 X107.687 Y124.6 E.06164
G1 X107.49 Y125.987 E.06214
G1 X107.337 Y127.373 E.06185
G1 X107.228 Y128.759 E.06167
G1 X107.162 Y130.152 E.06186
G1 X107.146 Y131.14 E.04383
G1 X98.861 Y131.14 E.36748
G1 X98.948 Y85.085 E2.04276
G1 X99.328 Y84.067 E.0482
G1 X99.983 Y82.866 E.06068
M73 P4 R25
G1 X100.803 Y81.771 E.06068
G1 X101.771 Y80.803 E.06072
G1 X102.866 Y79.983 E.06068
G1 X104.067 Y79.328 E.06068
G1 X105.085 Y78.948 E.0482
G1 X151.14 Y78.861 E2.04276
G1 X151.14 Y83.116 E.18873
M73 Q4 S26
G1 X151.14 Y87.086 E.17609
M204 S1000
G1 E-1 F2100
G1 X151.14 Y87.086 Z.5 F10800
G1 X115.192 Y90.627
G1 Z.3 F720
G1 E1 F2100
M204 S800
;TYPE:Perimeter
G1 F720
G1 X115.287 Y91.22 E.02664
G1 X115.305 Y91.612 E.01741
G1 X115.262 Y92.176 E.02509
G1 X115.108 Y92.778 E.02756
G1 X114.815 Y93.423 E.03142
G1 X114.333 Y94.083 E.03625
G1 X113.713 Y94.629 E.03664
G1 X113.091 Y94.984 E.03177
G1 X112.42 Y95.212 E.03143
G1 X111.718 Y95.31 E.03144
G1 X111.011 Y95.275 E.0314
G1 X110.376 Y95.122 E.02897
G1 X109.677 Y94.815 E.03386
G1 X109.017 Y94.333 E.03625
G1 X108.535 Y93.802 E.03181
G1 X108.12 Y93.098 E.03625
G1 X107.888 Y92.42 E.03178
G1 X107.79 Y91.718 E.03144
G1 X107.825 Y91.011 E.0314
G1 X107.992 Y90.322 E.03145
G1 X108.285 Y89.678 E.03138
G1 X108.58 Y89.266 E.02248
G1 X108.864 Y88.917 E.01996
G1 X109.297 Y88.535 E.02561
G1 X109.902 Y88.166 E.03143
G1 X110.566 Y87.917 E.03145
G1 X111.373 Y87.791 E.03623
G1 X112.089 Y87.825 E.03179
G1 X112.881 Y88.03 E.03629
G1 X113.524 Y88.346 E.03178
G1 X114.087 Y88.77 E.03126
G1 X114.565 Y89.297 E.03156
G1 X114.934 Y89.902 E.03143
G1 X115.183 Y90.566 E.03145
M204 S1000
G1 X115.183 Y90.566 F10800
G1 X114.848 Y90.686
M204 S800
;TYPE:External perimeter
G1 F720
G1 X114.935 Y91.27 E.02619
G1 X114.95 Y91.589 E.01416
G1 X114.916 Y92.096 E.02254
G1 X114.763 Y92.689 E.02716
G1 X114.493 Y93.271 E.02846
G1 X114.048 Y93.87 E.0331
G1 X113.482 Y94.359 E.03318
G1 X112.919 Y94.672 E.02857
G1 X112.31 Y94.874 E.02846
G1 X111.674 Y94.957 E.02845
G1 X111.033 Y94.92 E.02848
G1 X110.465 Y94.777 E.02598
G1 X109.829 Y94.493 E.03089
G1 X109.231 Y94.048 E.03306
G1 X108.802 Y93.567 E.02859
G1 X108.429 Y92.922 E.03305
G1 X108.226 Y92.31 E.0286
G1 X108.143 Y91.674 E.02845
G1 X108.18 Y91.033 E.02848
G1 X108.337 Y90.411 E.02845
G1 X108.607 Y89.829 E.02846
G1 X109.049 Y89.233 E.03291
G1 X109.53 Y88.804 E.02859
G1 X110.083 Y88.472 E.02861
G1 X110.686 Y88.252 E.02847
G1 X111.423 Y88.143 E.03305
G1 X112.067 Y88.18 E.02861
G1 X112.787 Y88.373 E.03306
G1 X113.363 Y88.663 E.0286
G1 X113.869 Y89.051 E.02828
G1 X114.298 Y89.532 E.02859
G1 X114.628 Y90.083 E.02849
G1 X114.827 Y90.63 E.02582
M204 S1000
G1 E-1 F2100
G1 X114.827 Y90.63 Z.5 F10800
G1 X114.952 Y90.596
G1 X114.973 Y90.671
G1 X114.998 Y90.779
G1 X115.021 Y90.888
G1 X115.04 Y90.997
G1 X115.056 Y91.107
G1 X115.068 Y91.218
G1 X115.077 Y91.328
G1 X115.082 Y91.439
G1 X115.084 Y91.55
G1 X115.082 Y91.661
G1 X115.077 Y91.772
G1 X115.068 Y91.883
G1 X115.056 Y91.993
G1 X115.04 Y92.103
G1 X115.021 Y92.212
G1 X114.998 Y92.321
G1 X114.973 Y92.429
G1 X114.943 Y92.536
G1 X114.911 Y92.642
G1 X114.875 Y92.747
G1 X114.835 Y92.851
G1 X114.793 Y92.953
G1 X114.747 Y93.054
G1 X114.699 Y93.154
G1 X114.646 Y93.252
G1 X114.592 Y93.349
G1 X114.534 Y93.443
G1 X114.473 Y93.536
G1 X114.409 Y93.627
G1 X114.342 Y93.716
G1 X114.273 Y93.802
G1 X114.201 Y93.887
G1 X114.126 Y93.969
G1 X114.049 Y94.049
G1 X113.969 Y94.126
G1 X113.887 Y94.201
G1 X113.802 Y94.273
G1 X113.716 Y94.342
G1 X113.627 Y94.409
G1 X113.536 Y94.473
G1 X113.444 Y94.533
G1 X113.349 Y94.591
G1 X113.252 Y94.646
G1 X113.154 Y94.698
G1 X113.055 Y94.747
G1 X112.953 Y94.793
G1 X112.851 Y94.835
G1 X112.747 Y94.875
G1 X112.642 Y94.911
G1 X112.536 Y94.943
G1 X112.429 Y94.973
G1 X112.321 Y94.998
G1 X112.212 Y95.021
G1 X112.103 Y95.04
G1 X111.993 Y95.056
G1 X111.883 Y95.068
G1 X111.772 Y95.077
G1 X111.661 Y95.082
G1 X111.55 Y95.084
G1 X111.439 Y95.082
G1 X111.328 Y95.077
G1 X111.217 Y95.068
G1 X111.107 Y95.056
G1 X111.091 Y95.053
G1 X111.012 Y95.609
G1 Z.3 F720
G1 E1 F2100
M204 S800
;TYPE:Internal infill
;WIDTH:0.42
G1 F720
G1 X111.694 Y95.649 E.0303
G1 X112.445 Y95.552 E.03359
G1 X113.176 Y95.315 E.03408
G1 X113.431 Y95.175 E.0129
G1 X113.431 Y107.448 E.54437
G1 X114.612 Y105.682 E.09423
G1 X99.616 Y97.024 E.76804
G1 X99.611 Y99.621 E.11519
G1 X108.631 Y94.413 E.46198
G1 X109.458 Y95.078 E.04707
G1 X110.144 Y95.403 E.03367
G1 X110.8 Y95.571 E.03004
M204 S1000
G1 E-1 F2100
G1 X110.8 Y95.571 Z.5 F10800
G1 X118.041 Y101.371
G1 Z.3 F720
G1 E1 F2100
M204 S800
G1 F720
G1 X116.421 Y103.274 E.11085
G1 X99.586 Y112.994 E.86224
G1 X99.591 Y110.367 E.11652
M73 P5 R25
G1 X109.242 Y115.939 E.49429
G1 X110.203 Y113.543 E.1145
M73 Q5 S26
G1 X99.573 Y119.68 E.54443
G1 X99.578 Y117.039 E.11714
G1 X107.552 Y121.643 E.40841
G1 X107.524 Y121.769 E.00573
G1 X99.56 Y126.367 E.40789
G1 X99.565 Y123.711 E.11781
G1 X106.612 Y127.779 E.36091
G1 X106.527 Y129.024 E.05535
G1 X104.058 Y130.449 E.12644
G1 X101.863 Y130.449 E.09736
G1 X101.863 Y81.688 E2.16279
G1 X102.224 Y81.326 E.02268
M73 Q5 S25
G1 X103.24 Y80.566 E.05628
G1 X103.872 Y80.221 E.03194
M204 S1000
G1 E-1 F2100
G1 X103.872 Y80.221 Z.5 F10800
G1 X108.604 Y79.632
G1 Z.3 F720
G1 E1 F2100
M204 S800
G1 F720
G1 X111.104 Y79.627 E.11089
G1 X99.636 Y86.248 E.58735
G1 X99.638 Y85.21 E.04604
G1 X99.957 Y84.354 E.04052
G1 X100.162 Y83.98 E.01892
G1 X108.514 Y88.803 E.42778
G1 X109.122 Y88.245 E.0366
G1 X109.867 Y87.812 E.03822
G1 X110.585 Y87.565 E.03368
G1 X111.341 Y87.457 E.03387
G1 X112.124 Y87.491 E.03476
G1 X112.982 Y87.71 E.03928
G1 X113.431 Y87.928 E.02214
G1 X113.431 Y79.623 E.36837
G1 X115.743 Y79.618 E.10255
G1 X133.849 Y90.072 E.92734
G1 X136.569 Y89.014 E.12945
G1 X136.569 Y79.579 E.41849
G1 X138.805 Y79.575 E.09918
M73 P6 R25
G1 X150.449 Y86.298 E.59637
G1 X150.449 Y86.47 E.00763
M73 Q6 S25
G1 X148.137 Y86.584 E.10267
G1 X148.137 Y79.557 E.31168
G1 X145.924 Y79.561 E.09816
G1 X99.598 Y106.307 E2.37265
G1 X99.603 Y103.695 E.11585
G1 X111.604 Y110.624 E.61465
G1 X112.822 Y108.442 E.11084
M204 S1000
G1 E-1 F2100
G1 X112.822 Y108.442 Z.5 F10800
G1 X107.597 Y121.455
G1 Z.3 F720
G1 E1 F2100
M204 S800
G1 F720
G1 X107.647 Y121.247 E.00949
G1 X107.647 Y92.75 E1.26398
G1 X107.54 Y92.41 E.01581
G1 X107.45 Y91.653 E.03381
G1 X107.513 Y90.84 E.03617
G1 X107.647 Y90.353 E.0224
G1 X107.647 Y79.634 E.47544
G1 X105.21 Y79.638 E.10809
G1 X104.602 Y79.865 E.02879
G1 X127.764 Y93.238 E1.18629
G1 X130.784 Y91.519 E.15413
G1 X130.784 Y79.59 E.52911
G1 X134.317 Y79.583 E.15671
M73 P7 R25
G1 X115.496 Y90.45 E.96396
G1 X115.649 Y91.409 E.04307
M73 Q7 S25
G1 X115.591 Y92.242 E.03704
G1 X115.44 Y92.801 E.02568
G1 X122.625 Y96.95 E.36801
G1 X125 Y95.093 E.13372
G1 X125 Y79.601 E.68714
G1 X127.274 Y79.596 E.10086
G1 X141.227 Y87.652 E.71463
M73 P7 R24
G1 X142.353 Y87.403 E.05115
G1 X142.353 Y79.568 E.34752
G1 X144.853 Y79.563 E.11089
M204 S1000
G1 E-1 F2100
G1 X144.853 Y79.563 Z.5 F10800
G1 X150.449 Y81.128
G1 Z.3 F720
G1 E1 F2100
M204 S800
G1 F720
G1 X150.449 Y83.628 E.11089
G1 X144.635 Y86.984 E.29776
G1 X142.542 Y87.364 E.09435
M204 S1000
G1 E-1 F2100
G1 X142.542 Y87.364 Z.5 F10800
G1 X124.807 Y79.601
G1 Z.3 F720
G1 E1 F2100
M204 S800
G1 F720
G1 X122.711 Y79.605 E.09297
G1 X99.624 Y92.935 E1.18245
G1 X99.628 Y90.352 E.11457
G1 X118.273 Y101.116 E.95492
G1 X119.216 Y100.117 E.06093
G1 X119.216 Y79.612 E.9095
G1 X121.716 Y79.607 E.11089
M204 S1000
;LAYER_CHANGE
;Z:0.6
;HEIGHT:0.3
;BEFORE_LAYER_CHANGE
G92 E0.0
;0.6


;WIPE_START
G1 F8640
G1 X119.216 Y79.612 E-.57726
G1 X119.216 Y81.443 E-.42274
;WIPE_END
G1 Z.6 F720
;AFTER_LAYER_CHANGE
;0.6
M140 S90 ; set bed temperature
G1 Z.8
G1 X150.939 Y86.949 F10800
G1 Z.6 F720
M73 P8 R24
G1 E1 F2100
M204 S800
;TYPE:Perimeter
;WIDTH:0.45
G1 F2479.653
G1 X150.14 Y86.962 E.03843
G1 F2518.671
G1 X148.758 Y87.027 E.06654
G1 F2577.018
G1 X148.74 Y87.028 E.00087
G1 F2625.718
G1 X147.361 Y87.137 E.06653
G1 F2662.668
G1 X147.343 Y87.138 E.00087
G1 F2687.067
G1 X145.968 Y87.29 E.06654
G1 F2698.852
G1 X144.58 Y87.487 E.06743
G1 X143.182 Y87.731 E.06826
G1 X141.931 Y87.991 E.06145
G1 X140.447 Y88.343 E.07336
G1 X139.095 Y88.713 E.06742
G1 X137.773 Y89.12 E.06653
G1 X136.447 Y89.574 E.06741
G1 X135.136 Y90.069 E.0674
G1 X133.841 Y90.605 E.06741
G1 X132.564 Y91.181 E.06738
G1 X131.305 Y91.798 E.06743
G1 X130.16 Y92.404 E.06231
G1 X128.85 Y93.146 E.07241
G1 X127.654 Y93.879 E.06747
G1 X126.468 Y94.659 E.06827
G1 X125.422 Y95.394 E.06149
G1 F2700
G1 X124.201 Y96.306 E.0733
G1 X123.107 Y97.183 E.06744
G1 X121.678 Y98.424 E.09103
G1 X121.005 Y99.037 E.04378
G1 X120.28 Y99.739 E.04854
G1 X119.023 Y101.02 E.08632
G1 X117.828 Y102.352 E.08607
G1 X117.171 Y103.121 E.04865
G1 X116.295 Y104.215 E.06741
G1 X115.454 Y105.336 E.0674
G1 X114.648 Y106.484 E.06746
G1 X113.815 Y107.758 E.07321
G1 X113.147 Y108.849 E.06153
G1 X112.462 Y110.051 E.06654
G1 X111.798 Y111.305 E.06825
G1 X111.181 Y112.565 E.06748
G1 X110.565 Y113.939 E.07242
G1 X110.069 Y115.136 E.06232
G1 X109.574 Y116.447 E.0674
G1 X109.126 Y117.756 E.06654
G1 X108.708 Y119.113 E.06829
G1 X108.343 Y120.447 E.06652
G1 X108.016 Y121.81 E.06742
G1 X107.728 Y123.2 E.06827
G1 F2689.57
G1 X107.49 Y124.562 E.0665
G1 F2669.894
G1 X107.487 Y124.58 E.00088
G1 F2640.096
G1 X107.292 Y125.95 E.06656
G1 F2600.823
M73 Q8 S25
G1 X107.29 Y125.968 E.00087
G1 F2553.988
G1 X107.139 Y127.336 E.0662
G1 F2519.453
G1 X107.028 Y128.74 E.06774
G1 F2502.178
G1 X106.962 Y130.14 E.06741
G1 F2467.636
G1 X106.949 Y130.939 E.03843
G1 X99.062 Y130.939 E.37934
G1 F2700
G1 X99.148 Y85.122 E2.20364
G1 F2558.477
G1 X99.511 Y84.15 E.0499
G1 F2585.351
G1 X100.152 Y82.975 E.06438
G1 F2651.286
G1 X100.955 Y81.902 E.06446
G1 F2690.285
G1 X101.902 Y80.955 E.06441
G1 F2700
G1 X102.975 Y80.152 E.06446
G1 X104.15 Y79.511 E.06438
G1 X105.122 Y79.148 E.0499
G1 X150.939 Y79.062 E2.20364
G1 F2479.851
G1 X150.939 Y83.116 E.19498
G1 X150.939 Y86.889 E.18147
M204 S1000
G1 X150.939 Y86.889 F10800
G1 X151.325 Y87.329
M204 S800
;TYPE:External perimeter
G1 F1500
G1 X150.158 Y87.347 E.05614
G1 X148.776 Y87.412 E.06654
G1 X148.77 Y87.412 E.00029
G1 X147.391 Y87.521 E.06653
G1 X147.385 Y87.522 E.00029
G1 X146.01 Y87.673 E.06653
G1 X144.635 Y87.869 E.0668
G1 X143.26 Y88.109 E.06713
G1 X142.02 Y88.366 E.06091
G1 X140.549 Y88.715 E.07271
G1 X139.209 Y89.082 E.06682
G1 X137.887 Y89.489 E.06653
G1 X136.572 Y89.939 E.06685
G1 X135.273 Y90.43 E.06679
G1 X133.989 Y90.961 E.06683
G1 X132.723 Y91.533 E.06682
G1 X131.475 Y92.144 E.06683
G1 X130.355 Y92.737 E.06095
G1 X129.041 Y93.482 E.07265
G1 X127.856 Y94.208 E.06684
G1 X126.689 Y94.974 E.06714
G1 X125.653 Y95.703 E.06093
G1 X124.442 Y96.607 E.07268
