; generated by PrusaSlicer 2.7.3+linux-x64-GTK3 on 2024-05-31 at 20:39:49 UTC


;
;
; 

; external perimeters extrusion width = 0.45mm
; perimeters extrusion width = 0.45mm
; infill extrusion width = 0.45mm
; solid infill extrusion width = 0.45mm
; top infill extrusion width = 0.40mm
; first layer extrusion width = 0.42mm

M73 P0 R28
M73 Q0 S29
M201 X1000 Y1000 Z200 E8000 ; sets maximum accelerations, mm/sec^2
M203 X200 Y200 Z12 E120 ; sets maximum feedrates, mm / sec
M204 S1250 T1250 ; sets acceleration (S) and retract acceleration (R), mm/sec^2
M205 X8.00 Y8.00 Z0.40 E4.50 ; sets the jerk limits, mm/sec
M205 S0 T0 ; sets the minimum extruding and travel feed rate, mm/sec

; printing object FiberOpticCableHang1 id:0 copy 0
; stop printing object FiberOpticCableHang1 id:0 copy 0

;TYPE:Custom
M862.3 P "MK3SMMU3" ; printer model check
M862.1 P0.4 ; nozzle diameter check
M115 U3.13.3 ; tell printer latest fw version
G90 ; use absolute coordinates
M83 ; extruder relative mode
M104 S225 ; set extruder temp
M140 S85 ; set bed temp
M190 S85 ; wait for bed temp
M109 S225 ; wait for extruder temp
G28 W ; home all without mesh bed level
G80 X113.736 Y82.5 W21.0477 H45 ; mesh bed levelling

; Send the filament type to the MMU unit.
; E stands for extruder number, F stands for filament type (0: default; 1:flex; 2: PVA)
M403 E0 F0
M403 E1 F0
M403 E2 F0
M403 E3 F0
M403 E4 F0


;go outside print area
G1 Y-3 F1000
G1 Z0.4 F1000
; select extruder
T4
; initial load
G1 X55 E29 F1073
G1 X5 E29 F1800
M73 P1 R28
M73 Q1 S29
G1 X55 E8 F2000
G1 Z0.3 F1000
G92 E0
G1 X240 E25 F2200
G1 Y-2 F1000
M73 P1 R27
M73 Q1 S28
G1 X55 E25 F1400
G1 Z0.2 F1000
M73 P2 R27
G1 X5 E4 F1000
G92 E0


M221 S95
G92 E0

; Don't change E values below. Excessive value can damage the printer.

G21 ; set units to millimeters
G90 ; use absolute coordinates
M83 ; use relative distances for extrusion
T4
M104 S225 ; set temperature

M900 K0.08 ; Filament gcode LA 1.5
M900 K45 ; Filament gcode LA 1.0




M107
;LAYER_CHANGE
;Z:0.3
;HEIGHT:0.3
; printing object FiberOpticCableHang1 id:0 copy 0
G1 E-1 F2100
M73 Q2 S28
; stop printing object FiberOpticCableHang1 id:0 copy 0
G1 Z.5 F720
G1 X127.526 Y118.622 F10800
G1 Z.3 F720
G1 E1 F2100
; printing object FiberOpticCableHang1 id:0 copy 0
M204 S800
;TYPE:Perimeter
;WIDTH:0.42
G1 F720
G1 X131.668 Y118.621 E.18372
G1 X132.036 Y118.533 E.01678
G1 X132.273 Y118.601 E.01094
G1 X133.346 Y121.549 E.13915
G1 X132.099 Y122.003 E.05886
G1 X131.977 Y122.058 E.00594
G1 X131.763 Y122.224 E.01201
G1 X131.607 Y122.219 E.00692
G1 X131.364 Y122.271 E.01102
G1 X126.057 Y124.202 E.25049
G1 X124.026 Y118.623 E.26334
G1 X127.466 Y118.622 E.15258
M204 S1000
G1 E-1 F2100
G1 X127.466 Y118.622 Z.5 F10800
G1 X131.313 Y122.667
G1 Z.3 F720
G1 E1 F2100
M204 S800
G1 F720
G1 X125.844 Y124.658 E.25815
G1 X123.525 Y118.285 E.30081
G1 X123.499 Y118.268 E.00138
G1 X131.668 Y118.266 E.36233
G1 X131.955 Y118.182 E.01326
G1 X132.036 Y118.049 E.00691
G1 X132.116 Y118.182 E.00688
G1 X132.241 Y118.24 E.00611
G1 X132.53 Y118.266 E.01287
G1 X132.573 Y118.384 E.00557
G1 X133.802 Y121.761 E.1594
G1 X132.221 Y122.337 E.07463
G1 X132.01 Y122.478 E.01126
G1 X131.93 Y122.683 E.00976
G1 X131.738 Y122.577 E.00973
G1 X131.485 Y122.605 E.01129
G1 X131.369 Y122.647 E.00547
M204 S1000
G1 E-1 F2100
G1 X131.369 Y122.647 Z.5 F10800
G1 X131.442 Y122.902
G1 X131.902 Y117.967
G1 X131.902 Y107.771
G1 X131.003 Y108.027
G1 X125.612 Y109.699
G1 X125.504 Y109.403
G1 X126.057 Y109.202
G1 Z.3 F720
G1 E1 F2100
M204 S800
G1 F720
G1 X124.026 Y103.623 E.26334
G1 X131.668 Y103.621 E.33896
G1 X132.036 Y103.533 E.01678
G1 X132.273 Y103.601 E.01094
G1 X133.346 Y106.549 E.13915
G1 X132.099 Y107.003 E.05886
G1 X131.977 Y107.058 E.00594
G1 X131.763 Y107.224 E.01201
G1 X131.607 Y107.219 E.00692
G1 X131.364 Y107.271 E.01102
G1 X126.113 Y109.182 E.24785
M204 S1000
G1 E-1 F2100
G1 X126.113 Y109.182 Z.5 F10800
G1 X131.93 Y107.683
G1 Z.3 F720
G1 E1 F2100
M204 S800
G1 F720
G1 X131.738 Y107.577 E.00973
G1 X131.485 Y107.605 E.01129
G1 X125.844 Y109.658 E.26626
G1 X123.525 Y103.285 E.30081
G1 X123.499 Y103.268 E.00138
G1 X131.668 Y103.266 E.36233
G1 X131.955 Y103.182 E.01326
G1 X132.036 Y103.049 E.00691
G1 X132.116 Y103.182 E.00688
G1 X132.241 Y103.24 E.00611
G1 X132.53 Y103.266 E.01287
G1 X133.802 Y106.761 E.16497
G1 X132.221 Y107.337 E.07463
G1 X132.01 Y107.478 E.01126
G1 X131.952 Y107.627 E.00709
M204 S1000
G1 E-1 F2100
G1 X131.952 Y107.627 Z.5 F10800
G1 X131.902 Y107.771
G1 X131.902 Y92.771
G1 X131.003 Y93.027
G1 X125.612 Y94.699
G1 X125.504 Y94.403
G1 X126.057 Y94.202
G1 Z.3 F720
G1 E1 F2100
M204 S800
G1 F720
G1 X124.026 Y88.623 E.26334
G1 X131.668 Y88.621 E.33896
G1 X132.036 Y88.533 E.01678
G1 X132.273 Y88.601 E.01094
G1 X133.346 Y91.549 E.13915
M73 P3 R27
G1 X132.099 Y92.003 E.05886
G1 X131.977 Y92.058 E.00594
G1 X131.763 Y92.224 E.01201
G1 X131.607 Y92.219 E.00692
G1 X131.364 Y92.271 E.01102
G1 X126.113 Y94.182 E.24785
M204 S1000
G1 E-1 F2100
G1 X126.113 Y94.182 Z.5 F10800
G1 X131.558 Y92.597
G1 Z.3 F720
G1 E1 F2100
M204 S800
G1 F720
G1 X131.485 Y92.605 E.00326
G1 X125.844 Y94.658 E.26626
G1 X123.525 Y88.285 E.30081
M73 Q3 S28
G1 X123.499 Y88.268 E.00138
G1 X131.668 Y88.266 E.36233
G1 X131.955 Y88.182 E.01326
G1 X132.036 Y88.049 E.00691
G1 X132.116 Y88.182 E.00688
G1 X132.241 Y88.24 E.00611
G1 X132.53 Y88.266 E.01287
G1 X133.802 Y91.761 E.16497
G1 X132.221 Y92.337 E.07463
G1 X132.01 Y92.478 E.01126
G1 X131.93 Y92.683 E.00976
G1 X131.738 Y92.577 E.00973
G1 X131.617 Y92.59 E.0054
M204 S1000
G1 X131.617 Y92.59 F10800
G1 X131.691 Y92.93
M204 S800
;TYPE:External perimeter
;WIDTH:0.423896
G1 F720
G1 X131.806 Y92.99 E.00582
;WIDTH:0.432191
G1 X131.852 Y93.106 E.00572
;WIDTH:0.433596
G1 X131.852 Y102.748 E.44402
G1 X131.722 Y102.902 E.00928
;WIDTH:0.42
G1 X123.537 Y102.912 E.36304
;WIDTH:0.431107
G1 X116.331 Y102.919 E.3296
;WIDTH:0.433874
G1 X115.881 Y102.989 E.02099
G1 X115.442 Y103.149 E.02153
;WIDTH:0.429474
G1 X115.156 Y103.296 E.01464
G1 X114.814 Y103.135 E.01721
;WIDTH:0.432191
G1 X114.72 Y102.981 E.00828
G1 X114.72 Y92.151 E.49683
G1 X114.838 Y91.986 E.00931
;WIDTH:0.42904
G1 X114.995 Y91.993 E.00715
;WIDTH:0.429475
G1 X115.442 Y92.251 E.0235
;WIDTH:0.430303
G1 X115.915 Y92.421 E.02294
G1 X116.379 Y92.478 E.02134
;WIDTH:0.429551
G1 X116.812 Y92.448 E.01977
;WIDTH:0.430268
G1 X117.232 Y92.336 E.01984
;WIDTH:0.434104
G1 X117.629 Y92.145 E.02032
;WIDTH:0.443842
G1 X117.998 Y91.865 E.02192
;WIDTH:0.447928
G1 X118.328 Y91.437 E.02585
G1 X118.053 Y91.399 E.01328
G1 X117.859 Y91.438 E.00947
G1 X117.678 Y91.649 E.0133
;WIDTH:0.444185
G1 X117.379 Y91.865 E.01747
;WIDTH:0.432655
G1 X117.046 Y92.015 E.01678
;WIDTH:0.430011
G1 X116.691 Y92.098 E.01663
;WIDTH:0.429529
G1 X116.327 Y92.112 E.01659
G1 X115.967 Y92.057 E.01659
G1 X115.624 Y91.935 E.01658
G1 X115.222 Y91.673 E.02185
;WIDTH:0.42904
G1 X115.001 Y91.448 E.01434
;WIDTH:0.442898
G1 X114.716 Y91.022 E.0242
;WIDTH:0.486751
G1 X114.693 Y90.611 E.02169
;WIDTH:0.530604
G1 X114.67 Y90.2 E.02394
G1 X114.691 Y89.803 E.02312
;WIDTH:0.490033
G1 X114.711 Y89.407 E.02105
;WIDTH:0.449463
G1 X114.746 Y89.298 E.0055
;WIDTH:0.446839
G1 X115.064 Y88.869 E.02547
;WIDTH:0.429474
G1 X115.339 Y88.63 E.01659
G1 X115.66 Y88.449 E.01678
G1 X116.149 Y88.298 E.0233
;WIDTH:0.430269
G1 X116.345 Y88.285 E.00896
;WIDTH:0.431107
G1 X123.023 Y88.284 E.30545
G1 X123.19 Y88.407 E.00949
;WIDTH:0.42
G1 X125.632 Y95.114 E.31659
G1 X131.607 Y92.939 E.28203
G1 X131.632 Y92.936 E.00112
M204 S1000
G1 E-1 F2100
G1 X131.632 Y92.936 Z.5 F10800
G1 X132.144 Y92.909
G1 X132.13 Y107.647
G1 X132.154 Y108.09
G1 X131.852 Y108.106
G1 Z.3 F720
G1 E1 F2100
M204 S800
;WIDTH:0.433596
G1 F720
G1 X131.852 Y117.748 E.44402
G1 X131.722 Y117.902 E.00928
;WIDTH:0.42
G1 X123.537 Y117.912 E.36304
;WIDTH:0.431107
G1 X116.331 Y117.919 E.3296
;WIDTH:0.433874
G1 X115.881 Y117.989 E.02099
G1 X115.442 Y118.149 E.02153
;WIDTH:0.429474
G1 X114.995 Y118.407 E.0235
;WIDTH:0.428453
G1 X114.838 Y118.414 E.00714
;WIDTH:0.432191
G1 X114.72 Y118.249 E.00931
G1 X114.72 Y107.151 E.50912
G1 X114.857 Y106.979 E.01009
;WIDTH:0.429041
G1 X114.995 Y106.993 E.00631
;WIDTH:0.429474
G1 X115.442 Y107.251 E.0235
;WIDTH:0.430303
G1 X115.915 Y107.421 E.02294
G1 X116.379 Y107.478 E.02134
;WIDTH:0.42955
G1 X116.812 Y107.448 E.01977
;WIDTH:0.430266
G1 X117.232 Y107.336 E.01984
;WIDTH:0.434104
G1 X117.629 Y107.145 E.02032
;WIDTH:0.443841
G1 X117.998 Y106.865 E.02192
;WIDTH:0.447928
G1 X118.328 Y106.437 E.02585
G1 X118.053 Y106.399 E.01328
G1 X117.859 Y106.438 E.00947
G1 X117.678 Y106.649 E.0133
;WIDTH:0.444184
G1 X117.379 Y106.865 E.01747
;WIDTH:0.432655
G1 X117.046 Y107.015 E.01678
;WIDTH:0.43001
G1 X116.691 Y107.098 E.01663
;WIDTH:0.429529
G1 X116.327 Y107.112 E.01659
;WIDTH:0.430303
G1 X115.984 Y107.062 E.01582
G1 X115.624 Y106.935 E.01742
;WIDTH:0.429474
G1 X115.222 Y106.673 E.02185
;WIDTH:0.429041
G1 X115.001 Y106.448 E.01434
;WIDTH:0.442898
G1 X114.716 Y106.022 E.0242
;WIDTH:0.486751
G1 X114.693 Y105.611 E.02169
;WIDTH:0.530604
G1 X114.67 Y105.2 E.02394
G1 X114.691 Y104.803 E.02312
;WIDTH:0.490033
G1 X114.711 Y104.407 E.02105
;WIDTH:0.449462
G1 X114.746 Y104.298 E.0055
;WIDTH:0.446837
G1 X115.056 Y103.878 E.0249
;WIDTH:0.429472
G1 X115.41 Y103.589 E.02081
G1 X115.66 Y103.449 E.01305
G1 X116.149 Y103.298 E.0233
;WIDTH:0.430268
G1 X116.345 Y103.285 E.00896
;WIDTH:0.431107
G1 X123.023 Y103.284 E.30545
G1 X123.19 Y103.407 E.00949
;WIDTH:0.42
G1 X125.632 Y110.114 E.31659
G1 X131.607 Y107.939 E.28203
G1 X131.691 Y107.93 E.00375
;WIDTH:0.423896
G1 X131.806 Y107.99 E.00582
;WIDTH:0.432191
G1 X131.83 Y108.05 E.00296
M204 S1000
G1 X131.83 Y108.05 F10800
G1 X132.224 Y107.838
M204 S800
G1 F720
G1 X132.22 Y117.732 E.45389
G1 X132.308 Y117.882 E.00798
;WIDTH:0.42
G1 X132.779 Y117.91 E.02093
G1 X132.907 Y118.263 E.01665
G1 X134.258 Y121.974 E.17517
G1 X132.318 Y122.682 E.0916
M73 P4 R27
;WIDTH:0.423896
G1 X132.224 Y122.838 E.00817
;WIDTH:0.432191
G1 X132.22 Y127.084 E.19479
G1 X131.852 Y127.084 E.01688
G1 X131.852 Y123.106 E.18249
G1 X131.806 Y122.99 E.00572
;WIDTH:0.423896
G1 X131.691 Y122.93 E.00582
;WIDTH:0.42
G1 X131.607 Y122.939 E.00375
G1 X125.632 Y125.114 E.28203
G1 X123.19 Y118.407 E.31659
;WIDTH:0.431107
G1 X123.023 Y118.284 E.00949
M73 Q4 S28
G1 X116.345 Y118.285 E.30545
;WIDTH:0.43027
G1 X116.149 Y118.298 E.00896
;WIDTH:0.429474
G1 X115.66 Y118.449 E.0233
G1 X115.339 Y118.63 E.01678
G1 X115.035 Y118.903 E.01861
;WIDTH:0.451732
G1 X114.729 Y119.322 E.02507
;WIDTH:0.48217
G1 X114.704 Y119.572 E.01309
;WIDTH:0.512608
G1 X114.679 Y119.822 E.01405
G1 X114.679 Y120.578 E.04226
G1 X114.707 Y120.827 E.01401
;WIDTH:0.476371
G1 X114.735 Y121.076 E.01288
;WIDTH:0.440135
G1 X115.035 Y121.497 E.02423
;WIDTH:0.431441
G1 X115.31 Y121.751 E.01714
G1 X115.624 Y121.935 E.01666
;WIDTH:0.429529
G1 X115.967 Y122.057 E.01658
G1 X116.327 Y122.112 E.01659
G1 X116.691 Y122.098 E.01659
;WIDTH:0.43001
G1 X117.046 Y122.015 E.01663
;WIDTH:0.432655
G1 X117.379 Y121.865 E.01678
;WIDTH:0.444184
G1 X117.678 Y121.649 E.01747
;WIDTH:0.447926
G1 X117.859 Y121.438 E.0133
G1 X118.053 Y121.399 E.00947
G1 X118.328 Y121.437 E.01328
G1 X117.998 Y121.865 E.02585
;WIDTH:0.44384
G1 X117.629 Y122.145 E.02192
;WIDTH:0.434104
G1 X117.232 Y122.336 E.02032
;WIDTH:0.43031
G1 X116.812 Y122.448 E.01984
G1 X116.345 Y122.48 E.02136
G1 X115.848 Y122.402 E.02296
;WIDTH:0.431441
G1 X115.156 Y122.103 E.03451
G1 X114.815 Y122.265 E.01728
;WIDTH:0.432191
G1 X114.72 Y122.419 E.0083
G1 X114.72 Y127.084 E.21401
G1 X114.352 Y127.084 E.01688
G1 X114.346 Y121.712 E.24644
;WIDTH:0.443277
G1 X114.355 Y121.137 E.02718
;WIDTH:0.477942
G1 X114.298 Y120.89 E.01308
;WIDTH:0.512608
G1 X114.241 Y120.644 E.01412
;WIDTH:0.530604
G1 X114.205 Y120.222 E.02463
G1 X114.241 Y119.756 E.02718
;WIDTH:0.512609
G1 X114.3 Y119.467 E.01649
;WIDTH:0.479724
G1 X114.359 Y119.178 E.01528
;WIDTH:0.446839
G1 X114.352 Y118.249 E.04432
;WIDTH:0.432191
G1 X114.346 Y106.652 E.53202
;WIDTH:0.443273
G1 X114.355 Y106.137 E.02434
;WIDTH:0.47794
G1 X114.298 Y105.89 E.01308
;WIDTH:0.512608
G1 X114.241 Y105.644 E.01412
;WIDTH:0.530604
G1 X114.205 Y105.222 E.02463
G1 X114.241 Y104.756 E.02718
;WIDTH:0.512609
G1 X114.3 Y104.467 E.01649
;WIDTH:0.479723
G1 X114.359 Y104.178 E.01528
;WIDTH:0.446837
G1 X114.346 Y103.584 E.02834
;WIDTH:0.432191
G1 X114.346 Y91.652 E.54738
;WIDTH:0.443273
G1 X114.355 Y91.137 E.02434
;WIDTH:0.47794
G1 X114.298 Y90.89 E.01308
;WIDTH:0.512608
G1 X114.241 Y90.644 E.01412
;WIDTH:0.530604
G1 X114.205 Y90.222 E.02463
G1 X114.241 Y89.756 E.02718
;WIDTH:0.512609
G1 X114.3 Y89.467 E.01649
;WIDTH:0.479724
G1 X114.359 Y89.178 E.01528
;WIDTH:0.446839
G1 X114.352 Y88.249 E.04432
;WIDTH:0.432191
G1 X114.352 Y82.916 E.24465
G1 X114.72 Y82.916 E.01688
G1 X114.72 Y88.249 E.24465
G1 X114.838 Y88.414 E.00931
;WIDTH:0.428453
G1 X114.995 Y88.407 E.00714
;WIDTH:0.429474
G1 X115.442 Y88.149 E.0235
;WIDTH:0.433874
G1 X115.881 Y87.989 E.02153
G1 X116.331 Y87.919 E.02099
;WIDTH:0.431107
G1 X123.537 Y87.912 E.3296
;WIDTH:0.42
G1 X131.722 Y87.902 E.36304
;WIDTH:0.433596
G1 X131.852 Y87.748 E.00928
G1 X131.852 Y82.916 E.22252
;WIDTH:0.432191
G1 X132.22 Y82.916 E.01688
G1 X132.22 Y87.732 E.22094
G1 X132.308 Y87.882 E.00798
;WIDTH:0.42
G1 X132.779 Y87.91 E.02093
G1 X134.258 Y91.974 E.19182
G1 X132.318 Y92.682 E.0916
;WIDTH:0.423896
G1 X132.224 Y92.838 E.00817
;WIDTH:0.432191
G1 X132.22 Y102.732 E.45389
G1 X132.308 Y102.882 E.00798
;WIDTH:0.42
G1 X132.779 Y102.91 E.02093
G1 X134.258 Y106.974 E.19182
G1 X132.318 Y107.682 E.0916
;WIDTH:0.423896
G1 X132.255 Y107.787 E.00549
M204 S1000
G1 E-1 F2100
G1 X132.255 Y107.787 Z.5 F10800
G1 X131.902 Y107.787
G1 X131.902 Y117.967
G1 X131.169 Y118.034
G1 X115.509 Y118.17
G1 X114.689 Y118.641
G1 X114.728 Y118.709
G1 Z.3 F720
G1 E1 F2100
M204 S800
;TYPE:Perimeter
;WIDTH:0.427473
G1 F720
G1 X114.66 Y118.748 E.00355
G1 X114.728 Y118.788 E.00357
G1 X114.75 Y118.748 E.00207
M204 S1000
G1 E-1 F2100
G1 X114.75 Y118.748 Z.5 F10800
G1 X114.791 Y121.764
G1 Z.3 F720
G1 E1 F2100
M204 S800
;WIDTH:0.540231
G1 F720
G1 X114.732 Y121.764 E.0035
G1 X114.702 Y121.816 E.00356
G1 X114.732 Y121.867 E.00351
G1 X114.791 Y121.867 E.0035
G1 X114.821 Y121.816 E.00351
M204 S1000
G1 E-1 F2100
G1 X114.821 Y121.816 Z.5 F10800
G1 X114.728 Y106.612
G1 Z.3 F720
G1 E1 F2100
M204 S800
;WIDTH:0.427471
G1 F720
G1 X114.66 Y106.652 E.00357
G1 X114.728 Y106.691 E.00355
G1 X114.75 Y106.652 E.00203
M204 S1000
G1 E-1 F2100
G1 X114.75 Y106.652 Z.5 F10800
G1 X114.791 Y103.533
G1 Z.3 F720
G1 E1 F2100
M204 S800
;WIDTH:0.540233
G1 F720
G1 X114.732 Y103.533 E.0035
G1 X114.702 Y103.584 E.00351
G1 X114.732 Y103.636 E.00356
G1 X114.791 Y103.636 E.0035
G1 X114.821 Y103.584 E.00356
M204 S1000
G1 E-1 F2100
G1 X114.821 Y103.584 Z.5 F10800
G1 X114.728 Y91.612
G1 Z.3 F720
G1 E1 F2100
M204 S800
;WIDTH:0.427471
G1 F720
G1 X114.66 Y91.652 E.00357
G1 X114.728 Y91.691 E.00355
G1 X114.75 Y91.652 E.00203
M204 S1000
G1 E-1 F2100
G1 X114.75 Y91.652 Z.5 F10800
G1 X114.728 Y88.709
G1 Z.3 F720
G1 E1 F2100
M204 S800
;WIDTH:0.427473
G1 F720
G1 X114.66 Y88.748 E.00355
G1 X114.728 Y88.788 E.00357
G1 X114.75 Y88.748 E.00207
M204 S1000
G1 E-1 F2100
G1 X114.75 Y88.748 Z.5 F10800
G1 X114.923 Y88.857
G1 X114.962 Y88.795
G1 X115.291 Y88.592
G1 X115.619 Y88.412
G1 X115.974 Y88.238
G1 X116.702 Y88.233
G1 X123.188 Y88.233
G1 X131.451 Y88.781
G1 Z.3 F720
G1 E1 F2100
M204 S800
;TYPE:Solid infill
;WIDTH:0.428203
G1 F720
G1 X132.58 Y89.91 E.07245
M204 S1000
G1 X132.58 Y89.91 F10800
G1 X132.874 Y90.719
M204 S800
G1 F720
G1 X130.936 Y88.781 E.12437
M204 S1000
G1 X130.936 Y88.781 F10800
M73 Q4 S27
G1 X130.422 Y88.782
M204 S800
G1 F720
G1 X133.106 Y91.466 E.17224
M204 S1000
G1 X133.106 Y91.466 F10800
M73 P4 R26
G1 X132.729 Y91.603
M204 S800
G1 F720
G1 X129.908 Y88.782 E.18103
M204 S1000
G1 X129.908 Y88.782 F10800
G1 X129.393 Y88.782
M204 S800
G1 F720
G1 X132.352 Y91.741 E.18989
M204 S1000
G1 X132.352 Y91.741 F10800
M73 P5 R26
G1 X131.98 Y91.883
M204 S800
G1 F720
G1 X128.879 Y88.782 E.199
M204 S1000
G1 X128.879 Y88.782 F10800
G1 X128.364 Y88.782
M204 S800
G1 F720
G1 X131.647 Y92.064 E.21065
