; generated by PrusaSlicer 2.7.3+linux-x64-GTK3 on 2024-05-31 at 19:36:16 UTC


;
;
; 

; external perimeters extrusion width = 0.45mm
; perimeters extrusion width = 0.45mm
; infill extrusion width = 0.45mm
; solid infill extrusion width = 0.45mm
; top infill extrusion width = 0.40mm
; first layer extrusion width = 0.42mm

M73 P0 R36
M73 Q0 S36
M201 X1000 Y1000 Z200 E8000 ; sets maximum accelerations, mm/sec^2
M203 X200 Y200 Z12 E120 ; sets maximum feedrates, mm / sec
M204 S1250 T1250 ; sets acceleration (S) and retract acceleration (R), mm/sec^2
M205 X8.00 Y8.00 Z0.40 E4.50 ; sets the jerk limits, mm/sec
M205 S0 T0 ; sets the minimum extruding and travel feed rate, mm/sec

; printing object FiberOpticCableHang2 id:0 copy 0
; stop printing object FiberOpticCableHang2 id:0 copy 0

;TYPE:Custom
M862.3 P "MK3SMMU3" ; printer model check
M862.1 P0.4 ; nozzle diameter check
M115 U3.13.3 ; tell printer latest fw version
G90 ; use absolute coordinates
M83 ; extruder relative mode
M104 S225 ; set extruder temp
M140 S85 ; set bed temp
M190 S85 ; wait for bed temp
M109 S225 ; wait for extruder temp
G28 W ; home all without mesh bed level
G80 X77.3539 Y57.3265 W95.2922 H95.347 ; mesh bed levelling

; Send the filament type to the MMU unit.
; E stands for extruder number, F stands for filament type (0: default; 1:flex; 2: PVA)
M403 E0 F0
M403 E1 F0
M403 E2 F0
M403 E3 F0
M403 E4 F0


;go outside print area
G1 Y-3 F1000
G1 Z0.4 F1000
M73 P0 R35
; select extruder
T4
; initial load
G1 X55 E29 F1073
G1 X5 E29 F1800
G1 X55 E8 F2000
G1 Z0.3 F1000
G92 E0
G1 X240 E25 F2200
G1 Y-2 F1000
M73 P1 R35
M73 Q1 S36
G1 X55 E25 F1400
G1 Z0.2 F1000
M73 Q1 S35
G1 X5 E4 F1000
G92 E0


M221 S95
G92 E0

; Don't change E values below. Excessive value can damage the printer.

G21 ; set units to millimeters
G90 ; use absolute coordinates
M83 ; use relative distances for extrusion
T4
M104 S225 ; set temperature

M900 K0.08 ; Filament gcode LA 1.5
M900 K45 ; Filament gcode LA 1.0




M107
;LAYER_CHANGE
;Z:0.3
;HEIGHT:0.3
; printing object FiberOpticCableHang2 id:0 copy 0
G1 E-1 F2100
; stop printing object FiberOpticCableHang2 id:0 copy 0
G1 Z.5 F720
G1 X97.619 Y78.096 F10800
G1 Z.3 F720
G1 E1 F2100
; printing object FiberOpticCableHang2 id:0 copy 0
M204 S800
;TYPE:Perimeter
;WIDTH:0.42
G1 F720
G1 X97.602 Y78.173 E.0035
G1 X97.602 Y150.192 E3.19439
G1 X97.615 Y150.739 E.02427
M73 P2 R35
M73 Q2 S35
G1 X97.669 Y151.241 E.02239
G1 X97.101 Y150.735 E.03374
G1 X96.097 Y149.956 E.05636
G1 X91.811 Y145.791 E.26508
G1 X88.029 Y141.165 E.26503
G1 X84.798 Y136.139 E.26502
G1 X82.162 Y130.777 E.26502
G1 X80.154 Y125.149 E.26504
G1 X78.801 Y119.329 E.26503
G1 X78.12 Y113.392 E.26506
G1 X78.12 Y107.417 E.26502
G1 X78.801 Y101.481 E.26502
G1 X80.154 Y95.661 E.26503
G1 X82.162 Y90.033 E.26504
G1 X84.798 Y84.671 E.26502
G1 X88.029 Y79.644 E.26505
G1 X91.811 Y75.018 E.26503
G1 X96.096 Y70.854 E.26502
G1 X100.828 Y67.205 E.26504
G1 X105.945 Y64.12 E.26502
G1 X111.38 Y61.637 E.26503
G1 X117.063 Y59.791 E.26503
G1 X122.92 Y58.604 E.26507
G1 X128.873 Y58.093 E.26501
G1 X134.846 Y58.264 E.26504
G1 X140.76 Y59.114 E.26501
G1 X146.539 Y60.633 E.26503
G1 X152.107 Y62.801 E.26503
G1 X157.392 Y65.589 E.26503
G1 X162.324 Y68.962 E.26502
G1 X166.84 Y72.875 E.26504
G1 X171.286 Y77.712 E.29141
G1 X170.664 Y77.649 E.02773
G1 X170.154 Y77.64 E.02262
G1 X98.629 Y77.639 E3.17247
G1 X98.024 Y77.651 E.02684
M73 P3 R34
M73 Q3 S35
G1 X97.835 Y77.732 E.00912
G1 X97.653 Y77.944 E.01239
G1 X97.632 Y78.037 E.00423
M204 S1000
G1 X97.632 Y78.037 F10800
G1 X97.957 Y78.173
M204 S800
;TYPE:External perimeter
G1 F720
G1 X97.958 Y150.185 E3.19408
G1 X97.969 Y150.701 E.02289
G1 X98.023 Y151.203 E.02239
G1 X98.151 Y151.705 E.02298
G1 X98.149 Y152.224 E.02302
G1 X97.819 Y151.986 E.01805
G1 X97.381 Y151.484 E.02955
G1 X96.883 Y151.016 E.03031
G1 X95.863 Y150.225 E.05725
G1 X91.549 Y146.032 E.26684
G1 X87.741 Y141.375 E.26682
G1 X84.488 Y136.314 E.26685
G1 X81.834 Y130.915 E.26684
G1 X79.812 Y125.249 E.26684
G1 X78.45 Y119.39 E.2668
G1 X77.764 Y113.413 E.26685
G1 X77.764 Y107.397 E.26684
G1 X78.45 Y101.42 E.26685
G1 X79.812 Y95.561 E.2668
G1 X81.834 Y89.894 E.26688
G1 X84.488 Y84.496 E.2668
G1 X87.741 Y79.435 E.26685
G1 X91.549 Y74.778 E.26682
G1 X95.863 Y70.585 E.26684
G1 X100.627 Y66.911 E.26684
G1 X105.779 Y63.805 E.26683
G1 X111.251 Y61.306 E.26682
G1 X116.973 Y59.447 E.26686
G1 X122.869 Y58.252 E.26683
G1 X128.863 Y57.737 E.26684
G1 X134.876 Y57.909 E.26681
G1 X140.831 Y58.765 E.26685
G1 X146.649 Y60.294 E.26682
G1 X152.255 Y62.477 E.26684
G1 X157.576 Y65.284 E.26684
G1 X162.542 Y68.68 E.26684
G1 X167.089 Y72.62 E.26686
G1 X171.497 Y77.415 E.28889
G1 X171.875 Y77.736 E.022
M73 P4 R34
G1 X172.178 Y78.12 E.0217
G1 X172.213 Y78.184 E.00324
G1 X171.678 Y78.18 E.02373
G1 X171.174 Y78.057 E.02301
G1 X170.657 Y78.005 E.02305
G1 X170.154 Y77.995 E.02231
G1 X98.135 Y77.995 E3.19439
G1 X98.026 Y78.032 E.00511
M73 Q4 S34
G1 X97.984 Y78.119 E.00429
M204 S1000
G1 E-1 F2100
G1 X97.984 Y78.119 Z.5 F10800
G1 X97.267 Y82.993
G1 Z.3 F720
G1 E1 F2100
M204 S800
;TYPE:Internal infill
;WIDTH:0.42
G1 F720
G1 X97.267 Y80.493 E.11089
G1 X85.929 Y83.531 E.52064
G1 X85.091 Y84.836 E.06879
G1 X84.409 Y86.223 E.06855
G1 X97.267 Y99.081 E.80655
G1 X97.267 Y96.462 E.11617
G1 X79.185 Y101.307 E.83032
G1 X79.006 Y102.634 E.05939
G1 X97.267 Y120.895 E1.14546
G1 X97.267 Y120.415 E.02129
G1 X80.445 Y124.923 E.77246
G1 X80.117 Y123.512 E.06425
G1 X93.4 Y73.942 E2.27624
G1 X93.675 Y73.675 E.017
G1 X97.54 Y77.54 E.24244
G1 X97.767 Y77.384 E.01222
G1 X98.127 Y77.304 E.01636
G1 X100.483 Y77.304 E.1045
G1 X103.519 Y65.974 E.52027
G1 X106.19 Y64.376 E.13806
G1 X119.118 Y77.304 E.81094
M73 P5 R34
G1 X116.452 Y77.304 E.11825
M73 Q5 S34
G1 X121.282 Y59.278 E.82774
G1 X122.632 Y59.004 E.0611
G1 X140.932 Y77.305 E1.14794
G1 X140.405 Y77.305 E.02337
G1 X144.895 Y60.547 E.76952
G1 X146.379 Y60.937 E.06806
G1 X162.746 Y77.305 E1.02669
G1 X164.359 Y77.305 E.07154
G1 X165.693 Y72.325 E.22867
G1 X163.77 Y70.658 E.11288
G1 X138.966 Y77.305 E1.139
G1 X136.466 Y77.304 E.11089
M204 S1000
G1 E-1 F2100
G1 X136.466 Y77.304 Z.5 F10800
G1 X126.937 Y77.304
G1 Z.3 F720
G1 E1 F2100
M204 S800
G1 F720
G1 X124.437 Y77.304 E.11089
G1 X129.49 Y58.446 E.86595
G1 X133.083 Y58.549 E.15943
G1 X151.839 Y77.305 E1.17651
G1 X148.39 Y77.305 E.15298
M73 P5 R33
G1 X152.166 Y63.211 E.64718
G1 X155.399 Y64.917 E.16214
G1 X109.168 Y77.304 E2.1229
G1 X108.661 Y77.304 E.02249
M73 P6 R33
M204 S1000
G1 E-1 F2100
G1 X108.661 Y77.304 Z.5 F10800
G1 X97.554 Y70.153
G1 Z.3 F720
M73 Q6 S34
G1 E1 F2100
M204 S800
G1 F720
G1 X99.534 Y68.627 E.11088
G1 X108.211 Y77.304 E.54428
G1 X108.468 Y77.304 E.0114
G1 X112.685 Y61.566 E.72268
G1 X113.894 Y61.173 E.05639
G1 X130.025 Y77.304 E1.01185
G1 X132.421 Y77.304 E.10627
G1 X137.336 Y58.96 E.84234
G1 X140.694 Y59.443 E.15048
G1 X143.387 Y60.151 E.12351
G1 X93.964 Y73.394 E2.26948
G1 X95.757 Y71.652 E.11088
M204 S1000
G1 E-1 F2100
G1 X95.757 Y71.652 Z.5 F10800
G1 X90.168 Y77.557
G1 Z.3 F720
G1 E1 F2100
M204 S800
G1 F720
G1 X88.586 Y79.493 E.11089
G1 X97.267 Y88.174 E.54453
G1 X97.267 Y88.478 E.01348
G1 X81.572 Y92.683 E.7207
G1 X81.149 Y93.87 E.05589
G1 X97.267 Y109.988 E1.01104
G1 X97.267 Y112.431 E.10836
G1 X78.911 Y117.35 E.8429
G1 X79.131 Y119.272 E.08581
G1 X79.259 Y119.822 E.02505
M204 S1000
G1 E-1 F2100
G1 X79.259 Y119.822 Z.5 F10800
G1 X80.495 Y125.109
G1 Z.3 F720
G1 E1 F2100
M204 S800
G1 F720
G1 X80.955 Y126.397 E.06066
G1 X97.267 Y142.709 E1.02321
G1 X97.267 Y144.369 E.07363
M73 P7 R33
M73 Q6 S33
G1 X92.22 Y145.721 E.23175
G1 X90.642 Y143.832 E.10917
G1 X97.267 Y119.106 E1.1354
G1 X97.267 Y116.606 E.11089
M73 Q7 S33
M204 S1000
G1 E-1 F2100
G1 X97.267 Y116.606 Z.5 F10800
G1 X97.267 Y106.947
G1 Z.3 F720
G1 E1 F2100
M204 S800
G1 F720
G1 X97.267 Y104.447 E.11089
G1 X78.455 Y109.487 E.86383
G1 X78.455 Y112.989 E.15533
G1 X97.267 Y131.802 E1.18006
G1 X97.267 Y128.4 E.1509
G1 X83.218 Y132.164 E.64512
G1 X84.878 Y135.542 E.16694
G1 X97.267 Y89.308 E2.12305
G1 X97.267 Y88.671 E.02825
M204 S1000
G1 E-1 F2100
G1 X97.267 Y88.671 Z.5 F10800
G1 X88.483 Y141.191
G1 Z.3 F720
G1 E1 F2100
M204 S800
G1 F720
G1 X87.105 Y139.107 E.11082
G1 X97.267 Y136.384 E.46663
G1 X97.267 Y138.884 E.11089
M204 S1000
G1 E-1 F2100
G1 X97.267 Y138.884 Z.5 F10800
G1 X97.267 Y146.403
G1 Z.3 F720
G1 E1 F2100
M204 S800
G1 F720
G1 X97.267 Y148.903 E.11089
G1 X96.924 Y150.183 E.05878
G1 X96.318 Y149.703 E.03429
G1 X95.079 Y148.5 E.0766
M204 S1000
G1 E-1 F2100
G1 X95.079 Y148.5 Z.5 F10800
G1 X94.684 Y148.907
G1 X98.199 Y68.94
G1 X161.468 Y68.096
G1 X161.477 Y68.101
G1 X161.157 Y68.57
G1 Z.3 F720
G1 E1 F2100
M204 S800
G1 F720
G1 X159.093 Y67.158 E.11092
G1 X156.374 Y77.305 E.46595
G1 X158.874 Y77.305 E.11089
M204 S1000
G1 E-1 F2100
G1 X158.874 Y77.305 Z.5 F10800
G1 X166.263 Y77.305
G1 Z.3 F720
G1 E1 F2100
M204 S800
G1 F720
G1 X168.763 Y77.305 E.11089
G1 X170.123 Y76.941 E.06245
G1 X168.431 Y75.1 E.11091
M204 S1000
;LAYER_CHANGE
;Z:0.6
;HEIGHT:0.3
;BEFORE_LAYER_CHANGE
G92 E0.0
;0.6


;WIPE_START
G1 F8640
G1 X170.123 Y76.941 E-.57736
G1 X168.763 Y77.305 E-.32508
G1 X168.341 Y77.305 E-.09756
;WIPE_END
G1 Z.6 F720
;AFTER_LAYER_CHANGE
;0.6
M140 S90 ; set bed temperature
G1 Z.8
G1 X171.448 Y77.794 F10800
G1 Z.6 F720
G1 E1 F2100
M204 S800
;TYPE:Perimeter
;WIDTH:0.45
G1 F2700
G1 X98.235 Y77.803 E3.52129
G1 X98.01 Y77.894 E.01167
M73 P8 R33
M73 Q8 S33
G1 X97.812 Y78.126 E.01467
G1 X97.757 Y78.373 E.01217
G1 X97.757 Y151.432 E3.51388
G1 F2509.82
G1 X95.995 Y150.073 E.10702
G1 F2676.153
G1 X91.697 Y145.896 E.28826
G1 F2700
G1 X87.903 Y141.257 E.28824
G1 X84.663 Y136.215 E.28826
G1 X82.019 Y130.837 E.28823
G1 X80.005 Y125.193 E.28822
G1 X78.648 Y119.355 E.28827
G1 X77.965 Y113.401 E.28824
G1 X77.965 Y107.408 E.28824
G1 X78.648 Y101.454 E.28824
G1 X80.005 Y95.617 E.28823
G1 X82.019 Y89.973 E.28822
G1 X84.663 Y84.595 E.28823
G1 X87.903 Y79.553 E.28826
G1 X91.697 Y74.913 E.28827
G1 X95.995 Y70.737 E.28823
G1 X100.741 Y67.077 E.28826
G1 X105.873 Y63.982 E.28824
G1 X111.324 Y61.493 E.28821
G1 X117.024 Y59.641 E.28826
G1 X122.897 Y58.451 E.28821
G1 X128.868 Y57.938 E.28824
G1 X134.859 Y58.109 E.28826
G1 X140.791 Y58.962 E.28824
G1 X146.587 Y60.485 E.28823
G1 X152.172 Y62.66 E.28827
G1 X157.472 Y65.456 E.28821
G1 X162.419 Y68.839 E.28825
G1 X166.948 Y72.764 E.28825
G1 X171.013 Y77.196 E.28925
G1 X171.412 Y77.746 E.03268
M204 S1000
G1 X171.412 Y77.746 F10800
G1 X172.205 Y78.18
M204 S800
;TYPE:External perimeter
G1 F1500
G1 X98.335 Y78.18 E3.55289
G1 X98.205 Y78.231 E.00672
G1 X98.142 Y78.373 E.00747
G1 X98.142 Y151.541 E3.51913
G1 X98.142 Y152.216 E.03247
M73 P8 R32
G1 X95.742 Y150.365 E.14577
G1 X95.258 Y149.894 E.03248
G1 X91.896 Y146.628 E.22544
G1 X91.412 Y146.157 E.03248
G1 X87.591 Y141.484 E.29033
G1 X84.327 Y136.405 E.29038
G1 X81.663 Y130.987 E.29038
G1 X79.634 Y125.301 E.29037
G1 X78.267 Y119.421 E.29035
G1 X77.579 Y113.423 E.29037
G1 X77.579 Y107.386 E.29036
G1 X78.267 Y101.389 E.29033
G1 X79.634 Y95.508 E.2904
G1 X81.663 Y89.822 E.29037
G1 X84.327 Y84.405 E.29034
G1 X87.591 Y79.326 E.29038
G1 X90.985 Y75.175 E.25789
G1 X91.412 Y74.652 E.03247
G1 X95.742 Y70.445 E.29037
G1 X100.523 Y66.758 E.29038
G1 X105.692 Y63.641 E.29031
G1 X111.184 Y61.133 E.29039
G1 X116.926 Y59.267 E.29039
G1 X122.842 Y58.068 E.29032
G1 X128.857 Y57.552 E.29036
G1 X134.892 Y57.724 E.29038
G1 X140.868 Y58.583 E.29038
G1 X146.706 Y60.118 E.29033
G1 X152.332 Y62.308 E.29037
G1 X157.672 Y65.126 E.2904
G1 X162.655 Y68.533 E.29033
G1 X167.218 Y72.487 E.2904
G1 X171.325 Y76.97 E.29242
G1 X172.169 Y78.131 E.06904
M204 S1000
G1 E-1 F2100
G1 X172.169 Y78.131 Z.8 F10800
G1 X168.583 Y75.058
G1 Z.6 F720
G1 E1 F2100
;TYPE:Internal infill
;WIDTH:0.45
G1 F3630.522
G1 X170.274 Y76.9 E.12026
G1 X168.232 Y77.447 E.10168
G1 X165.732 Y77.447 E.12024
G1 E-1 F2100
G1 X165.732 Y77.447 Z.8 F10800
G1 X158.836 Y77.447
G1 Z.6 F720
G1 E1 F2100
G1 F3630.522
G1 X156.336 Y77.447 E.12024
G1 X159.132 Y67.012 E.51959
G1 X161.196 Y68.423 E.12025
G1 E-1 F2100
G1 X161.196 Y68.423 Z.8 F10800
G1 X109.011 Y77.447
G1 Z.6 F720
M73 P9 R32
G1 E1 F2100
G1 F3630.522
G1 X108.635 Y77.447 E.01808
G1 X155.602 Y64.862 E2.33864
G1 X152.204 Y63.069 E.18479
M73 Q9 S33
G1 X148.352 Y77.447 E.71592
G1 X151.982 Y77.447 E.17459
G1 X132.936 Y58.401 E1.29549
G1 X129.528 Y58.304 E.16398
G1 X124.398 Y77.447 E.9532
G1 X126.898 Y77.447 E.12024
G1 E-1 F2100
G1 X126.898 Y77.447 Z.8 F10800
G1 X135.933 Y77.447
G1 Z.6 F720
G1 E1 F2100
G1 F3630.522
G1 X138.433 Y77.447 E.12024
G1 X163.937 Y70.614 E1.26992
G1 X165.734 Y72.171 E.11436
G1 X164.321 Y77.447 E.2627
G1 X162.889 Y77.447 E.06887
G1 X146.179 Y60.737 E1.13659
G1 X144.932 Y60.409 E.06202
G1 X140.367 Y77.447 E.84837
G1 X141.075 Y77.447 E.03405
G1 X122.511 Y58.883 E1.2627
G1 X121.324 Y59.124 E.05826
G1 X116.414 Y77.447 E.91237
G1 X119.261 Y77.447 E.13693
G1 X106.082 Y64.268 E.89642
G1 X103.573 Y65.775 E.14077
G1 X100.445 Y77.447 E.58119
G1 X98.321 Y77.447 E.10216
G1 X98.017 Y77.502 E.01486
G1 X97.7 Y77.7 E.01798
G1 X93.574 Y73.574 E.28065
G1 X93.472 Y73.672 E.0068
G1 X80.039 Y123.805 E2.49628
G1 X80.307 Y124.96 E.05703
G1 X97.41 Y120.377 E.85162
G1 X97.41 Y121.037 E.03174
G1 X78.877 Y102.504 E1.26059
G1 X79.028 Y101.349 E.05602
G1 X97.41 Y96.424 E.91529
G1 X97.41 Y99.224 E.13467
G1 X84.302 Y86.116 E.89159
G1 X84.966 Y84.765 E.0724
G1 X85.724 Y83.586 E.06741
G1 X97.41 Y80.455 E.58188
G1 X97.41 Y82.955 E.12024
G1 E-1 F2100
G1 X97.41 Y82.955 Z.8 F10800
G1 X97.41 Y89.151
G1 Z.6 F720
G1 E1 F2100
G1 F3630.522
G1 X97.41 Y88.775 E.01808
G1 X84.822 Y135.752 E2.33914
G1 X83.077 Y132.202 E.19026
G1 X97.41 Y128.362 E.71368
G1 X97.41 Y131.944 E.17228
G1 X78.312 Y112.846 E1.29902
G1 X78.312 Y109.526 E.15968
G1 X97.41 Y104.408 E.95096
G1 X97.41 Y106.908 E.12024
G1 E-1 F2100
G1 X97.41 Y106.908 Z.8 F10800
G1 X97.41 Y116.074
G1 Z.6 F720
G1 E1 F2100
G1 F3630.522
G1 X97.41 Y118.574 E.12024
G1 X90.596 Y144.002 E1.26615
G1 X92.059 Y145.764 E.11015
G1 X97.41 Y144.331 E.26643
G1 X97.41 Y142.851 E.07118
G1 X80.719 Y126.161 E1.13527
G1 X80.357 Y125.146 E.05183
G1 E-1 F2100
G1 X80.357 Y125.146 Z.8 F10800
G1 X79.121 Y119.859
G1 Z.6 F720
G1 E1 F2100
G1 F3630.522
G1 X78.99 Y119.296 E.0278
G1 X78.771 Y117.387 E.09242
G1 X97.41 Y112.393 E.92809
G1 X97.41 Y110.131 E.10879
G1 X81.037 Y93.758 E1.11367
G1 X81.404 Y92.728 E.05259
M73 Q9 S32
G1 X97.41 Y88.439 E.79699
G1 X97.41 Y88.317 E.00587
G1 X88.484 Y79.391 E.60714
G1 X90.067 Y77.456 E.12024
G1 E-1 F2100
G1 X90.067 Y77.456 Z.8 F10800
G1 X95.473 Y71.727
G1 Z.6 F720
G1 E1 F2100
G1 F3630.522
G1 X93.68 Y73.47 E.12027
G1 X143.666 Y60.076 E2.48897
G1 X140.722 Y59.303 E.1464
G1 X137.374 Y58.821 E.16269
G1 X132.383 Y77.447 E.92745
G1 X130.168 Y77.447 E.10653
G1 X113.78 Y61.06 E1.11466
G1 X112.729 Y61.401 E.05314
G1 X108.429 Y77.447 E.79899
G1 X108.354 Y77.447 E.00361
G1 X99.432 Y68.525 E.60686
G1 X97.452 Y70.051 E.12023
G1 E-1 F2100
G1 X97.452 Y70.051 Z.8 F10800
G1 X88.333 Y141.234
G1 Z.6 F720
G1 E1 F2100
G1 F3630.522
G1 X86.96 Y139.146 E.12019
G1 X97.41 Y136.346 E.52034
G1 X97.41 Y138.846 E.12024
G1 E-1 F2100
G1 X97.41 Y138.846 Z.8 F10800
G1 X97.41 Y145.872
G1 Z.6 F720
G1 E1 F2100
G1 F3630.522
G1 X97.41 Y148.372 E.12024
G1 X96.887 Y150.323 E.09715
G1 X96.222 Y149.81 E.0404
G1 X95.031 Y148.653 E.07986
;LAYER_CHANGE
;Z:0.9
;HEIGHT:0.3
;BEFORE_LAYER_CHANGE
G92 E0.0
;0.9


;WIPE_START
G1 F8640
G1 X96.222 Y149.81 E-.38341
G1 X96.887 Y150.323 E-.19393
G1 X97.361 Y148.555 E-.42266
;WIPE_END
G1 Z.9 F720
;AFTER_LAYER_CHANGE
;0.9
G1 Z1.1
G1 X97.757 Y151.432 F10800
G1 Z.9 F720
G1 E1 F2100
M204 S800
;TYPE:Perimeter
;WIDTH:0.45
G1 F2700
G1 X95.995 Y150.073 E.10702
G1 X91.697 Y145.896 E.28826
M73 P10 R32
G1 X87.903 Y141.257 E.28824
G1 X84.663 Y136.215 E.28826
G1 X82.019 Y130.837 E.28823
G1 X80.005 Y125.193 E.28822
G1 X78.648 Y119.355 E.28827
G1 X77.965 Y113.401 E.28824
G1 X77.965 Y107.408 E.28824
G1 X78.648 Y101.454 E.28824
G1 X80.005 Y95.617 E.28823
G1 X82.019 Y89.973 E.28822
M73 Q10 S32
G1 X84.663 Y84.595 E.28823
G1 X87.903 Y79.553 E.28826
G1 X91.697 Y74.913 E.28827
G1 X95.995 Y70.737 E.28823
G1 X100.741 Y67.077 E.28826
