; generated by PrusaSlicer 2.7.3+linux-x64-GTK3 on 2024-05-31 at 19:56:03 UTC


;
;
; 

; external perimeters extrusion width = 0.45mm
; perimeters extrusion width = 0.45mm
; infill extrusion width = 0.45mm
; solid infill extrusion width = 0.45mm
; top infill extrusion width = 0.40mm
; first layer extrusion width = 0.42mm

M73 P0 R23
M73 Q0 S24
M201 X1000 Y1000 Z200 E8000 ; sets maximum accelerations, mm/sec^2
M203 X200 Y200 Z12 E120 ; sets maximum feedrates, mm / sec
M204 S1250 T1250 ; sets acceleration (S) and retract acceleration (R), mm/sec^2
M205 X8.00 Y8.00 Z0.40 E4.50 ; sets the jerk limits, mm/sec
M205 S0 T0 ; sets the minimum extruding and travel feed rate, mm/sec

; printing object FiberOpticCableHang1 id:0 copy 0
; stop printing object FiberOpticCableHang1 id:0 copy 0

;TYPE:Custom
M862.3 P "MK3SMMU3" ; printer model check
M862.1 P0.4 ; nozzle diameter check
M115 U3.13.3 ; tell printer latest fw version
G90 ; use absolute coordinates
M83 ; extruder relative mode
M104 S225 ; set extruder temp
M140 S85 ; set bed temp
M190 S85 ; wait for bed temp
M109 S225 ; wait for extruder temp
G28 W ; home all without mesh bed level
G80 X115.217 Y82.5 W19.5669 H45 ; mesh bed levelling

; Send the filament type to the MMU unit.
; E stands for extruder number, F stands for filament type (0: default; 1:flex; 2: PVA)
M403 E0 F0
M403 E1 F0
M403 E2 F0
M403 E3 F0
M403 E4 F0


;go outside print area
G1 Y-3 F1000
G1 Z0.4 F1000
M73 P1 R23
M73 Q1 S24
; select extruder
T4
; initial load
G1 X55 E29 F1073
G1 X5 E29 F1800
G1 X55 E8 F2000
G1 Z0.3 F1000
G92 E0
G1 X240 E25 F2200
G1 Y-2 F1000
G1 X55 E25 F1400
G1 Z0.2 F1000
M73 P2 R23
M73 Q2 S24
G1 X5 E4 F1000
G92 E0


M221 S95
G92 E0

; Don't change E values below. Excessive value can damage the printer.

G21 ; set units to millimeters
G90 ; use absolute coordinates
M83 ; use relative distances for extrusion
T4
M104 S225 ; set temperature

M900 K0.08 ; Filament gcode LA 1.5
M900 K45 ; Filament gcode LA 1.0




M107
;LAYER_CHANGE
;Z:0.3
;HEIGHT:0.3
; printing object FiberOpticCableHang1 id:0 copy 0
G1 E-1 F2100
; stop printing object FiberOpticCableHang1 id:0 copy 0
G1 Z.5 F720
G1 X124.155 Y89.731 F10800
G1 Z.3 F720
G1 E1 F2100
; printing object FiberOpticCableHang1 id:0 copy 0
M204 S800
;TYPE:Perimeter
;WIDTH:0.42
G1 F720
G1 X122.127 Y89.373 E.09134
;WIDTH:0.461542
G1 X122.032 Y89.335 E.00507
;WIDTH:0.503084
G1 X121.938 Y89.298 E.00553
;WIDTH:0.544626
G1 X121.843 Y89.26 E.00613
;WIDTH:0.586169
G1 X121.749 Y89.222 E.0066
G1 X121.267 Y89.159 E.03164
;WIDTH:0.543704
G1 X120.785 Y89.095 E.02907
;WIDTH:0.501239
G1 X120.303 Y89.032 E.02649
;WIDTH:0.458774
G1 X119.822 Y88.969 E.02386
;WIDTH:0.416309
G1 X119.34 Y88.905 E.02134
;WIDTH:0.421793
G1 X119.266 Y88.868 E.00369
;WIDTH:0.469741
G1 X119.191 Y88.83 E.00425
;WIDTH:0.517689
G1 X119.117 Y88.793 E.00468
;WIDTH:0.565637
G1 X119.043 Y88.755 E.0052
;WIDTH:0.613585
G1 X118.968 Y88.718 E.00573
G1 X119.048 Y88.694 E.00572
;WIDTH:0.565637
G1 X119.128 Y88.67 E.00522
;WIDTH:0.517689
G1 X119.208 Y88.646 E.00472
;WIDTH:0.469741
G1 X119.287 Y88.622 E.00417
;WIDTH:0.421793
G1 X119.367 Y88.598 E.00372
;WIDTH:0.416309
G1 X119.852 Y88.619 E.02131
;WIDTH:0.458774
G1 X120.338 Y88.641 E.02393
;WIDTH:0.501239
G1 X120.823 Y88.662 E.02645
;WIDTH:0.543704
G1 X121.308 Y88.683 E.02902
;WIDTH:0.586169
G1 X121.794 Y88.704 E.03166
G1 X121.893 Y88.684 E.00657
;WIDTH:0.544626
G1 X121.993 Y88.663 E.00612
;WIDTH:0.503084
G1 X122.093 Y88.642 E.00559
;WIDTH:0.461542
G1 X122.192 Y88.621 E.00501
;WIDTH:0.42
G1 X124.351 Y88.621 E.09576
G1 X124.166 Y89.672 E.04733
M204 S1000
G1 E-1 F2100
G1 X124.166 Y89.672 Z.5 F10800
G1 X124.865 Y88.266
G1 Z.3 F720
G1 E1 F2100
M204 S800
G1 F720
G1 X124.755 Y88.375 E.00687
G1 X124.444 Y90.143 E.07962
G1 X117.737 Y88.96 E.30208
;WIDTH:0.465767
G1 X117.61 Y88.915 E.00675
;WIDTH:0.511534
G1 X117.483 Y88.869 E.00753
;WIDTH:0.557301
G1 X117.356 Y88.823 E.0083
G1 X116.8 Y88.765 E.03437
;WIDTH:0.54963
G1 X116.564 Y88.826 E.01475
G1 X116.47 Y88.734 E.00796
G1 X116.171 Y88.625 E.01926
;WIDTH:0.536855
G1 X116.228 Y88.303 E.01927
G1 X116.331 Y88.283 E.00618
G1 X116.483 Y88.187 E.01059
;WIDTH:0.540018
G1 X116.635 Y88.285 E.01073
G1 X116.851 Y88.313 E.01292
;WIDTH:0.557301
G1 X117.399 Y88.334 E.03372
G1 X117.532 Y88.311 E.0083
;WIDTH:0.511534
G1 X117.665 Y88.289 E.00752
;WIDTH:0.465767
G1 X117.798 Y88.266 E.00676
;WIDTH:0.42
G1 X124.805 Y88.266 E.31079
M204 S1000
G1 E-1 F2100
G1 X124.805 Y88.266 Z.5 F10800
G1 X117.798 Y88.616
G1 Z.3 F720
G1 E1 F2100
M204 S800
;WIDTH:0.449682
G1 F720
G1 X118.032 Y88.636 E.01129
;WIDTH:0.490658
G1 X118.266 Y88.657 E.01249
;WIDTH:0.531633
G1 X118.5 Y88.677 E.01369
;WIDTH:0.572609
G1 X118.734 Y88.698 E.01489
;WIDTH:0.613585
G1 X118.968 Y88.718 E.01609
M204 S1000
G1 E-1 F2100
G1 X118.968 Y88.718 Z.5 F10800
G1 X118.85 Y89.392
G1 X117.439 Y89.143
G1 X116.617 Y89.066
G1 X116.617 Y102.967
G1 X117.35 Y103.034
G1 X118.968 Y103.034
G1 X118.968 Y103.718
G1 Z.3 F720
G1 E1 F2100
M204 S800
;WIDTH:0.613581
G1 F720
M73 P3 R23
G1 X119.048 Y103.694 E.00572
;WIDTH:0.565633
G1 X119.128 Y103.67 E.00522
;WIDTH:0.517685
G1 X119.208 Y103.646 E.00472
;WIDTH:0.469738
G1 X119.287 Y103.622 E.00417
;WIDTH:0.42179
G1 X119.367 Y103.598 E.00372
;WIDTH:0.416307
G1 X119.852 Y103.619 E.02131
;WIDTH:0.458772
G1 X120.338 Y103.641 E.02393
;WIDTH:0.501237
G1 X120.823 Y103.662 E.02645
;WIDTH:0.543702
G1 X121.308 Y103.683 E.02902
;WIDTH:0.586167
G1 X121.794 Y103.704 E.03166
G1 X121.893 Y103.684 E.00657
;WIDTH:0.544625
G1 X121.993 Y103.663 E.00612
;WIDTH:0.503083
G1 X122.093 Y103.642 E.00559
;WIDTH:0.461541
G1 X122.192 Y103.621 E.00501
;WIDTH:0.42
G1 X124.351 Y103.621 E.09576
G1 X124.155 Y104.731 E.05
G1 X122.127 Y104.373 E.09134
;WIDTH:0.461541
G1 X122.032 Y104.335 E.00507
;WIDTH:0.503083
G1 X121.938 Y104.298 E.00553
;WIDTH:0.544625
G1 X121.843 Y104.26 E.00613
;WIDTH:0.586167
G1 X121.749 Y104.222 E.0066
G1 X121.267 Y104.159 E.03164
;WIDTH:0.543702
G1 X120.785 Y104.095 E.02907
;WIDTH:0.501237
G1 X120.303 Y104.032 E.02649
;WIDTH:0.458772
G1 X119.822 Y103.969 E.02386
;WIDTH:0.416307
G1 X119.34 Y103.905 E.02134
;WIDTH:0.42179
G1 X119.266 Y103.868 E.00369
;WIDTH:0.469738
G1 X119.191 Y103.83 E.00425
;WIDTH:0.517685
G1 X119.117 Y103.793 E.00468
;WIDTH:0.565633
G1 X119.043 Y103.755 E.0052
;WIDTH:0.613581
G1 X119.022 Y103.745 E.00159
M204 S1000
G1 E-1 F2100
G1 Z.5 F720
G1 X116.483 Y103.187 F10800
G1 Z.3 F720
G1 E1 F2100
M204 S800
;WIDTH:0.540018
G1 F720
G1 X116.635 Y103.285 E.01073
G1 X116.851 Y103.313 E.01292
M73 Q3 S24
;WIDTH:0.557301
G1 X117.399 Y103.334 E.03372
G1 X117.532 Y103.311 E.0083
;WIDTH:0.511534
G1 X117.665 Y103.289 E.00752
;WIDTH:0.465767
G1 X117.798 Y103.266 E.00676
;WIDTH:0.42
G1 X124.865 Y103.266 E.31346
G1 X124.755 Y103.375 E.00687
G1 X124.444 Y105.143 E.07962
G1 X117.737 Y103.96 E.30208
;WIDTH:0.465767
G1 X117.61 Y103.915 E.00675
;WIDTH:0.511534
G1 X117.483 Y103.869 E.00753
;WIDTH:0.557301
G1 X117.356 Y103.823 E.0083
G1 X116.8 Y103.765 E.03437
;WIDTH:0.549631
G1 X116.564 Y103.826 E.01475
G1 X116.47 Y103.734 E.00796
G1 X116.171 Y103.625 E.01926
;WIDTH:0.536856
G1 X116.228 Y103.303 E.01927
G1 X116.331 Y103.283 E.00618
G1 X116.433 Y103.219 E.0071
M204 S1000
G1 E-1 F2100
G1 X116.433 Y103.219 Z.5 F10800
G1 X117.798 Y103.616
G1 Z.3 F720
G1 E1 F2100
M204 S800
;WIDTH:0.449681
G1 F720
G1 X118.032 Y103.636 E.01129
;WIDTH:0.490656
G1 X118.266 Y103.657 E.01249
;WIDTH:0.531631
G1 X118.5 Y103.677 E.01369
;WIDTH:0.572606
G1 X118.734 Y103.698 E.01489
;WIDTH:0.613581
G1 X118.968 Y103.718 E.01609
M204 S1000
G1 E-1 F2100
G1 X118.968 Y103.718 Z.5 F10800
G1 X116.851 Y102.91
G1 Z.3 F720
G1 E1 F2100
M204 S800
;TYPE:External perimeter
;WIDTH:0.42208
G1 F720
G1 X116.725 Y102.859 E.00606
;WIDTH:0.432191
G1 X116.667 Y102.732 E.0064
G1 X116.667 Y89.346 E.61409
G1 X116.756 Y89.196 E.008
M73 Q3 S23
;WIDTH:0.42
G1 X116.882 Y89.171 E.0057
G1 X117.283 Y89.241 E.01806
G1 X124.732 Y90.555 E.3355
G1 X125.106 Y88.437 E.0954
;WIDTH:0.432191
G1 X125.281 Y88.284 E.01066
G1 X131.835 Y88.284 E.30067
;WIDTH:0.435565
G1 X132.422 Y88.316 E.02722
G1 X132.895 Y88.465 E.02296
;WIDTH:0.429473
G1 X133.296 Y88.727 E.02181
;WIDTH:0.428452
G1 X133.518 Y88.952 E.01435
;WIDTH:0.442899
G1 X133.803 Y89.378 E.0242
;WIDTH:0.486751
G1 X133.826 Y89.789 E.02169
;WIDTH:0.530603
G1 X133.849 Y90.2 E.02394
G1 X133.828 Y90.597 E.02312
;WIDTH:0.490029
G1 X133.808 Y90.993 E.02105
;WIDTH:0.449456
G1 X133.769 Y91.099 E.00542
;WIDTH:0.43654
G1 X133.464 Y91.522 E.02421
;WIDTH:0.429473
G1 X133.11 Y91.811 E.02081
G1 X132.863 Y91.949 E.01288
G1 X132.518 Y92.065 E.01657
G1 X132.157 Y92.114 E.01659
G1 X131.793 Y92.093 E.0166
;WIDTH:0.430265
G1 X131.439 Y92.003 E.01667
;WIDTH:0.434093
G1 X131.106 Y91.845 E.017
;WIDTH:0.443809
G1 X130.809 Y91.618 E.01769
;WIDTH:0.447906
G1 X130.66 Y91.437 E.01121
G1 X130.382 Y91.403 E.0134
G1 X130.191 Y91.437 E.00928
G1 X130.522 Y91.865 E.02588
;WIDTH:0.443809
G1 X130.924 Y92.168 E.02382
;WIDTH:0.433966
G1 X131.387 Y92.37 E.02329
;WIDTH:0.430009
G1 X131.811 Y92.463 E.0198
;WIDTH:0.42953
G1 X132.244 Y92.473 E.01973
G1 X132.671 Y92.402 E.01971
G1 X133.077 Y92.251 E.01973
;WIDTH:0.43144
G1 X133.363 Y92.103 E.01474
G1 X133.705 Y92.265 E.01733
;WIDTH:0.432191
G1 X133.8 Y92.419 E.0083
G1 X133.8 Y102.981 E.48453
G1 X133.705 Y103.135 E.0083
M73 P3 R22
;WIDTH:0.429451
G1 X133.363 Y103.297 E.01723
;WIDTH:0.42988
G1 X132.959 Y103.098 E.02053
;WIDTH:0.435565
G1 X132.544 Y102.979 E.01999
G1 X131.851 Y102.917 E.03221
;WIDTH:0.43219
G1 X124.663 Y102.91 E.32975
;WIDTH:0.42
G1 X116.911 Y102.91 E.34384
M204 S1000
G1 E-1 F2100
G1 X116.911 Y102.91 Z.5 F10800
G1 X116.904 Y102.993
G1 X116.617 Y104.066
G1 X116.617 Y117.967
G1 X117.35 Y118.034
G1 X118.999 Y118.034
G1 X118.999 Y118.621
G1 Z.3 F720
G1 E1 F2100
M204 S800
;TYPE:Perimeter
G1 F720
G1 X124.351 Y118.621 E.23739
G1 X124.155 Y119.731 E.05
G1 X117.862 Y118.621 E.28343
G1 X118.939 Y118.621 E.04777
M204 S1000
G1 E-1 F2100
G1 X118.939 Y118.621 Z.5 F10800
G1 X116.483 Y118.187
G1 Z.3 F720
G1 E1 F2100
M204 S800
;WIDTH:0.540018
G1 F720
G1 X116.635 Y118.285 E.01073
G1 X116.992 Y118.316 E.02126
;WIDTH:0.521717
G1 X119.241 Y118.3 E.12829
;WIDTH:0.487811
G1 X121.49 Y118.283 E.11878
;WIDTH:0.453905
G1 X123.738 Y118.266 E.10922
;WIDTH:0.42
G1 X124.865 Y118.266 E.04999
G1 X124.755 Y118.375 E.00687
G1 X124.444 Y120.143 E.07962
G1 X123.587 Y119.992 E.0386
;WIDTH:0.453905
G1 X121.376 Y119.585 E.10922
;WIDTH:0.487811
G1 X119.164 Y119.177 E.11879
;WIDTH:0.521717
G1 X116.953 Y118.77 E.12824
G1 X116.8 Y118.765 E.00873
;WIDTH:0.54963
G1 X116.564 Y118.826 E.01475
G1 X116.47 Y118.734 E.00796
G1 X116.171 Y118.625 E.01926
;WIDTH:0.536856
G1 X116.228 Y118.303 E.01927
G1 X116.331 Y118.283 E.00618
G1 X116.433 Y118.219 E.0071
M204 S1000
G1 E-1 F2100
G1 X116.433 Y118.219 Z.5 F10800
G1 X116.756 Y119.196
G1 Z.3 F720
G1 E1 F2100
M204 S800
;TYPE:External perimeter
;WIDTH:0.432191
G1 F720
G1 X116.667 Y119.346 E.008
G1 X116.667 Y127.084 E.35498
G1 X116.3 Y127.084 E.01684
G1 X116.3 Y119.346 E.35498
G1 X116.256 Y119.107 E.01115
M73 P4 R22
;WIDTH:0.42
G1 X116.195 Y119.057 E.0035
G1 X115.692 Y118.961 E.02271
G1 X115.877 Y117.91 E.04733
G1 X116.116 Y117.91 E.0106
;WIDTH:0.42208
G1 X116.242 Y117.859 E.00606
;WIDTH:0.432191
G1 X116.3 Y117.732 E.0064
G1 X116.3 Y104.346 E.61409
G1 X116.256 Y104.107 E.01115
;WIDTH:0.42
G1 X116.195 Y104.057 E.0035
G1 X115.692 Y103.961 E.02271
G1 X115.877 Y102.91 E.04733
G1 X116.116 Y102.91 E.0106
M73 Q4 S23
;WIDTH:0.42208
G1 X116.242 Y102.859 E.00606
;WIDTH:0.432191
G1 X116.3 Y102.732 E.0064
G1 X116.3 Y89.346 E.61409
G1 X116.256 Y89.107 E.01115
;WIDTH:0.42
G1 X116.195 Y89.057 E.0035
G1 X115.692 Y88.961 E.02271
G1 X115.877 Y87.91 E.04733
G1 X116.18 Y87.898 E.01345
;WIDTH:0.433595
G1 X116.3 Y87.748 E.00885
G1 X116.3 Y82.916 E.22252
;WIDTH:0.432191
G1 X116.667 Y82.916 E.01684
G1 X116.667 Y87.732 E.22094
G1 X116.725 Y87.859 E.0064
;WIDTH:0.42208
G1 X116.851 Y87.91 E.00606
;WIDTH:0.42
G1 X124.663 Y87.91 E.3465
;WIDTH:0.43219
G1 X131.851 Y87.917 E.32975
;WIDTH:0.44084
G1 X132.602 Y87.986 E.03541
G1 X133.077 Y88.149 E.02358
;WIDTH:0.429473
G1 X133.525 Y88.407 E.02354
;WIDTH:0.428452
G1 X133.681 Y88.414 E.00709
;WIDTH:0.432191
G1 X133.8 Y88.249 E.00933
G1 X133.8 Y82.916 E.24465
G1 X134.167 Y82.916 E.01684
G1 X134.167 Y88.249 E.24465
;WIDTH:0.434977
G1 X134.166 Y88.313 E.00296
;WIDTH:0.451733
G1 X134.158 Y89.237 E.04464
;WIDTH:0.48217
G1 X134.218 Y89.496 E.01385
;WIDTH:0.512608
G1 X134.278 Y89.756 E.01492
;WIDTH:0.530603
G1 X134.314 Y90.178 E.02463
G1 X134.278 Y90.644 E.02718
;WIDTH:0.512607
G1 X134.222 Y90.933 E.01646
;WIDTH:0.474573
G1 X134.165 Y91.222 E.01507
;WIDTH:0.43654
G1 X134.173 Y91.816 E.02757
;WIDTH:0.432191
G1 X134.167 Y102.981 E.5122
;WIDTH:0.434977
G1 X134.173 Y103.688 E.03268
;WIDTH:0.451733
G1 X134.158 Y104.237 E.02653
;WIDTH:0.48217
G1 X134.218 Y104.496 E.01385
;WIDTH:0.512608
G1 X134.278 Y104.756 E.01492
;WIDTH:0.530603
G1 X134.314 Y105.178 E.02463
G1 X134.278 Y105.644 E.02718
;WIDTH:0.512608
G1 X134.222 Y105.933 E.01646
;WIDTH:0.474573
G1 X134.165 Y106.222 E.01507
;WIDTH:0.436539
G1 X134.173 Y106.816 E.02757
;WIDTH:0.432191
G1 X134.173 Y118.748 E.54738
;WIDTH:0.443623
G1 X134.173 Y119.302 E.0262
;WIDTH:0.478115
G1 X134.23 Y119.551 E.01318
;WIDTH:0.512608
G1 X134.287 Y119.801 E.01434
;WIDTH:0.530603
G1 X134.314 Y120.178 E.02198
G1 X134.278 Y120.644 E.02718
;WIDTH:0.512608
G1 X134.222 Y120.933 E.01646
;WIDTH:0.474573
G1 X134.165 Y121.222 E.01507
;WIDTH:0.436539
G1 X134.173 Y121.816 E.02757
;WIDTH:0.432191
G1 X134.167 Y127.084 E.24167
G1 X133.8 Y127.084 E.01684
G1 X133.8 Y122.419 E.21401
G1 X133.705 Y122.265 E.0083
;WIDTH:0.431441
G1 X133.363 Y122.103 E.01733
G1 X133.077 Y122.251 E.01474
;WIDTH:0.429528
G1 X132.671 Y122.402 E.01973
G1 X132.244 Y122.473 E.01971
G1 X131.811 Y122.463 E.01973
;WIDTH:0.43001
G1 X131.387 Y122.37 E.0198
;WIDTH:0.433967
G1 X130.924 Y122.168 E.02329
;WIDTH:0.443808
G1 X130.522 Y121.865 E.02382
;WIDTH:0.447906
G1 X130.191 Y121.437 E.02588
G1 X130.382 Y121.403 E.00928
G1 X130.66 Y121.437 E.0134
G1 X130.809 Y121.618 E.01121
;WIDTH:0.443808
G1 X131.106 Y121.845 E.01769
;WIDTH:0.434094
G1 X131.439 Y122.003 E.017
;WIDTH:0.430266
G1 X131.793 Y122.093 E.01667
;WIDTH:0.429472
G1 X132.157 Y122.114 E.0166
G1 X132.518 Y122.065 E.01659
G1 X132.863 Y121.949 E.01657
G1 X133.11 Y121.811 E.01288
G1 X133.464 Y121.522 E.02081
;WIDTH:0.436539
G1 X133.769 Y121.099 E.02421
;WIDTH:0.449453
G1 X133.808 Y120.993 E.00542
;WIDTH:0.490028
G1 X133.828 Y120.597 E.02105
;WIDTH:0.530603
G1 X133.849 Y120.2 E.02312
G1 X133.826 Y119.789 E.02394
;WIDTH:0.486751
G1 X133.803 Y119.378 E.02169
;WIDTH:0.442899
G1 X133.518 Y118.952 E.0242
;WIDTH:0.428453
G1 X133.296 Y118.727 E.01435
;WIDTH:0.429475
G1 X132.895 Y118.465 E.02181
;WIDTH:0.435563
G1 X132.422 Y118.316 E.02296
G1 X131.835 Y118.284 E.02722
;WIDTH:0.432191
G1 X125.281 Y118.284 E.30067
G1 X125.106 Y118.437 E.01066
;WIDTH:0.42
G1 X124.732 Y120.555 E.0954
G1 X116.882 Y119.171 E.35355
G1 X116.815 Y119.184 E.00303
M204 S1000
G1 E-1 F2100
G1 Z.5 F720
G1 X116.824 Y119.086 F10800
G1 X125.084 Y118.233
G1 X131.817 Y118.233
G1 X132.546 Y118.238
G1 X132.9 Y118.412
G1 X133.228 Y118.592
G1 X133.557 Y118.795
G1 X133.763 Y119.121
G1 X133.866 Y119.346
G1 X133.904 Y119.73
G1 X133.917 Y120.2
G1 X133.904 Y120.67
G1 X133.866 Y121.054
G1 X133.763 Y121.279
G1 X133.557 Y121.605
G1 X133.02 Y122.226
G1 X133.796 Y121.779
G1 X133.787 Y121.764
G1 Z.3 F720
G1 E1 F2100
M204 S800
;TYPE:Perimeter
;WIDTH:0.540235
G1 F720
G1 X133.728 Y121.764 E.0035
G1 X133.698 Y121.816 E.00356
G1 X133.728 Y121.867 E.00351
G1 X133.787 Y121.867 E.0035
G1 X133.817 Y121.816 E.00351
M204 S1000
G1 E-1 F2100
G1 X133.817 Y121.816 Z.5 F10800
G1 X133.525 Y118.407
G1 Z.3 F720
G1 E1 F2100
M204 S800
;TYPE:External perimeter
;WIDTH:0.429475
G1 F720
G1 X133.077 Y118.149 E.02354
;WIDTH:0.440841
G1 X132.602 Y117.986 E.02358
G1 X131.851 Y117.917 E.03541
;WIDTH:0.432192
G1 X124.663 Y117.91 E.32975
;WIDTH:0.42
G1 X116.851 Y117.91 E.3465
M73 P5 R22
;WIDTH:0.42208
G1 X116.725 Y117.859 E.00606
;WIDTH:0.432191
G1 X116.667 Y117.732 E.0064
G1 X116.667 Y104.346 E.61409
