; generated by PrusaSlicer 2.7.3+linux-x64-GTK3 on 2024-06-06 at 17:09:08 UTC


;
;
; 

; external perimeters extrusion width = 0.45mm
; perimeters extrusion width = 0.45mm
; infill extrusion width = 0.45mm
; solid infill extrusion width = 0.45mm
; top infill extrusion width = 0.40mm
; first layer extrusion width = 0.42mm

M73 P0 R39
M73 Q0 S39
M201 X1000 Y1000 Z200 E8000 ; sets maximum accelerations, mm/sec^2
M203 X200 Y200 Z12 E120 ; sets maximum feedrates, mm / sec
M204 S1250 T1250 ; sets acceleration (S) and retract acceleration (R), mm/sec^2
M205 X8.00 Y8.00 Z0.40 E4.50 ; sets the jerk limits, mm/sec
M205 S0 T0 ; sets the minimum extruding and travel feed rate, mm/sec

; printing object FiberOpticCableHang2 id:0 copy 0
; stop printing object FiberOpticCableHang2 id:0 copy 0

;TYPE:Custom
M862.3 P "MK3SMMU3" ; printer model check
M862.1 P0.4 ; nozzle diameter check
M115 U3.13.3 ; tell printer latest fw version
G90 ; use absolute coordinates
M83 ; extruder relative mode
M104 S225 ; set extruder temp
M140 S85 ; set bed temp
M190 S85 ; wait for bed temp
M109 S225 ; wait for extruder temp
G28 W ; home all without mesh bed level
G80 X83.0908 Y51.9594 W95.4667 H95.4667 ; mesh bed levelling

; Send the filament type to the MMU unit.
; E stands for extruder number, F stands for filament type (0: default; 1:flex; 2: PVA)
M403 E0 F0
M403 E1 F0
M403 E2 F0
M403 E3 F0
M403 E4 F0


;go outside print area
G1 Y-3 F1000
G1 Z0.4 F1000
; select extruder
T4
; initial load
G1 X55 E29 F1073
G1 X5 E29 F1800
G1 X55 E8 F2000
G1 Z0.3 F1000
M73 P0 R38
G92 E0
G1 X240 E25 F2200
G1 Y-2 F1000
M73 P1 R38
M73 Q1 S39
G1 X55 E25 F1400
G1 Z0.2 F1000
G1 X5 E4 F1000
G92 E0


M221 S95
G92 E0

; Don't change E values below. Excessive value can damage the printer.

G21 ; set units to millimeters
G90 ; use absolute coordinates
M83 ; use relative distances for extrusion
T4
M104 S225 ; set temperature

M900 K0.08 ; Filament gcode LA 1.5
M900 K45 ; Filament gcode LA 1.0




M107
;LAYER_CHANGE
;Z:0.3
;HEIGHT:0.3
; printing object FiberOpticCableHang2 id:0 copy 0
G1 E-1 F2100
; stop printing object FiberOpticCableHang2 id:0 copy 0
G1 Z.5 F720
G1 X103.487 Y145.975 F10800
G1 Z.3 F720
G1 E1 F2100
; printing object FiberOpticCableHang2 id:0 copy 0
M204 S800
;TYPE:Perimeter
;WIDTH:0.42
G1 F720
G1 X103.156 Y145.654 E.02045
G1 X101.581 Y144.315 E.09169
G1 X100.366 Y143.209 E.07288
G1 X99.185 Y142.065 E.07293
G1 X98.041 Y140.885 E.0729
G1 X96.934 Y139.669 E.07294
G1 X95.867 Y138.419 E.0729
G1 X94.839 Y137.135 E.07296
G1 X93.851 Y135.821 E.07292
G1 X92.906 Y134.476 E.07291
G1 X92.003 Y133.101 E.07296
G1 X91.145 Y131.7 E.07287
G1 X90.33 Y130.272 E.07293
G1 X89.561 Y128.819 E.07292
G1 X88.837 Y127.342 E.07296
G1 X88.161 Y125.844 E.0729
G1 X87.702 Y124.737 E.05315
G1 X86.95 Y122.785 E.09278
G1 X86.418 Y121.232 E.07281
G1 X85.935 Y119.66 E.07294
G1 X85.501 Y118.074 E.07293
G1 X85.117 Y116.476 E.0729
G1 X84.792 Y114.907 E.07107
G1 X84.501 Y113.246 E.0748
G1 X84.269 Y111.619 E.0729
G1 X84.089 Y109.984 E.07296
G1 X83.963 Y108.388 E.07101
G1 X83.882 Y106.703 E.07482
G1 X83.857 Y105.059 E.07293
G1 X83.882 Y103.416 E.07288
G1 X83.96 Y101.773 E.07296
G1 X84.089 Y100.134 E.07292
G1 X84.269 Y98.5 E.07291
G1 X84.501 Y96.872 E.07294
G1 X84.784 Y95.253 E.0729
G1 X85.117 Y93.643 E.07292
G1 X85.491 Y92.086 E.07102
G1 X85.935 Y90.458 E.07485
G1 X86.418 Y88.887 E.0729
G1 X86.951 Y87.332 E.07291
G1 X87.532 Y85.794 E.07292
G1 X88.161 Y84.275 E.07292
G1 X88.82 Y82.815 E.07105
G1 X89.561 Y81.3 E.0748
G1 X90.33 Y79.847 E.07292
G1 X91.145 Y78.419 E.07293
G1 X92.004 Y77.017 E.07293
G1 X92.883 Y75.679 E.07101
G1 X93.852 Y74.298 E.07483
G1 X94.839 Y72.983 E.07293
G1 X95.867 Y71.7 E.07292
G1 X96.934 Y70.45 E.0729
G1 X98.041 Y69.234 E.07294
G1 X99.185 Y68.054 E.0729
G1 X100.397 Y66.881 E.07481
G1 X101.582 Y65.803 E.07106
G1 X102.832 Y64.735 E.07292
G1 X104.115 Y63.707 E.07292
G1 X105.43 Y62.72 E.07293
G1 X106.775 Y61.775 E.07291
G1 X108.149 Y60.872 E.07293
M73 P2 R38
G1 X109.55 Y60.013 E.07289
G1 X110.979 Y59.198 E.07297
M73 Q2 S39
G1 X112.432 Y58.429 E.07292
G1 X113.908 Y57.706 E.0729
G1 X115.406 Y57.029 E.07291
G1 X116.925 Y56.4 E.07292
G1 X118.463 Y55.819 E.07292
G1 X120.019 Y55.286 E.07295
G1 X121.59 Y54.803 E.0729
G1 X123.217 Y54.359 E.0748
G1 X124.774 Y53.985 E.07102
G1 X126.384 Y53.652 E.07292
G1 X128.004 Y53.369 E.07294
G1 X129.632 Y53.138 E.07293
G1 X131.266 Y52.957 E.07292
G1 X132.905 Y52.828 E.07292
G1 X134.547 Y52.751 E.07291
G1 X136.233 Y52.726 E.07479
G1 X137.835 Y52.751 E.07106
G1 X139.477 Y52.828 E.07291
G1 X141.116 Y52.957 E.07292
G1 X142.75 Y53.138 E.07292
G1 X144.378 Y53.369 E.07293
G1 X145.997 Y53.652 E.0729
G1 X147.607 Y53.985 E.07292
G1 X149.206 Y54.369 E.07294
G1 X150.832 Y54.816 E.0748
G1 X152.363 Y55.286 E.07103
G1 X153.918 Y55.819 E.07291
G1 X155.456 Y56.4 E.07292
G1 X156.975 Y57.029 E.07292
G1 X158.474 Y57.706 E.07295
G1 X159.95 Y58.429 E.0729
G1 X161.403 Y59.198 E.07292
G1 X162.831 Y60.013 E.07293
G1 X164.233 Y60.872 E.07293
G1 X165.517 Y61.716 E.06815
G1 X166.953 Y62.72 E.07772
G1 X168.267 Y63.707 E.07289
G1 X169.55 Y64.735 E.07292
G1 X170.8 Y65.803 E.07292
G1 X172.016 Y66.909 E.07291
G1 X173.197 Y68.053 E.07293
G1 X174.341 Y69.234 E.07293
G1 X175.447 Y70.45 E.07291
G1 X176.735 Y71.965 E.0882
G1 X177.107 Y72.356 E.02394
G1 X176.574 Y72.304 E.02375
G1 X176.063 Y72.294 E.02267
G1 X113.555 Y72.317 E2.77253
G1 X112.634 Y72.407 E.04105
M73 Q2 S38
G1 X111.628 Y72.604 E.04547
G1 X110.646 Y72.894 E.04542
G1 X109.696 Y73.277 E.04543
G1 X108.786 Y73.749 E.04547
G1 X107.926 Y74.305 E.04542
G1 X107.122 Y74.94 E.04544
G1 X106.382 Y75.649 E.04546
G1 X105.713 Y76.425 E.04544
G1 X105.121 Y77.261 E.04544
G1 X104.611 Y78.149 E.04542
G1 X104.187 Y79.082 E.04546
G1 X103.869 Y80.002 E.04318
G1 X103.579 Y81.297 E.05886
G1 X103.47 Y82.108 E.0363
G1 X103.425 Y83.054 E.04201
G1 X103.426 Y144.932 E2.74458
G1 X103.436 Y145.442 E.02263
G1 X103.482 Y145.915 E.02108
M204 S1000
G1 E-1 F2100
G1 X103.482 Y145.915 Z.5 F10800
G1 X103.972 Y146.977
G1 Z.3 F720
G1 E1 F2100
M204 S800
;TYPE:External perimeter
G1 F720
G1 X103.77 Y146.844 E.01073
G1 X103.264 Y146.263 E.03417
G1 X102.926 Y145.925 E.0212
G1 X101.346 Y144.583 E.09195
G1 X100.122 Y143.469 E.07341
G1 X98.933 Y142.317 E.07343
G1 X97.782 Y141.128 E.0734
G1 X96.667 Y139.904 E.07344
G1 X95.593 Y138.645 E.0734
G1 X94.558 Y137.353 E.07343
G1 X93.564 Y136.03 E.0734
G1 X92.612 Y134.676 E.07342
G1 X91.703 Y133.292 E.07344
G1 X90.838 Y131.881 E.07341
G1 X90.018 Y130.443 E.07342
G1 X89.244 Y128.98 E.07341
G1 X88.516 Y127.494 E.0734
G1 X87.834 Y125.985 E.07345
G1 X87.372 Y124.869 E.05357
G1 X86.616 Y122.907 E.09326
G1 X86.08 Y121.341 E.07342
G1 X85.593 Y119.759 E.07342
G1 X85.156 Y118.163 E.0734
G1 X84.77 Y116.553 E.07343
G1 X84.443 Y114.974 E.07152
G1 X84.15 Y113.302 E.07529
G1 X83.916 Y111.663 E.07343
G1 X83.735 Y110.018 E.0734
G1 X83.608 Y108.41 E.07154
G1 X83.527 Y106.714 E.07531
G1 X83.501 Y105.059 E.07342
G1 X83.527 Y103.404 E.07342
G1 X83.605 Y101.751 E.0734
G1 X83.735 Y100.101 E.07341
G1 X83.916 Y98.455 E.07345
G1 X84.15 Y96.817 E.07339
G1 X84.434 Y95.186 E.07343
G1 X84.77 Y93.565 E.07343
G1 X85.146 Y91.997 E.07152
M73 P3 R38
G1 X85.593 Y90.359 E.07531
G1 X86.08 Y88.777 E.07342
G1 X86.616 Y87.211 E.07342
G1 X87.201 Y85.663 E.0734
M73 Q3 S38
G1 X87.834 Y84.134 E.0734
G1 X88.498 Y82.664 E.07154
G1 X89.244 Y81.139 E.0753
G1 X90.018 Y79.676 E.07341
G1 X90.838 Y78.238 E.07342
G1 X91.703 Y76.827 E.07341
G1 X92.589 Y75.479 E.07155
G1 X93.564 Y74.089 E.07531
G1 X94.558 Y72.765 E.07343
G1 X95.593 Y71.473 E.07343
G1 X96.667 Y70.215 E.07337
G1 X97.782 Y68.991 E.07344
G1 X98.933 Y67.802 E.0734
G1 X100.154 Y66.621 E.07535
G1 X101.346 Y65.536 E.07149
G1 X102.605 Y64.461 E.07343
G1 X103.897 Y63.426 E.07343
G1 X105.221 Y62.432 E.07343
G1 X106.575 Y61.481 E.07339
G1 X107.958 Y60.572 E.07341
G1 X109.369 Y59.707 E.07341
G1 X110.807 Y58.887 E.07342
G1 X112.27 Y58.112 E.07343
G1 X113.757 Y57.384 E.07344
G1 X115.265 Y56.703 E.07339
G1 X116.794 Y56.069 E.07342
G1 X118.343 Y55.484 E.07344
G1 X119.909 Y54.948 E.07342
G1 X121.491 Y54.462 E.07341
G1 X123.129 Y54.015 E.07531
G1 X124.697 Y53.638 E.07153
G1 X126.318 Y53.303 E.07342
G1 X127.948 Y53.018 E.0734
G1 X129.587 Y52.785 E.07343
G1 X131.232 Y52.603 E.07341
G1 X132.882 Y52.473 E.07341
G1 X134.536 Y52.395 E.07344
G1 X136.233 Y52.37 E.07528
G1 X137.846 Y52.395 E.07155
G1 X139.499 Y52.473 E.0734
G1 X141.149 Y52.603 E.07341
G1 X142.795 Y52.785 E.07345
G1 X144.433 Y53.018 E.07338
G1 X146.064 Y53.303 E.07344
G1 X147.685 Y53.638 E.07342
G1 X149.294 Y54.025 E.0734
G1 X150.932 Y54.474 E.07533
G1 X152.473 Y54.948 E.07151
G1 X154.039 Y55.484 E.07342
G1 X155.587 Y56.069 E.0734
G1 X157.117 Y56.703 E.07346
G1 X158.625 Y57.384 E.07339
G1 X160.112 Y58.112 E.07344
G1 X161.574 Y58.887 E.07339
G1 X163.012 Y59.707 E.07342
G1 X164.423 Y60.572 E.07341
G1 X165.717 Y61.421 E.06865
G1 X167.161 Y62.432 E.07819
G1 X168.485 Y63.426 E.07343
G1 X169.777 Y64.461 E.07343
G1 X171.035 Y65.536 E.0734
G1 X172.26 Y66.65 E.07344
G1 X173.448 Y67.802 E.0734
G1 X174.6 Y68.991 E.07343
G1 X175.714 Y70.215 E.07341
G1 X177.006 Y71.734 E.08845
G1 X177.362 Y72.105 E.02281
G1 X177.699 Y72.367 E.01893
G1 X177.992 Y72.659 E.01835
G1 X178.109 Y72.84 E.00956
G1 X177.563 Y72.832 E.02422
G1 X177.069 Y72.712 E.02255
G1 X176.567 Y72.66 E.02239
G1 X176.063 Y72.65 E.02236
M73 P3 R37
G1 X113.589 Y72.671 E2.77102
G1 X112.701 Y72.756 E.03957
G1 X111.728 Y72.945 E.04396
G1 X110.778 Y73.225 E.04393
G1 X109.859 Y73.594 E.04393
G1 X108.978 Y74.048 E.04396
G1 X108.146 Y74.584 E.0439
G1 X107.367 Y75.197 E.04397
G1 X106.651 Y75.882 E.04395
G1 X106.003 Y76.631 E.04393
G1 X105.429 Y77.438 E.04393
G1 X104.934 Y78.297 E.04397
G1 X104.523 Y79.198 E.04393
G1 X104.346 Y79.71 E.02403
G1 X104.092 Y80.578 E.04011
G1 X103.931 Y81.348 E.03489
G1 X103.825 Y82.125 E.03478
G1 X103.781 Y83.054 E.04125
G1 X103.781 Y144.932 E2.74458
G1 X103.792 Y145.451 E.02303
G1 X103.845 Y145.953 E.02239
G1 X103.97 Y146.457 E.02303
G1 X103.972 Y146.917 E.0204
M204 S1000
G1 E-1 F2100
G1 X103.972 Y146.917 Z.5 F10800
G1 X97.375 Y139.655
G1 Z.3 F720
G1 E1 F2100
M204 S800
;TYPE:Internal infill
;WIDTH:0.42
G1 F720
G1 X99.084 Y141.48 E.1109
G1 X103.102 Y143.799 E.20577
G1 X103.102 Y142.415 E.06139
G1 X101.198 Y143.514 E.09751
G1 X101.903 Y144.149 E.04208
G1 X101.903 Y65.969 E3.46766
G1 X104.044 Y64.194 E.12336
M73 P4 R37
M73 Q4 S38
G1 X117.518 Y71.973 E.69009
G1 X119.256 Y71.973 E.07709
G1 X119.256 Y55.902 E.71283
G1 X116.911 Y56.769 E.11089
M204 S1000
G1 E-1 F2100
G1 X116.911 Y56.769 Z.5 F10800
G1 X166.703 Y62.955
G1 Z.3 F720
G1 E1 F2100
M204 S800
G1 F720
G1 X168.688 Y64.474 E.11087
G1 X155.701 Y71.972 E.66515
G1 X159.746 Y71.972 E.17942
G1 X159.746 Y58.702 E.58859
G1 X157.443 Y57.608 E.11309
G1 X132.563 Y71.973 E1.27428
G1 X136.608 Y71.972 E.17942
G1 X136.608 Y53.067 E.83853
G1 X134.109 Y53.107 E.11086
M204 S1000
G1 E-1 F2100
G1 X134.109 Y53.107 Z.5 F10800
G1 X130.633 Y53.364
G1 Z.3 F720
G1 E1 F2100
M204 S800
G1 F720
G1 X129.958 Y53.439 E.03012
G1 X94.608 Y73.848 E1.8105
G1 X93.154 Y75.881 E.11086
M73 Q4 S37
M204 S1000
G1 E-1 F2100
G1 X93.154 Y75.881 Z.5 F10800
G1 X97.754 Y70.047
G1 Z.3 F720
G1 E1 F2100
M204 S800
G1 F720
G1 X99.478 Y68.236 E.1109
G1 X108.575 Y73.489 E.46594
G1 X107.687 Y74.07 E.04707
G1 X107.687 Y61.576 E.55417
G1 X109.309 Y60.554 E.08503
M73 P5 R37
G1 X129.086 Y71.973 E1.01293
G1 X130.824 Y71.973 E.07709
M73 Q5 S37
G1 X130.824 Y53.343 E.82633
G1 X131.418 Y53.281 E.02649
G1 X163.79 Y71.971 E1.65798
G1 X165.53 Y71.971 E.07718
G1 X165.53 Y62.134 E.43632
G1 X163.478 Y60.803 E.10849
G1 X144.132 Y71.972 E.99083
G1 X148.177 Y71.972 E.17942
G1 X148.177 Y54.467 E.77643
G1 X150.342 Y55.028 E.0992
G1 X120.993 Y71.973 E1.50316
G1 X125.04 Y71.973 E.1795
G1 X125.04 Y54.273 E.78508
G1 X122.606 Y54.873 E.11119
G1 X152.222 Y71.972 E1.51683
G1 X153.961 Y71.972 E.07713
G1 X153.961 Y56.193 E.69987
G1 X151.591 Y55.4 E.11085
M204 S1000
G1 E-1 F2100
G1 X151.591 Y55.4 Z.5 F10800
G1 X142.584 Y53.457
G1 Z.3 F720
G1 E1 F2100
M204 S800
G1 F720
G1 X143.511 Y53.584 E.0415
G1 X175.358 Y71.971 E1.6311
G1 X171.314 Y71.971 E.17937
M73 P6 R36
M73 Q6 S37
G1 X171.314 Y66.724 E.23273
G1 X173.206 Y68.544 E.11644
G1 X167.27 Y71.971 E.30402
G1 X169.77 Y71.971 E.11089
M204 S1000
G1 E-1 F2100
G1 X169.77 Y71.971 Z.5 F10800
G1 X169.77 Y72.526
G1 X95.044 Y72.356
G1 X84.184 Y112.667
G1 X84.203 Y112.8
G1 X84.764 Y112.72
G1 Z.3 F720
G1 E1 F2100
M204 S800
G1 F720
G1 X84.55 Y111.107 E.07217
G1 X84.55 Y99.011 E.53652
G1 X84.9 Y96.537 E.11083
M204 S1000
G1 E-1 F2100
G1 X84.9 Y96.537 Z.5 F10800
G1 X86.363 Y90.205
G1 Z.3 F720
G1 E1 F2100
M204 S800
G1 F720
G1 X87.135 Y87.827 E.11089
G1 X103.094 Y97.041 E.81737
G1 X103.093 Y95.666 E.06099
G1 X84.215 Y106.565 E.96686
G1 X84.209 Y106.175 E.0173
G1 X103.097 Y117.08 E.96738
G1 X103.097 Y115.701 E.06117
G1 X87.949 Y124.446 E.77581
G1 X88.935 Y126.744 E.11091
M204 S1000
G1 E-1 F2100
G1 X88.935 Y126.744 Z.5 F10800
G1 X90.078 Y129.08
G1 Z.3 F720
G1 E1 F2100
M204 S800
G1 F720
G1 X90.334 Y129.563 E.02425
G1 X90.334 Y80.555 E2.17374
G1 X92.175 Y77.379 E.16283
G1 X103.091 Y83.681 E.55907
G1 X103.128 Y82.288 E.06181
G1 X85.784 Y92.301 E.88829
G1 X85.483 Y93.552 E.05707
G1 X103.095 Y103.72 E.90202
G1 X103.095 Y102.344 E.06103
G1 X84.792 Y112.911 E.93741
M73 P7 R36
G1 X84.836 Y113.216 E.01367
M73 Q7 S37
G1 X103.098 Y123.76 E.93533
G1 X103.098 Y122.379 E.06125
G1 X90.409 Y129.705 E.64989
G1 X90.475 Y129.83 E.00627
G1 X103.101 Y137.12 E.64667
G1 X103.101 Y135.736 E.06139
G1 X97.016 Y139.249 E.31165
G1 X96.118 Y138.197 E.06135
G1 X96.118 Y71.922 E2.93962
G1 X95.541 Y72.643 E.04096
M73 Q7 S36
G1 X104.435 Y77.778 E.45552
G1 X104.838 Y77.081 E.03571
G1 X105.444 Y76.224 E.04656
G1 X105.866 Y75.736 E.02862
M204 S1000
G1 E-1 F2100
G1 X105.866 Y75.736 Z.5 F10800
G1 X111.018 Y72.434
G1 Z.3 F720
G1 E1 F2100
M204 S800
G1 F720
G1 X112.587 Y72.075 E.07139
G1 X113.471 Y71.989 E.03939
G1 X113.471 Y58.293 E.60748
G1 X115.408 Y57.396 E.09468
G1 X140.654 Y71.972 E1.29302
G1 X142.393 Y71.972 E.07713
G1 X142.393 Y53.435 E.82221
G1 X141.671 Y53.356 E.03222
G1 X88.673 Y83.954 E2.71436
G1 X89.376 Y82.441 E.074
M73 P8 R36
G1 X103.092 Y90.361 E.70251
G1 X103.092 Y88.987 E.06094
M73 Q8 S36
G1 X84.47 Y99.739 E.95377
M204 S1000
G1 X84.47 Y99.739 F10800
G1 X84.479 Y99.652
M204 S800
G1 F720
G1 X103.096 Y110.4 E.95349
G1 X103.096 Y109.023 E.06108
G1 X86.062 Y118.857 E.87241
G1 X86.686 Y120.963 E.09743
G1 X103.1 Y130.44 E.84068
G1 X103.099 Y129.058 E.0613
G1 X93.431 Y134.64 E.49517
G1 X92.059 Y132.551 E.11085
M204 S1000
;LAYER_CHANGE
;Z:0.6
;HEIGHT:0.3
;BEFORE_LAYER_CHANGE
G92 E0.0
;0.6


;WIPE_START
G1 F8640
G1 X93.431 Y134.64 E-.57709
G1 X95.017 Y133.724 E-.42291
;WIPE_END
G1 Z.6 F720
;AFTER_LAYER_CHANGE
;0.6
M140 S90 ; set bed temperature
G1 Z.8
G1 X103.58 Y146.182 F10800
G1 Z.6 F720
G1 E1 F2100
M204 S800
;TYPE:Perimeter
;WIDTH:0.45
G1 F2518.225
G1 X102.733 Y145.503 E.05221
G1 F2606.982
G1 X101.479 Y144.432 E.07932
G1 F2673.717
G1 X100.259 Y143.322 E.07933
G1 F2699.458
G1 X99.075 Y142.175 E.07929
G1 X97.928 Y140.991 E.07929
G1 X96.818 Y139.771 E.07933
G1 X95.747 Y138.517 E.07932
G1 X94.716 Y137.23 E.07931
G1 X93.726 Y135.912 E.07928
G1 X92.778 Y134.563 E.0793
G1 X91.873 Y133.184 E.07933
G1 X91.011 Y131.779 E.07928
G1 X90.194 Y130.346 E.07934
G1 X89.423 Y128.889 E.07928
M73 P8 R35
G1 X88.697 Y127.408 E.07933
G1 X88.019 Y125.905 E.0793
G1 X87.442 Y124.514 E.07243
G1 X86.804 Y122.839 E.08621
G1 X86.271 Y121.279 E.07929
G1 X85.786 Y119.703 E.07931
G1 X85.351 Y118.113 E.07928
G1 X84.966 Y116.509 E.07934
G1 X84.66 Y115.035 E.07241
G1 X84.348 Y113.27 E.08621
G1 X84.115 Y111.638 E.07929
G1 X83.934 Y109.999 E.07931
G1 X83.816 Y108.498 E.07242
G1 X83.727 Y106.707 E.08625
G1 X83.702 Y105.059 E.07927
G1 X83.727 Y103.411 E.07927
G1 X83.805 Y101.763 E.07935
G1 X83.934 Y100.12 E.07927
G1 X84.115 Y98.481 E.07931
G1 X84.348 Y96.848 E.07934
G1 X84.631 Y95.224 E.07929
G1 X84.966 Y93.609 E.07933
G1 X85.317 Y92.145 E.07241
G1 X85.786 Y90.415 E.08621
G1 X86.271 Y88.839 E.07931
G1 X86.805 Y87.279 E.0793
G1 X87.387 Y85.737 E.07927
G1 X88.019 Y84.213 E.07935
