; generated by PrusaSlicer 2.7.3+linux-x64-GTK3 on 2024-06-06 at 18:07:31 UTC


;
;
; 

; external perimeters extrusion width = 0.45mm
; perimeters extrusion width = 0.45mm
; infill extrusion width = 0.45mm
; solid infill extrusion width = 0.45mm
; top infill extrusion width = 0.40mm
; first layer extrusion width = 0.42mm

M73 P0 R114
M73 Q0 S116
M201 X1000 Y1000 Z200 E8000 ; sets maximum accelerations, mm/sec^2
M203 X200 Y200 Z12 E120 ; sets maximum feedrates, mm / sec
M204 S1250 T1250 ; sets acceleration (S) and retract acceleration (R), mm/sec^2
M205 X8.00 Y8.00 Z0.40 E4.50 ; sets the jerk limits, mm/sec
M205 S0 T0 ; sets the minimum extruding and travel feed rate, mm/sec

; printing object FiberOpticCableHang2 id:0 copy 0
; stop printing object FiberOpticCableHang2 id:0 copy 0
; printing object FiberOpticCableHang2 id:0 copy 1
; stop printing object FiberOpticCableHang2 id:0 copy 1
; printing object FiberOpticCableHang2 id:0 copy 2
; stop printing object FiberOpticCableHang2 id:0 copy 2

;TYPE:Custom
M862.3 P "MK3SMMU3" ; printer model check
M862.1 P0.4 ; nozzle diameter check
M115 U3.13.3 ; tell printer latest fw version
G90 ; use absolute coordinates
M83 ; extruder relative mode
M104 S225 ; set extruder temp
M140 S85 ; set bed temp
M190 S85 ; wait for bed temp
M109 S225 ; wait for extruder temp
G28 W ; home all without mesh bed level
G80 X43.4683 Y25.6401 W165.69 H160.427 ; mesh bed levelling

; Send the filament type to the MMU unit.
; E stands for extruder number, F stands for filament type (0: default; 1:flex; 2: PVA)
M403 E0 F0
M403 E1 F0
M403 E2 F0
M403 E3 F0
M403 E4 F0


;go outside print area
G1 Y-3 F1000
G1 Z0.4 F1000
; select extruder
T4
; initial load
G1 X55 E29 F1073
G1 X5 E29 F1800
G1 X55 E8 F2000
G1 Z0.3 F1000
M73 P0 R113
G92 E0
G1 X240 E25 F2200
G1 Y-2 F1000
M73 Q0 S115
G1 X55 E25 F1400
G1 Z0.2 F1000
G1 X5 E4 F1000
G92 E0


M221 S95
G92 E0

; Don't change E values below. Excessive value can damage the printer.

G21 ; set units to millimeters
G90 ; use absolute coordinates
M83 ; use relative distances for extrusion
T4
M104 S225 ; set temperature

M900 K0.08 ; Filament gcode LA 1.5
M900 K45 ; Filament gcode LA 1.0




M107
;LAYER_CHANGE
;Z:0.3
;HEIGHT:0.3
; printing object FiberOpticCableHang2 id:0 copy 2
G1 E-1 F2100
; stop printing object FiberOpticCableHang2 id:0 copy 2
G1 Z.5 F720
G1 X134.088 Y184.616 F10800
G1 Z.3 F720
G1 E1 F2100
; printing object FiberOpticCableHang2 id:0 copy 2
M204 S800
;TYPE:Perimeter
;WIDTH:0.42
G1 F720
G1 X133.757 Y184.295 E.02045
G1 X132.182 Y182.956 E.09169
G1 X130.966 Y181.85 E.07291
G1 X129.786 Y180.706 E.0729
G1 X128.641 Y179.526 E.07293
G1 X127.535 Y178.309 E.07294
G1 X126.467 Y177.059 E.07292
G1 X125.439 Y175.776 E.07292
G1 X124.452 Y174.461 E.07293
G1 X123.507 Y173.116 E.07291
G1 X122.604 Y171.742 E.07293
G1 X121.745 Y170.341 E.07289
G1 X120.931 Y168.912 E.07294
G1 X120.161 Y167.459 E.07294
G1 X119.438 Y165.983 E.0729
G1 X118.761 Y164.485 E.07291
G1 X118.303 Y163.378 E.05314
G1 X117.551 Y161.426 E.09278
G1 X117.019 Y159.872 E.07285
G1 X116.535 Y158.301 E.07291
G1 X116.101 Y156.715 E.07293
G1 X115.718 Y155.117 E.07289
G1 X115.393 Y153.548 E.07107
G1 X115.101 Y151.887 E.0748
G1 X114.87 Y150.259 E.07293
G1 X114.689 Y148.625 E.07292
G1 X114.564 Y147.029 E.07101
G1 X114.483 Y145.344 E.07482
G1 X114.457 Y143.7 E.07293
G1 X114.483 Y142.056 E.07293
G1 X114.56 Y140.414 E.07291
G1 X114.689 Y138.775 E.07292
G1 X114.87 Y137.141 E.07292
G1 X115.102 Y135.513 E.07294
G1 X115.384 Y133.894 E.07289
G1 X115.718 Y132.284 E.07293
G1 X116.091 Y130.726 E.07106
G1 X116.535 Y129.099 E.0748
G1 X117.019 Y127.528 E.07291
G1 X117.551 Y125.973 E.0729
G1 X118.132 Y124.435 E.07292
G1 X118.761 Y122.916 E.07292
G1 X119.421 Y121.456 E.07107
G1 X120.161 Y119.941 E.07479
G1 X120.931 Y118.488 E.07294
G1 X121.745 Y117.06 E.07291
G1 X122.604 Y115.658 E.07293
G1 X123.484 Y114.319 E.07107
G1 X124.452 Y112.939 E.07477
G1 X125.439 Y111.624 E.07293
G1 X126.467 Y110.341 E.07292
G1 X127.535 Y109.091 E.07292
G1 X128.641 Y107.875 E.07291
G1 X129.785 Y106.694 E.07293
G1 X130.998 Y105.522 E.07481
G1 X132.182 Y104.444 E.07102
G1 X133.432 Y103.376 E.07292
G1 X134.715 Y102.348 E.07292
G1 X136.03 Y101.361 E.07293
G1 X137.375 Y100.416 E.07291
G1 X138.749 Y99.513 E.07293
G1 X140.151 Y98.654 E.07293
G1 X141.579 Y97.839 E.07293
G1 X143.032 Y97.07 E.07292
G1 X144.509 Y96.347 E.07294
G1 X146.007 Y95.67 E.07291
G1 X147.526 Y95.041 E.07292
G1 X149.064 Y94.46 E.07292
G1 X150.619 Y93.927 E.07291
G1 X152.19 Y93.444 E.0729
G1 X153.818 Y93 E.07485
G1 X155.375 Y92.626 E.07102
G1 X156.985 Y92.293 E.07292
G1 X158.605 Y92.01 E.07294
G1 X160.232 Y91.779 E.07289
G1 X161.866 Y91.598 E.07292
G1 X163.505 Y91.469 E.07292
G1 X165.147 Y91.392 E.07291
G1 X166.834 Y91.367 E.07483
G1 X168.435 Y91.392 E.07102
G1 X170.078 Y91.469 E.07295
G1 X171.717 Y91.598 E.07292
G1 X173.351 Y91.779 E.07292
G1 X174.978 Y92.01 E.07289
G1 X176.598 Y92.293 E.07294
G1 X178.208 Y92.626 E.07292
G1 X179.806 Y93.01 E.0729
G1 X181.433 Y93.456 E.07483
G1 X182.964 Y93.927 E.07105
G1 X184.519 Y94.46 E.07291
G1 X186.057 Y95.041 E.07292
G1 X187.576 Y95.67 E.07292
G1 X189.074 Y96.347 E.07291
G1 X190.551 Y97.07 E.07294
G1 X192.004 Y97.839 E.07292
G1 X193.432 Y98.654 E.07293
G1 X194.834 Y99.513 E.07293
G1 X196.118 Y100.357 E.06815
G1 X197.553 Y101.361 E.07768
G1 X198.868 Y102.348 E.07293
G1 X200.151 Y103.376 E.07292
G1 X201.401 Y104.444 E.07292
G1 X202.617 Y105.55 E.07291
G1 X203.797 Y106.694 E.0729
G1 X204.942 Y107.875 E.07296
G1 X206.048 Y109.09 E.07288
G1 X207.335 Y110.605 E.08817
G1 X207.707 Y110.997 E.02397
G1 X207.175 Y110.945 E.02371
G1 X206.664 Y110.935 E.02267
G1 X144.156 Y110.958 E2.77253
G1 X143.234 Y111.048 E.04109
G1 X142.229 Y111.244 E.04542
G1 X141.247 Y111.535 E.04543
G1 X140.296 Y111.918 E.04547
G1 X139.387 Y112.39 E.04543
G1 X138.526 Y112.946 E.04546
G1 X137.723 Y113.581 E.04541
G1 X136.983 Y114.29 E.04546
G1 X136.314 Y115.066 E.04544
G1 X135.721 Y115.901 E.04543
G1 X135.211 Y116.79 E.04546
G1 X134.788 Y117.723 E.04544
G1 X134.469 Y118.643 E.04319
G1 X134.18 Y119.938 E.05885
G1 X134.07 Y120.749 E.0363
G1 X134.026 Y121.695 E.042
G1 X134.027 Y183.572 E2.74454
G1 X134.036 Y184.083 E.02267
G1 X134.082 Y184.556 E.02108
M204 S1000
G1 E-1 F2100
G1 X134.082 Y184.556 Z.5 F10800
G1 X134.573 Y185.618
G1 Z.3 F720
G1 E1 F2100
M204 S800
;TYPE:External perimeter
G1 F720
G1 X134.37 Y185.485 E.01076
G1 X133.864 Y184.903 E.03421
G1 X133.527 Y184.566 E.02114
G1 X131.947 Y183.223 E.09198
G1 X130.723 Y182.11 E.07338
G1 X129.534 Y180.958 E.07343
G1 X128.382 Y179.769 E.07343
G1 X127.268 Y178.545 E.07341
G1 X126.193 Y177.286 E.07343
G1 X125.158 Y175.994 E.07343
G1 X124.164 Y174.671 E.0734
G1 X123.213 Y173.316 E.07343
G1 X122.304 Y171.933 E.07341
G1 X121.439 Y170.522 E.07341
G1 X120.619 Y169.084 E.07342
G1 X119.844 Y167.621 E.07343
G1 X119.116 Y166.135 E.0734
G1 X118.435 Y164.626 E.07343
G1 X117.973 Y163.51 E.05357
G1 X117.216 Y161.548 E.09328
G1 X116.68 Y159.982 E.07342
M73 P1 R113
G1 X116.194 Y158.4 E.07341
G1 X115.757 Y156.804 E.0734
G1 X115.37 Y155.194 E.07345
G1 X115.043 Y153.615 E.07152
G1 X114.75 Y151.943 E.07529
M73 Q1 S115
G1 X114.517 Y150.304 E.07343
G1 X114.335 Y148.659 E.07341
G1 X114.209 Y147.051 E.07154
G1 X114.128 Y145.355 E.07531
G1 X114.102 Y143.7 E.07342
G1 X114.128 Y142.045 E.07342
G1 X114.206 Y140.392 E.0734
G1 X114.335 Y138.742 E.07341
G1 X114.517 Y137.096 E.07345
G1 X114.75 Y135.458 E.07338
G1 X115.035 Y133.827 E.07344
G1 X115.37 Y132.206 E.07342
G1 X115.747 Y130.638 E.07153
G1 X116.194 Y129 E.07531
G1 X116.68 Y127.418 E.07341
G1 X117.217 Y125.852 E.07343
G1 X117.802 Y124.304 E.0734
G1 X118.435 Y122.774 E.07344
G1 X119.099 Y121.305 E.0715
G1 X119.844 Y119.779 E.07532
G1 X120.619 Y118.317 E.07339
G1 X121.439 Y116.879 E.07342
G1 X122.304 Y115.468 E.07341
G1 X123.189 Y114.12 E.07152
G1 X124.164 Y112.73 E.07531
G1 X125.158 Y111.406 E.07343
G1 X126.193 Y110.114 E.07343
G1 X127.268 Y108.856 E.0734
G1 X128.382 Y107.631 E.07344
G1 X129.534 Y106.443 E.0734
G1 X130.754 Y105.262 E.07531
G1 X131.947 Y104.177 E.07153
G1 X133.206 Y103.102 E.07343
G1 X134.497 Y102.067 E.07339
G1 X135.821 Y101.073 E.07343
G1 X137.175 Y100.121 E.07342
G1 X138.559 Y99.213 E.07342
G1 X139.97 Y98.348 E.07341
G1 X141.408 Y97.528 E.07342
G1 X142.871 Y96.753 E.07343
G1 X144.357 Y96.025 E.0734
G1 X145.866 Y95.344 E.07343
G1 X147.395 Y94.71 E.07342
G1 X148.943 Y94.125 E.0734
G1 X150.509 Y93.589 E.07342
G1 X152.091 Y93.102 E.07342
G1 X153.729 Y92.656 E.0753
G1 X155.298 Y92.279 E.07157
G1 X156.918 Y91.944 E.07337
G1 X158.549 Y91.659 E.07344
G1 X160.188 Y91.426 E.07343
G1 X161.833 Y91.244 E.07341
G1 X163.483 Y91.114 E.07341
G1 X165.136 Y91.036 E.0734
G1 X166.834 Y91.011 E.07532
G1 X168.446 Y91.036 E.07151
G1 X170.1 Y91.114 E.07344
G1 X171.75 Y91.244 E.07341
G1 X173.395 Y91.426 E.07341
G1 X175.034 Y91.659 E.07343
G1 X176.665 Y91.944 E.07344
G1 X178.285 Y92.279 E.07337
G1 X179.895 Y92.666 E.07345
G1 X181.532 Y93.115 E.07529
G1 X183.074 Y93.589 E.07155
G1 X184.64 Y94.125 E.07342
G1 X186.188 Y94.71 E.0734
G1 X187.717 Y95.344 E.07342
G1 X189.226 Y96.025 E.07343
G1 X190.712 Y96.753 E.0734
G1 X192.175 Y97.528 E.07343
G1 X193.613 Y98.348 E.07342
G1 X195.024 Y99.213 E.07341
G1 X196.317 Y100.062 E.06861
G1 X197.762 Y101.073 E.07822
G1 X199.086 Y102.067 E.07343
G1 X200.377 Y103.102 E.07339
G1 X201.636 Y104.177 E.07343
G1 X202.86 Y105.291 E.07341
G1 X204.049 Y106.443 E.07343
M73 P1 R112
G1 X205.201 Y107.631 E.0734
G1 X206.315 Y108.856 E.07344
G1 X207.606 Y110.375 E.08842
G1 X207.962 Y110.746 E.02281
G1 X208.3 Y111.008 E.01897
G1 X208.592 Y111.3 E.01832
G1 X208.709 Y111.481 E.00956
G1 X208.163 Y111.473 E.02422
G1 X207.67 Y111.353 E.02251
G1 X207.168 Y111.3 E.02239
G1 X206.664 Y111.291 E.02236
G1 X144.189 Y111.312 E2.77106
G1 X143.302 Y111.397 E.03952
M73 Q1 S114
G1 X142.329 Y111.586 E.04396
G1 X141.379 Y111.865 E.04392
G1 X140.459 Y112.234 E.04397
G1 X139.579 Y112.689 E.04394
G1 X138.746 Y113.225 E.04394
G1 X137.968 Y113.838 E.04393
G1 X137.252 Y114.523 E.04395
G1 X136.603 Y115.272 E.04396
G1 X136.029 Y116.079 E.04393
G1 X135.535 Y116.938 E.04395
G1 X135.124 Y117.839 E.04393
G1 X134.947 Y118.351 E.02403
G1 X134.693 Y119.219 E.04011
G1 X134.532 Y119.989 E.03489
G1 X134.426 Y120.766 E.03478
G1 X134.381 Y121.695 E.04125
G1 X134.382 Y183.572 E2.74454
G1 X134.393 Y184.092 E.02307
G1 X134.446 Y184.594 E.02239
G1 X134.571 Y185.097 E.02299
G1 X134.572 Y185.558 E.02045
M204 S1000
G1 E-1 F2100
G1 X134.572 Y185.558 Z.5 F10800
G1 X127.976 Y178.296
G1 Z.3 F720
G1 E1 F2100
M204 S800
;TYPE:Internal infill
;WIDTH:0.42
G1 F720
G1 X129.684 Y180.12 E.11084
G1 X133.703 Y182.44 E.20583
G1 X133.703 Y181.056 E.06139
G1 X131.799 Y182.155 E.09751
G1 X132.503 Y182.79 E.04205
G1 X132.503 Y104.61 E3.46766
G1 X134.644 Y102.834 E.12338
G1 X148.119 Y110.614 E.69015
G1 X149.856 Y110.614 E.07704
G1 X149.856 Y94.543 E.71283
G1 X147.512 Y95.41 E.11085
M204 S1000
G1 E-1 F2100
G1 X147.512 Y95.41 Z.5 F10800
G1 X197.304 Y101.595
G1 Z.3 F720
G1 E1 F2100
M204 S800
G1 F720
G1 X199.289 Y103.115 E.11089
G1 X186.302 Y110.613 E.66515
G1 X190.346 Y110.612 E.17937
G1 X190.346 Y97.343 E.58854
G1 X188.043 Y96.249 E.11309
G1 X163.163 Y110.613 E1.27426
G1 X167.209 Y110.613 E.17946
G1 X167.209 Y91.708 E.83853
G1 X164.71 Y91.748 E.11086
M204 S1000
G1 E-1 F2100
G1 X164.71 Y91.748 Z.5 F10800
G1 X161.233 Y92.005
G1 Z.3 F720
G1 E1 F2100
M204 S800
G1 F720
G1 X160.559 Y92.08 E.03008
G1 X125.209 Y112.489 E1.8105
G1 X123.754 Y114.522 E.11089
M204 S1000
G1 E-1 F2100
G1 X123.754 Y114.522 Z.5 F10800
G1 X128.355 Y108.688
G1 Z.3 F720
G1 E1 F2100
M204 S800
G1 F720
G1 X130.078 Y106.877 E.11087
G1 X139.176 Y112.13 E.46597
G1 X138.288 Y112.711 E.04707
G1 X138.288 Y100.217 E.55417
G1 X139.909 Y99.195 E.085
G1 X159.687 Y110.614 E1.01296
G1 X161.425 Y110.613 E.07709
G1 X161.425 Y91.984 E.82629
G1 X162.018 Y91.922 E.02645
G1 X194.39 Y110.612 E1.65798
G1 X196.131 Y110.612 E.07722
G1 X196.131 Y100.774 E.43636
G1 X194.079 Y99.443 E.10849
G1 X174.733 Y110.613 E.99085
G1 X178.778 Y110.613 E.17942
G1 X178.778 Y93.108 E.77643
G1 X180.943 Y93.669 E.0992
G1 X151.594 Y110.614 E1.50316
G1 X155.641 Y110.614 E.1795
G1 X155.641 Y92.914 E.78508
G1 X153.207 Y93.514 E.11119
G1 X182.822 Y110.613 E1.51679
G1 X184.562 Y110.613 E.07718
M73 P2 R112
G1 X184.562 Y94.834 E.69987
G1 X182.192 Y94.04 E.11086
M73 Q2 S114
M204 S1000
G1 E-1 F2100
M73 P2 R111
G1 X182.192 Y94.04 Z.5 F10800
G1 X173.185 Y92.097
G1 Z.3 F720
G1 E1 F2100
M204 S800
G1 F720
G1 X174.112 Y92.225 E.04151
G1 X205.958 Y110.612 E1.63106
G1 X201.915 Y110.612 E.17933
G1 X201.915 Y105.364 E.23277
G1 X203.807 Y107.185 E.11647
M73 Q2 S113
G1 X197.871 Y110.612 E.30402
G1 X200.371 Y110.612 E.11089
M204 S1000
G1 E-1 F2100
G1 X200.371 Y110.612 Z.5 F10800
G1 X200.371 Y111.167
G1 X125.644 Y110.997
G1 X114.785 Y151.308
G1 X114.804 Y151.441
G1 X115.365 Y151.361
G1 Z.3 F720
G1 E1 F2100
M204 S800
G1 F720
G1 X115.151 Y149.748 E.07217
G1 X115.151 Y137.652 E.53652
G1 X115.5 Y135.177 E.11086
M204 S1000
G1 E-1 F2100
G1 X115.5 Y135.177 Z.5 F10800
G1 X116.964 Y128.845
G1 Z.3 F720
G1 E1 F2100
M204 S800
G1 F720
G1 X117.736 Y126.468 E.11085
G1 X133.694 Y135.682 E.81733
G1 X133.694 Y134.307 E.06099
G1 X114.816 Y145.206 E.96686
G1 X114.81 Y144.816 E.0173
G1 X133.698 Y155.721 E.96738
G1 X133.698 Y154.342 E.06117
G1 X118.55 Y163.087 E.77581
G1 X119.535 Y165.385 E.1109
M204 S1000
G1 E-1 F2100
G1 X119.535 Y165.385 Z.5 F10800
G1 X120.679 Y167.721
G1 Z.3 F720
G1 E1 F2100
M204 S800
G1 F720
G1 X120.935 Y168.204 E.02425
G1 X120.935 Y119.196 E2.17374
G1 X122.776 Y116.019 E.16286
G1 X133.692 Y122.322 E.55909
G1 X133.729 Y120.928 E.06185
G1 X116.384 Y130.942 E.88835
G1 X116.084 Y132.193 E.05706
G1 X133.695 Y142.361 E.90198
G1 X133.695 Y140.985 E.06103
G1 X115.392 Y151.552 E.93741
G1 X115.436 Y151.857 E.01367
G1 X133.699 Y162.401 E.93536
G1 X133.699 Y161.02 E.06125
G1 X121.01 Y168.346 E.64989
G1 X121.076 Y168.471 E.00627
G1 X133.702 Y175.761 E.64667
G1 X133.701 Y174.377 E.06139
G1 X127.617 Y177.89 E.31161
G1 X126.719 Y176.838 E.06135
G1 X126.719 Y110.563 E2.93962
G1 X126.141 Y111.284 E.04099
G1 X135.036 Y116.419 E.45556
G1 X135.438 Y115.722 E.03569
G1 X136.045 Y114.865 E.04658
G1 X136.467 Y114.377 E.02862
M204 S1000
G1 E-1 F2100
G1 X136.467 Y114.377 Z.5 F10800
G1 X141.618 Y111.075
G1 Z.3 F720
G1 E1 F2100
M204 S800
G1 F720
G1 X143.187 Y110.716 E.07139
G1 X144.072 Y110.629 E.03944
G1 X144.072 Y96.934 E.60744
G1 X146.008 Y96.037 E.09464
G1 X171.255 Y110.613 E1.29306
G1 X172.993 Y110.613 E.07709
G1 X172.993 Y92.076 E.82221
G1 X172.271 Y91.997 E.03222
G1 X119.274 Y122.595 E2.71433
G1 X119.976 Y121.082 E.07398
G1 X133.693 Y129.002 E.70255
G1 X133.693 Y127.628 E.06094
G1 X115.07 Y138.38 E.95381
M204 S1000
G1 X115.07 Y138.38 F10800
G1 X115.08 Y138.293
M204 S800
G1 F720
G1 X133.697 Y149.041 E.95349
G1 X133.696 Y147.663 E.06112
G1 X116.663 Y157.498 E.87239
G1 X117.287 Y159.604 E.09743
G1 X133.7 Y169.081 E.84064
G1 X133.7 Y167.699 E.0613
G1 X124.032 Y173.281 E.49517
G1 X122.66 Y171.191 E.11089
M204 S1000
; stop printing object FiberOpticCableHang2 id:0 copy 2
; printing object FiberOpticCableHang2 id:0 copy 1
;WIPE_START
G1 F8640
G1 X124.032 Y173.281 E-.57728
G1 X125.617 Y172.366 E-.42272
;WIPE_END
G1 Z.5 F720
M73 P2 R110
G1 X99.19 Y150.255 F10800
G1 Z.3 F720
G1 E1 F2100
M204 S800
;TYPE:Perimeter
;WIDTH:0.42
G1 F720
G1 X98.859 Y149.935 E.02042
G1 X97.284 Y148.596 E.09169
G1 X96.068 Y147.489 E.07294
G1 X94.888 Y146.345 E.0729
G1 X93.744 Y145.165 E.0729
G1 X92.637 Y143.949 E.07294
G1 X91.57 Y142.699 E.0729
G1 X90.542 Y141.415 E.07296
G1 X89.554 Y140.101 E.07292
G1 X88.609 Y138.756 E.07291
G1 X87.706 Y137.381 E.07296
G1 X86.847 Y135.98 E.07289
G1 X86.033 Y134.552 E.07291
G1 X85.264 Y133.099 E.07292
G1 X84.54 Y131.622 E.07296
G1 X83.864 Y130.124 E.0729
G1 X83.405 Y129.017 E.05315
G1 X82.653 Y127.065 E.09278
G1 X82.121 Y125.512 E.07281
G1 X81.637 Y123.94 E.07296
G1 X81.204 Y122.354 E.07292
G1 X80.82 Y120.756 E.0729
G1 X80.495 Y119.187 E.07107
G1 X80.204 Y117.526 E.0748
G1 X79.972 Y115.899 E.0729
M73 Q2 S112
G1 X79.792 Y114.264 E.07296
G1 X79.666 Y112.668 E.07101
